P3
320 180
255
204 226 255
204 226 255
204 226 255
204 226 255
204 226 255
204 226 255
204 226 255
204 226 255
204 226 255
204 226 255
204 226 255
204 226 255
203 226 255
203 226 255
203 226 255
203 226 255
203 226 255
203 226 255
203 226 255
203 225 255
203 225 255
203 225 255
203 225 255
203 225 255
203 225 255
203 225 255
202 225 255
202 225 255
202 225 255
202 225 255
202 225 255
202 225 255
202 225 255
202 225 255
202 225 255
202 225 255
202 225 255
202 225 255
202 225 255
201 225 255
201 225 255
201 225 255
201 224 255
201 224 255
201 224 255
201 224 255
201 224 255
201 224 255
201 224 255
201 224 255
201 224 255
200 224 255
200 224 255
200 224 255
200 224 255
200 224 255
200 224 255
200 224 255
200 224 255
200 224 255
200 224 255
200 224 255
199 224 255
199 224 255
199 223 255
199 223 255
199 223 255
199 223 255
199 223 255
199 223 255
199 223 255
199 223 255
199 223 255
199 223 255
198 223 255
198 223 255
198 223 255
198 223 255
198 223 255
198 223 255
198 223 255
198 223 255
198 223 255
198 223 255
198 223 255
197 222 255
197 222 255
197 222 255
197 222 255
197 222 255
197 222 255
197 222 255
197 222 255
197 222 255
197 222 255
197 222 255
197 222 255
196 222 255
196 222 255
196 222 255
196 222 255
196 222 255
196 222 255
196 222 255
196 222 255
196 222 255
196 222 255
196 222 255
196 221 255
196 221 255
195 221 255
195 221 255
195 221 255
195 221 255
195 221 255
195 221 255
195 221 255
195 221 255
195 221 255
195 221 255
195 221 255
195 221 255
195 221 255
195 221 255
194 221 255
194 221 255
194 221 255
194 221 255
194 221 255
194 221 255
194 221 255
194 221 255
194 221 255
194 221 255
194 221 255
194 221 255
194 221 255
194 221 255
194 221 255
194 221 255
194 221 255
194 221 255
194 220 255
194 220 255
194 220 255
194 220 255
194 220 255
194 220 255
194 220 255
194 220 255
193 220 255
193 220 255
193 220 255
193 220 255
193 220 255
193 220 255
193 220 255
193 220 255
193 220 255
193 220 255
193 220 255
193 220 255
193 220 255
193 220 255
193 220 255
193 220 255
193 220 255
193 220 255
193 220 255
193 220 255
194 220 255
194 220 255
194 220 255
194 220 255
194 220 255
194 220 255
194 220 255
194 220 255
194 221 255
194 221 255
194 221 255
194 221 255
194 221 255
194 221 255
194 221 255
194 221 255
194 221 255
194 221 255
194 221 255
194 221 255
194 221 255
194 221 255
194 221 255
194 221 255
194 221 255
195 221 255
195 221 255
195 221 255
195 221 255
195 221 255
195 221 255
195 221 255
195 221 255
195 221 255
195 221 255
195 221 255
195 221 255
195 221 255
195 221 255
195 221 255
195 221 255
196 222 255
196 222 255
196 222 255
196 222 255
196 222 255
196 222 255
196 222 255
196 222 255
196 222 255
196 222 255
196 222 255
196 222 255
197 222 255
197 222 255
197 222 255
197 222 255
197 222 255
197 222 255
197 222 255
197 222 255
197 222 255
197 222 255
197 222 255
197 222 255
198 223 255
198 223 255
198 223 255
198 223 255
198 223 255
198 223 255
198 223 255
198 223 255
198 223 255
198 223 255
198 223 255
199 223 255
199 223 255
199 223 255
199 223 255
199 223 255
199 223 255
199 223 255
199 223 255
199 223 255
199 223 255
199 224 255
199 224 255
200 224 255
200 224 255
200 224 255
200 224 255
200 224 255
200 224 255
200 224 255
200 224 255
200 224 255
200 224 255
200 224 255
201 224 255
201 224 255
201 224 255
201 224 255
201 224 255
201 224 255
201 224 255
201 224 255
201 224 255
201 225 255
201 225 255
201 225 255
201 225 255
202 225 255
202 225 255
202 225 255
202 225 255
202 225 255
202 225 255
202 225 255
202 225 255
202 225 255
202 225 255
202 225 255
202 225 255
203 225 255
203 225 255
203 225 255
203 225 255
203 225 255
203 225 255
203 225 255
203 226 255
203 226 255
203 226 255
203 226 255
203 226 255
203 226 255
204 226 255
204 226 255
204 226 255
204 226 255
204 226 255
204 226 255
204 226 255
204 226 255
204 226 255
204 226 255
204 226 255
204 226 255
204 226 255
204 226 255
204 226 255
204 226 255
204 226 255
204 226 255
204 226 255
204 226 255
204 226 255
204 226 255
204 226 255
204 226 255
204 226 255
204 226 255
204 226 255
204 226 255
203 226 255
203 226 255
203 226 255
203 226 255
203 226 255
203 226 255
203 225 255
203 225 255
203 225 255
203 225 255
203 225 255
203 225 255
203 225 255
202 225 255
202 225 255
202 225 255
202 225 255
202 225 255
202 225 255
202 225 255
202 225 255
202 225 255
202 225 255
202 225 255
202 225 255
202 225 255
201 225 255
201 225 255
201 225 255
201 224 255
201 224 255
201 224 255
201 224 255
201 224 255
201 224 255
201 224 255
201 224 255
201 224 255
200 224 255
200 224 255
200 224 255
200 224 255
200 224 255
200 224 255
200 224 255
200 224 255
200 224 255
200 224 255
200 224 255
199 224 255
199 224 255
199 223 255
199 223 255
199 223 255
199 223 255
199 223 255
199 223 255
199 223 255
199 223 255
199 223 255
199 223 255
198 223 255
198 223 255
198 223 255
198 223 255
198 223 255
198 223 255
198 223 255
198 223 255
198 223 255
198 223 255
198 223 255
197 222 255
197 222 255
197 222 255
197 222 255
197 222 255
197 222 255
197 222 255
197 222 255
197 222 255
197 222 255
197 222 255
197 222 255
196 222 255
196 222 255
196 222 255
196 222 255
196 222 255
196 222 255
196 222 255
196 222 255
196 222 255
196 222 255
196 222 255
196 222 255
196 221 255
195 221 255
195 221 255
195 221 255
195 221 255
195 221 255
195 221 255
195 221 255
195 221 255
195 221 255
195 221 255
195 221 255
195 221 255
195 221 255
195 221 255
195 221 255
195 221 255
194 221 255
194 221 255
194 221 255
194 221 255
194 221 255
194 221 255
194 221 255
194 221 255
194 221 255
194 221 255
194 221 255
194 221 255
194 221 255
194 221 255
194 221 255
194 221 255
194 221 255
194 221 255
194 221 255
194 221 255
194 221 255
194 220 255
194 220 255
194 220 255
194 220 255
194 220 255
194 220 255
194 220 255
194 220 255
194 220 255
194 220 255
194 220 255
194 220 255
194 220 255
194 220 255
194 220 255
194 220 255
194 220 255
194 220 255
194 220 255
194 220 255
194 220 255
194 220 255
194 220 255
194 221 255
194 221 255
194 221 255
194 221 255
194 221 255
194 221 255
194 221 255
194 221 255
194 221 255
194 221 255
194 221 255
194 221 255
194 221 255
194 221 255
194 221 255
194 221 255
194 221 255
194 221 255
194 221 255
194 221 255
195 221 255
195 221 255
195 221 255
195 221 255
195 221 255
195 221 255
195 221 255
195 221 255
195 221 255
195 221 255
195 221 255
195 221 255
195 221 255
195 221 255
195 221 255
195 221 255
196 221 255
196 222 255
196 222 255
196 222 255
196 222 255
196 222 255
196 222 255
196 222 255
196 222 255
196 222 255
196 222 255
196 222 255
196 222 255
197 222 255
197 222 255
197 222 255
197 222 255
197 222 255
197 222 255
197 222 255
197 222 255
197 222 255
197 222 255
197 222 255
197 222 255
198 223 255
198 223 255
198 223 255
198 223 255
198 223 255
198 223 255
198 223 255
198 223 255
198 223 255
198 223 255
198 223 255
199 223 255
199 223 255
199 223 255
199 223 255
199 223 255
199 223 255
199 223 255
199 223 255
199 223 255
199 223 255
199 224 255
199 224 255
200 224 255
200 224 255
200 224 255
200 224 255
200 224 255
200 224 255
200 224 255
200 224 255
200 224 255
200 224 255
200 224 255
201 224 255
201 224 255
201 224 255
201 224 255
201 224 255
201 224 255
201 224 255
201 224 255
201 224 255
201 225 255
201 225 255
201 225 255
202 225 255
202 225 255
202 225 255
202 225 255
202 225 255
202 225 255
202 225 255
202 225 255
202 225 255
202 225 255
202 225 255
202 225 255
202 225 255
203 225 255
203 225 255
203 225 255
203 225 255
203 225 255
203 225 255
203 225 255
203 226 255
203 226 255
203 226 255
203 226 255
203 226 255
203 226 255
204 226 255
204 226 255
204 226 255
204 226 255
204 226 255
204 226 255
204 226 255
204 226 255
204 226 255
204 226 255
204 226 255
204 226 255
204 226 255
204 226 255
204 226 255
205 226 255
205 226 255
205 226 255
204 226 255
204 226 255
204 226 255
204 226 255
204 226 255
204 226 255
204 226 255
204 226 255
204 226 255
204 226 255
204 226 255
204 226 255
204 226 255
204 226 255
203 226 255
203 226 255
203 226 255
203 226 255
203 226 255
203 226 255
203 225 255
203 225 255
203 225 255
203 225 255
203 225 255
203 225 255
203 225 255
202 225 255
202 225 255
202 225 255
202 225 255
202 225 255
202 225 255
202 225 255
202 225 255
202 225 255
202 225 255
202 225 255
202 225 255
202 225 255
201 225 255
201 225 255
201 225 255
201 224 255
201 224 255
201 224 255
201 224 255
201 224 255
201 224 255
201 224 255
201 224 255
201 224 255
200 224 255
200 224 255
200 224 255
200 224 255
200 224 255
200 224 255
200 224 255
200 224 255
200 224 255
200 224 255
200 224 255
199 224 255
199 224 255
199 223 255
199 223 255
199 223 255
199 223 255
199 223 255
199 223 255
199 223 255
199 223 255
199 223 255
199 223 255
198 223 255
198 223 255
198 223 255
198 223 255
198 223 255
198 223 255
198 223 255
198 223 255
198 223 255
198 223 255
198 223 255
197 223 255
197 222 255
197 222 255
197 222 255
197 222 255
197 222 255
197 222 255
197 222 255
197 222 255
197 222 255
197 222 255
197 222 255
196 222 255
196 222 255
196 222 255
196 222 255
196 222 255
196 222 255
196 222 255
196 222 255
196 222 255
196 222 255
196 222 255
196 222 255
196 221 255
196 221 255
195 221 255
195 221 255
195 221 255
195 221 255
195 221 255
195 221 255
195 221 255
195 221 255
195 221 255
195 221 255
195 221 255
195 221 255
195 221 255
195 221 255
195 221 255
195 221 255
194 221 255
194 221 255
194 221 255
194 221 255
194 221 255
194 221 255
194 221 255
194 221 255
194 221 255
194 221 255
194 221 255
194 221 255
194 221 255
194 221 255
194 221 255
194 221 255
194 221 255
194 221 255
194 221 255
194 221 255
194 221 255
194 221 255
194 221 255
194 221 255
194 221 255
194 221 255
194 221 255
194 221 255
194 221 255
194 221 255
194 221 255
194 221 255
194 221 255
194 221 255
194 221 255
194 221 255
194 221 255
194 221 255
194 221 255
194 221 255
194 221 255
194 221 255
194 221 255
194 221 255
194 221 255
194 221 255
194 221 255
194 221 255
194 221 255
194 221 255
194 221 255
194 221 255
194 221 255
194 221 255
194 221 255
194 221 255
194 221 255
194 221 255
195 221 255
195 221 255
195 221 255
195 221 255
195 221 255
195 221 255
195 221 255
195 221 255
195 221 255
195 221 255
195 221 255
195 221 255
195 221 255
195 221 255
195 221 255
195 221 255
195 221 255
196 221 255
196 222 255
196 222 255
196 222 255
196 222 255
196 222 255
196 222 255
196 222 255
196 222 255
196 222 255
196 222 255
196 222 255
196 222 255
197 222 255
197 222 255
197 222 255
197 222 255
197 222 255
197 222 255
197 222 255
197 222 255
197 222 255
197 222 255
197 222 255
197 222 255
198 223 255
198 223 255
198 223 255
198 223 255
198 223 255
198 223 255
198 223 255
198 223 255
198 223 255
198 223 255
198 223 255
199 223 255
199 223 255
199 223 255
199 223 255
199 223 255
199 223 255
199 223 255
199 223 255
199 223 255
199 223 255
199 224 255
199 224 255
200 224 255
200 224 255
200 224 255
200 224 255
200 224 255
200 224 255
200 224 255
200 224 255
200 224 255
200 224 255
200 224 255
201 224 255
201 224 255
201 224 255
201 224 255
201 224 255
201 224 255
201 224 255
201 224 255
201 225 255
201 225 255
201 225 255
201 225 255
202 225 255
202 225 255
202 225 255
202 225 255
202 225 255
202 225 255
202 225 255
202 225 255
202 225 255
202 225 255
202 225 255
202 225 255
202 225 255
203 225 255
203 225 255
203 225 255
203 225 255
203 225 255
203 225 255
203 225 255
203 226 255
203 226 255
203 226 255
203 226 255
203 226 255
203 226 255
204 226 255
204 226 255
204 226 255
204 226 255
204 226 255
204 226 255
204 226 255
204 226 255
204 226 255
204 226 255
204 226 255
204 226 255
204 226 255
204 226 255
205 226 255
205 226 255
205 226 255
205 226 255
205 226 255
205 226 255
205 226 255
205 226 255
204 226 255
204 226 255
204 226 255
204 226 255
204 226 255
204 226 255
204 226 255
204 226 255
204 226 255
204 226 255
204 226 255
204 226 255
204 226 255
204 226 255
203 226 255
203 226 255
203 226 255
203 226 255
203 226 255
203 226 255
203 225 255
203 225 255
203 225 255
203 225 255
203 225 255
203 225 255
203 225 255
203 225 255
202 225 255
202 225 255
202 225 255
202 225 255
202 225 255
202 225 255
202 225 255
202 225 255
202 225 255
202 225 255
202 225 255
202 225 255
201 225 255
201 225 255
201 225 255
201 224 255
201 224 255
201 224 255
201 224 255
201 224 255
201 224 255
201 224 255
201 224 255
201 224 255
200 224 255
200 224 255
200 224 255
200 224 255
200 224 255
200 224 255
200 224 255
200 224 255
200 224 255
200 224 255
200 224 255
199 224 255
199 224 255
199 223 255
199 223 255
199 223 255
199 223 255
199 223 255
199 223 255
199 223 255
199 223 255
199 223 255
199 223 255
198 223 255
198 223 255
198 223 255
198 223 255
198 223 255
198 223 255
198 223 255
198 223 255
198 223 255
198 223 255
198 223 255
197 223 255
197 222 255
197 222 255
197 222 255
197 222 255
197 222 255
197 222 255
197 222 255
197 222 255
197 222 255
197 222 255
197 222 255
196 222 255
196 222 255
196 222 255
196 222 255
196 222 255
196 222 255
196 222 255
196 222 255
196 222 255
196 222 255
196 222 255
196 222 255
196 222 255
196 221 255
195 221 255
195 221 255
195 221 255
195 221 255
195 221 255
195 221 255
195 221 255
195 221 255
195 221 255
195 221 255
195 221 255
195 221 255
195 221 255
195 221 255
195 221 255
195 221 255
195 221 255
195 221 255
194 221 255
194 221 255
194 221 255
194 221 255
194 221 255
194 221 255
194 221 255
194 221 255
194 221 255
194 221 255
194 221 255
194 221 255
194 221 255
194 221 255
194 221 255
194 221 255
194 221 255
194 221 255
194 221 255
194 221 255
194 221 255
194 221 255
194 221 255
194 221 255
194 221 255
194 221 255
194 221 255
194 221 255
194 221 255
194 221 255
194 221 255
194 221 255
194 221 255
194 221 255
194 221 255
194 221 255
194 221 255
194 221 255
194 221 255
194 221 255
194 221 255
194 221 255
194 221 255
194 221 255
194 221 255
194 221 255
194 221 255
194 221 255
194 221 255
194 221 255
195 221 255
195 221 255
195 221 255
195 221 255
195 221 255
195 221 255
195 221 255
195 221 255
195 221 255
195 221 255
195 221 255
195 221 255
195 221 255
195 221 255
195 221 255
195 221 255
195 221 255
195 221 255
196 221 255
196 222 255
196 222 255
196 222 255
196 222 255
196 222 255
196 222 255
196 222 255
196 222 255
196 222 255
196 222 255
196 222 255
196 222 255
196 222 255
197 222 255
197 222 255
197 222 255
197 222 255
197 222 255
197 222 255
197 222 255
197 222 255
197 222 255
197 222 255
197 222 255
197 223 255
198 223 255
198 223 255
198 223 255
198 223 255
198 223 255
198 223 255
198 223 255
198 223 255
198 223 255
198 223 255
198 223 255
199 223 255
199 223 255
199 223 255
199 223 255
199 223 255
199 223 255
199 223 255
199 223 255
199 223 255
199 223 255
199 224 255
199 224 255
200 224 255
200 224 255
200 224 255
200 224 255
200 224 255
200 224 255
200 224 255
200 224 255
200 224 255
200 224 255
200 224 255
201 224 255
201 224 255
201 224 255
201 224 255
201 224 255
201 224 255
201 224 255
201 224 255
201 225 255
201 225 255
201 225 255
201 225 255
202 225 255
202 225 255
202 225 255
202 225 255
202 225 255
202 225 255
202 225 255
202 225 255
202 225 255
202 225 255
202 225 255
202 225 255
203 225 255
203 225 255
203 225 255
203 225 255
203 225 255
203 225 255
203 225 255
203 225 255
203 226 255
203 226 255
203 226 255
203 226 255
203 226 255
203 226 255
204 226 255
204 226 255
204 226 255
204 226 255
204 226 255
204 226 255
204 226 255
204 226 255
204 226 255
204 226 255
204 226 255
204 226 255
204 226 255
204 226 255
205 226 255
205 226 255
205 226 255
205 226 255
205 226 255
205 227 255
205 226 255
205 226 255
205 226 255
205 226 255
205 226 255
205 226 255
205 226 255
204 226 255
204 226 255
204 226 255
204 226 255
204 226 255
204 226 255
204 226 255
204 226 255
204 226 255
204 226 255
204 226 255
204 226 255
204 226 255
204 226 255
203 226 255
203 226 255
203 226 255
203 226 255
203 226 255
203 225 255
203 225 255
203 225 255
203 225 255
203 225 255
203 225 255
203 225 255
203 225 255
202 225 255
202 225 255
202 225 255
202 225 255
202 225 255
202 225 255
202 225 255
202 225 255
202 225 255
202 225 255
202 225 255
202 225 255
201 225 255
201 225 255
201 225 255
201 225 255
201 224 255
201 224 255
201 224 255
201 224 255
201 224 255
201 224 255
201 224 255
201 224 255
200 224 255
200 224 255
200 224 255
200 224 255
200 224 255
200 224 255
200 224 255
200 224 255
200 224 255
200 224 255
200 224 255
199 224 255
199 224 255
199 223 255
199 223 255
199 223 255
199 223 255
199 223 255
199 223 255
199 223 255
199 223 255
199 223 255
199 223 255
198 223 255
198 223 255
198 223 255
198 223 255
198 223 255
198 223 255
198 223 255
198 223 255
198 223 255
198 223 255
198 223 255
197 223 255
197 222 255
197 222 255
197 222 255
197 222 255
197 222 255
197 222 255
197 222 255
197 222 255
197 222 255
197 222 255
197 222 255
197 222 255
196 222 255
196 222 255
196 222 255
196 222 255
196 222 255
196 222 255
196 222 255
196 222 255
196 222 255
196 222 255
196 222 255
196 222 255
196 222 255
196 221 255
195 221 255
195 221 255
195 221 255
195 221 255
195 221 255
195 221 255
195 221 255
195 221 255
195 221 255
195 221 255
195 221 255
195 221 255
195 221 255
195 221 255
195 221 255
195 221 255
195 221 255
195 221 255
195 221 255
194 221 255
194 221 255
194 221 255
194 221 255
194 221 255
194 221 255
194 221 255
194 221 255
194 221 255
194 221 255
194 221 255
194 221 255
194 221 255
194 221 255
194 221 255
194 221 255
194 221 255
194 221 255
194 221 255
194 221 255
194 221 255
194 221 255
194 221 255
194 221 255
194 221 255
194 221 255
194 221 255
194 221 255
194 221 255
194 221 255
194 221 255
194 221 255
194 221 255
194 221 255
194 221 255
194 221 255
194 221 255
194 221 255
194 221 255
194 221 255
194 221 255
194 221 255
195 221 255
195 221 255
195 221 255
195 221 255
195 221 255
195 221 255
195 221 255
195 221 255
195 221 255
195 221 255
195 221 255
195 221 255
195 221 255
195 221 255
195 221 255
195 221 255
195 221 255
195 221 255
195 221 255
196 221 255
196 222 255
196 222 255
196 222 255
196 222 255
196 222 255
196 222 255
196 222 255
196 222 255
196 222 255
196 222 255
196 222 255
196 222 255
196 222 255
197 222 255
197 222 255
197 222 255
197 222 255
197 222 255
197 222 255
197 222 255
197 222 255
197 222 255
197 222 255
197 222 255
197 222 255
198 223 255
198 223 255
198 223 255
198 223 255
198 223 255
198 223 255
198 223 255
198 223 255
198 223 255
198 223 255
198 223 255
198 223 255
199 223 255
199 223 255
199 223 255
199 223 255
199 223 255
199 223 255
199 223 255
199 223 255
199 223 255
199 223 255
199 224 255
199 224 255
200 224 255
200 224 255
200 224 255
200 224 255
200 224 255
200 224 255
200 224 255
200 224 255
200 224 255
200 224 255
200 224 255
201 224 255
201 224 255
201 224 255
201 224 255
201 224 255
201 224 255
201 224 255
201 224 255
201 225 255
201 225 255
201 225 255
201 225 255
202 225 255
202 225 255
202 225 255
202 225 255
202 225 255
202 225 255
202 225 255
202 225 255
202 225 255
202 225 255
202 225 255
202 225 255
203 225 255
203 225 255
203 225 255
203 225 255
203 225 255
203 225 255
203 225 255
203 225 255
203 226 255
203 226 255
203 226 255
203 226 255
203 226 255
204 226 255
204 226 255
204 226 255
204 226 255
204 226 255
204 226 255
204 226 255
204 226 255
204 226 255
204 226 255
204 226 255
204 226 255
204 226 255
204 226 255
205 226 255
205 226 255
205 226 255
205 226 255
205 226 255
205 226 255
205 227 255
205 227 255
205 227 255
205 227 255
205 227 255
205 227 255
205 226 255
205 226 255
205 226 255
205 226 255
205 226 255
205 226 255
204 226 255
204 226 255
204 226 255
204 226 255
204 226 255
204 226 255
204 226 255
204 226 255
204 226 255
204 226 255
204 226 255
204 226 255
204 226 255
204 226 255
203 226 255
203 226 255
203 226 255
203 226 255
203 226 255
203 226 255
203 225 255
203 225 255
203 225 255
203 225 255
203 225 255
203 225 255
203 225 255
202 225 255
202 225 255
202 225 255
202 225 255
202 225 255
202 225 255
202 225 255
202 225 255
202 225 255
202 225 255
202 225 255
202 225 255
201 225 255
201 225 255
201 225 255
201 225 255
201 224 255
201 224 255
201 224 255
201 224 255
201 224 255
201 224 255
201 224 255
201 224 255
200 224 255
200 224 255
200 224 255
200 224 255
200 224 255
200 224 255
200 224 255
200 224 255
200 224 255
200 224 255
200 224 255
200 224 255
199 224 255
199 224 255
199 223 255
199 223 255
199 223 255
199 223 255
199 223 255
199 223 255
199 223 255
199 223 255
199 223 255
198 223 255
198 223 255
198 223 255
198 223 255
198 223 255
198 223 255
198 223 255
198 223 255
198 223 255
198 223 255
198 223 255
198 223 255
197 222 255
197 222 255
197 222 255
197 222 255
197 222 255
197 222 255
197 222 255
197 222 255
197 222 255
197 222 255
197 222 255
197 222 255
196 222 255
196 222 255
196 222 255
196 222 255
196 222 255
196 222 255
196 222 255
196 222 255
196 222 255
196 222 255
196 222 255
196 222 255
196 222 255
196 222 255
196 221 255
195 221 255
195 221 255
195 221 255
195 221 255
195 221 255
195 221 255
195 221 255
195 221 255
195 221 255
195 221 255
195 221 255
195 221 255
195 221 255
195 221 255
195 221 255
195 221 255
195 221 255
195 221 255
195 221 255
195 221 255
195 221 255
194 221 255
194 221 255
194 221 255
194 221 255
194 221 255
194 221 255
194 221 255
194 221 255
194 221 255
194 221 255
194 221 255
194 221 255
194 221 255
194 221 255
194 221 255
194 221 255
194 221 255
194 221 255
194 221 255
194 221 255
194 221 255
194 221 255
194 221 255
194 221 255
194 221 255
194 221 255
194 221 255
194 221 255
194 221 255
194 221 255
194 221 255
195 221 255
195 221 255
195 221 255
195 221 255
195 221 255
195 221 255
195 221 255
195 221 255
195 221 255
195 221 255
195 221 255
195 221 255
195 221 255
195 221 255
195 221 255
195 221 255
195 221 255
195 221 255
195 221 255
195 221 255
195 221 255
195 221 255
196 221 255
196 221 255
196 222 255
196 222 255
196 222 255
196 222 255
196 222 255
196 222 255
196 222 255
196 222 255
196 222 255
196 222 255
196 222 255
196 222 255
196 222 255
197 222 255
197 222 255
197 222 255
197 222 255
197 222 255
197 222 255
197 222 255
197 222 255
197 222 255
197 222 255
197 222 255
197 222 255
198 223 255
198 223 255
198 223 255
198 223 255
198 223 255
198 223 255
198 223 255
198 223 255
198 223 255
198 223 255
198 223 255
198 223 255
199 223 255
199 223 255
199 223 255
199 223 255
199 223 255
199 223 255
199 223 255
199 223 255
199 223 255
199 223 255
199 224 255
200 224 255
200 224 255
200 224 255
200 224 255
200 224 255
200 224 255
200 224 255
200 224 255
200 224 255
200 224 255
200 224 255
200 224 255
201 224 255
201 224 255
201 224 255
201 224 255
201 224 255
201 224 255
201 224 255
201 224 255
201 225 255
201 225 255
201 225 255
201 225 255
202 225 255
202 225 255
202 225 255
202 225 255
202 225 255
202 225 255
202 225 255
202 225 255
202 225 255
202 225 255
202 225 255
202 225 255
203 225 255
203 225 255
203 225 255
203 225 255
203 225 255
203 225 255
203 225 255
203 226 255
203 226 255
203 226 255
203 226 255
203 226 255
203 226 255
204 226 255
204 226 255
204 226 255
204 226 255
204 226 255
204 226 255
204 226 255
204 226 255
204 226 255
204 226 255
204 226 255
204 226 255
204 226 255
204 226 255
205 226 255
205 226 255
205 226 255
205 226 255
205 226 255
205 226 255
205 227 255
205 227 255
205 227 255
205 227 255
205 227 255
205 227 255
205 227 255
205 227 255
205 227 255
205 227 255
205 227 255
205 226 255
205 226 255
205 226 255
205 226 255
205 226 255
204 226 255
204 226 255
204 226 255
204 226 255
204 226 255
204 226 255
204 226 255
204 226 255
204 226 255
204 226 255
204 226 255
204 226 255
204 226 255
204 226 255
203 226 255
203 226 255
203 226 255
203 226 255
203 226 255
203 226 255
203 225 255
203 225 255
203 225 255
203 225 255
203 225 255
203 225 255
203 225 255
202 225 255
202 225 255
202 225 255
202 225 255
202 225 255
202 225 255
202 225 255
202 225 255
202 225 255
202 225 255
202 225 255
202 225 255
201 225 255
201 225 255
201 225 255
201 225 255
201 224 255
201 224 255
201 224 255
201 224 255
201 224 255
201 224 255
201 224 255
201 224 255
200 224 255
200 224 255
200 224 255
200 224 255
200 224 255
200 224 255
200 224 255
200 224 255
200 224 255
200 224 255
200 224 255
200 224 255
199 224 255
199 224 255
199 223 255
199 223 255
199 223 255
199 223 255
199 223 255
199 223 255
199 223 255
199 223 255
199 223 255
198 223 255
198 223 255
198 223 255
198 223 255
198 223 255
198 223 255
198 223 255
198 223 255
198 223 255
198 223 255
198 223 255
198 223 255
197 222 255
197 222 255
197 222 255
197 222 255
197 222 255
197 222 255
197 222 255
197 222 255
197 222 255
197 222 255
197 222 255
197 222 255
197 222 255
196 222 255
196 222 255
196 222 255
196 222 255
196 222 255
196 222 255
196 222 255
196 222 255
196 222 255
196 222 255
196 222 255
196 222 255
196 222 255
196 222 255
196 221 255
195 221 255
195 221 255
195 221 255
195 221 255
195 221 255
195 221 255
195 221 255
195 221 255
195 221 255
195 221 255
195 221 255
195 221 255
195 221 255
195 221 255
195 221 255
195 221 255
195 221 255
195 221 255
195 221 255
195 221 255
195 221 255
195 221 255
195 221 255
195 221 255
195 221 255
195 221 255
195 221 255
194 221 255
194 221 255
194 221 255
194 221 255
194 221 255
194 221 255
194 221 255
194 221 255
194 221 255
194 221 255
194 221 255
194 221 255
194 221 255
194 221 255
195 221 255
195 221 255
195 221 255
195 221 255
195 221 255
195 221 255
195 221 255
195 221 255
195 221 255
195 221 255
195 221 255
195 221 255
195 221 255
195 221 255
195 221 255
195 221 255
195 221 255
195 221 255
195 221 255
195 221 255
195 221 255
195 221 255
195 221 255
195 221 255
195 221 255
195 221 255
195 221 255
196 221 255
196 221 255
196 222 255
196 222 255
196 222 255
196 222 255
196 222 255
196 222 255
196 222 255
196 222 255
196 222 255
196 222 255
196 222 255
196 222 255
196 222 255
197 222 255
197 222 255
197 222 255
197 222 255
197 222 255
197 222 255
197 222 255
197 222 255
197 222 255
197 222 255
197 222 255
197 222 255
197 222 255
198 223 255
198 223 255
198 223 255
198 223 255
198 223 255
198 223 255
198 223 255
198 223 255
198 223 255
198 223 255
198 223 255
198 223 255
199 223 255
199 223 255
199 223 255
199 223 255
199 223 255
199 223 255
199 223 255
199 223 255
199 223 255
199 224 255
199 224 255
200 224 255
200 224 255
200 224 255
200 224 255
200 224 255
200 224 255
200 224 255
200 224 255
200 224 255
200 224 255
200 224 255
200 224 255
201 224 255
201 224 255
201 224 255
201 224 255
201 224 255
201 224 255
201 224 255
201 224 255
201 225 255
201 225 255
201 225 255
201 225 255
202 225 255
202 225 255
202 225 255
202 225 255
202 225 255
202 225 255
202 225 255
202 225 255
202 225 255
202 225 255
202 225 255
202 225 255
203 225 255
203 225 255
203 225 255
203 225 255
203 225 255
203 225 255
203 225 255
203 226 255
203 226 255
203 226 255
203 226 255
203 226 255
203 226 255
204 226 255
204 226 255
204 226 255
204 226 255
204 226 255
204 226 255
204 226 255
204 226 255
204 226 255
204 226 255
204 226 255
204 226 255
204 226 255
204 226 255
205 226 255
205 226 255
205 226 255
205 226 255
205 226 255
205 226 255
205 227 255
205 227 255
205 227 255
205 227 255
205 227 255
205 227 255
205 227 255
205 227 255
205 227 255
205 227 255
205 227 255
205 227 255
205 227 255
205 227 255
205 227 255
205 226 255
205 226 255
205 226 255
205 226 255
205 226 255
205 226 255
204 226 255
204 226 255
204 226 255
204 226 255
204 226 255
204 226 255
204 226 255
204 226 255
204 226 255
204 226 255
204 226 255
204 226 255
204 226 255
204 226 255
203 226 255
203 226 255
203 226 255
203 226 255
203 226 255
203 225 255
203 225 255
203 225 255
203 225 255
203 225 255
203 225 255
203 225 255
202 225 255
202 225 255
202 225 255
202 225 255
202 225 255
202 225 255
202 225 255
202 225 255
202 225 255
202 225 255
202 225 255
202 225 255
202 225 255
201 225 255
201 225 255
201 225 255
201 224 255
201 224 255
201 224 255
201 224 255
201 224 255
201 224 255
201 224 255
201 224 255
200 224 255
200 224 255
200 224 255
200 224 255
200 224 255
200 224 255
200 224 255
200 224 255
200 224 255
200 224 255
200 224 255
200 224 255
199 224 255
199 224 255
199 223 255
199 223 255
199 223 255
199 223 255
199 223 255
199 223 255
199 223 255
199 223 255
199 223 255
198 223 255
198 223 255
198 223 255
198 223 255
198 223 255
198 223 255
198 223 255
198 223 255
198 223 255
198 223 255
198 223 255
198 223 255
197 223 255
197 222 255
197 222 255
197 222 255
197 222 255
197 222 255
197 222 255
197 222 255
197 222 255
197 222 255
197 222 255
197 222 255
197 222 255
196 222 255
196 222 255
196 222 255
196 222 255
196 222 255
196 222 255
196 222 255
196 222 255
196 222 255
196 222 255
196 222 255
196 222 255
196 222 255
196 222 255
196 222 255
196 221 255
195 221 255
195 221 255
195 221 255
195 221 255
195 221 255
195 221 255
195 221 255
195 221 255
195 221 255
195 221 255
195 221 255
195 221 255
195 221 255
195 221 255
195 221 255
195 221 255
195 221 255
195 221 255
195 221 255
195 221 255
195 221 255
195 221 255
195 221 255
195 221 255
195 221 255
195 221 255
195 221 255
195 221 255
195 221 255
195 221 255
195 221 255
195 221 255
195 221 255
195 221 255
195 221 255
195 221 255
195 221 255
195 221 255
195 221 255
195 221 255
195 221 255
195 221 255
195 221 255
195 221 255
195 221 255
195 221 255
195 221 255
195 221 255
195 221 255
195 221 255
195 221 255
195 221 255
195 221 255
195 221 255
195 221 255
195 221 255
195 221 255
195 221 255
195 221 255
195 221 255
195 221 255
195 221 255
196 221 255
196 222 255
196 222 255
196 222 255
196 222 255
196 222 255
196 222 255
196 222 255
196 222 255
196 222 255
196 222 255
196 222 255
196 222 255
196 222 255
196 222 255
197 222 255
197 222 255
197 222 255
197 222 255
197 222 255
197 222 255
197 222 255
197 222 255
197 222 255
197 222 255
197 222 255
197 222 255
197 222 255
197 223 255
198 223 255
198 223 255
198 223 255
198 223 255
198 223 255
198 223 255
198 223 255
198 223 255
198 223 255
198 223 255
198 223 255
199 223 255
199 223 255
199 223 255
199 223 255
199 223 255
199 223 255
199 223 255
199 223 255
199 223 255
199 223 255
199 224 255
199 224 255
200 224 255
200 224 255
200 224 255
200 224 255
200 224 255
200 224 255
200 224 255
200 224 255
200 224 255
200 224 255
200 224 255
200 224 255
201 224 255
201 224 255
201 224 255
201 224 255
201 224 255
201 224 255
201 224 255
201 224 255
201 225 255
201 225 255
201 225 255
202 225 255
202 225 255
202 225 255
202 225 255
202 225 255
202 225 255
202 225 255
202 225 255
202 225 255
202 225 255
202 225 255
202 225 255
203 225 255
203 225 255
203 225 255
203 225 255
203 225 255
203 225 255
203 225 255
203 225 255
203 226 255
203 226 255
203 226 255
203 226 255
203 226 255
204 226 255
204 226 255
204 226 255
204 226 255
204 226 255
204 226 255
204 226 255
204 226 255
204 226 255
204 226 255
204 226 255
204 226 255
204 226 255
204 226 255
205 226 255
205 226 255
205 226 255
205 226 255
205 226 255
205 226 255
205 227 255
205 227 255
205 227 255
205 227 255
205 227 255
205 227 255
205 227 255
205 227 255
205 227 255
206 227 255
206 227 255
206 227 255
205 227 255
205 227 255
205 227 255
205 227 255
205 227 255
205 227 255
205 227 255
205 227 255
205 227 255
205 226 255
205 226 255
205 226 255
205 226 255
205 226 255
204 226 255
204 226 255
204 226 255
204 226 255
204 226 255
204 226 255
204 226 255
204 226 255
204 226 255
204 226 255
204 226 255
204 226 255
204 226 255
204 226 255
203 226 255
203 226 255
203 226 255
203 226 255
203 226 255
203 225 255
203 225 255
203 225 255
203 225 255
203 225 255
203 225 255
203 225 255
203 225 255
202 225 255
202 225 255
202 225 255
202 225 255
202 225 255
202 225 255
202 225 255
202 225 255
202 225 255
202 225 255
202 225 255
202 225 255
201 225 255
201 225 255
201 225 255
201 224 255
201 224 255
201 224 255
201 224 255
201 224 255
201 224 255
201 224 255
201 224 255
200 224 255
200 224 255
200 224 255
200 224 255
200 224 255
200 224 255
200 224 255
200 224 255
200 224 255
200 224 255
200 224 255
200 224 255
199 224 255
199 224 255
199 223 255
199 223 255
199 223 255
199 223 255
199 223 255
199 223 255
199 223 255
199 223 255
199 223 255
199 223 255
198 223 255
198 223 255
198 223 255
198 223 255
198 223 255
198 223 255
198 223 255
198 223 255
198 223 255
198 223 255
198 223 255
198 223 255
197 222 255
197 222 255
197 222 255
197 222 255
197 222 255
197 222 255
197 222 255
197 222 255
197 222 255
197 222 255
197 222 255
197 222 255
197 222 255
196 222 255
196 222 255
196 222 255
196 222 255
196 222 255
196 222 255
196 222 255
196 222 255
196 222 255
196 222 255
196 222 255
196 222 255
196 222 255
196 222 255
196 222 255
196 221 255
196 221 255
195 221 255
195 221 255
195 221 255
195 221 255
195 221 255
195 221 255
195 221 255
195 221 255
195 221 255
195 221 255
195 221 255
195 221 255
195 221 255
195 221 255
195 221 255
195 221 255
195 221 255
195 221 255
195 221 255
195 221 255
195 221 255
195 221 255
195 221 255
195 221 255
195 221 255
195 221 255
195 221 255
195 221 255
195 221 255
195 221 255
195 221 255
195 221 255
195 221 255
195 221 255
195 221 255
195 221 255
195 221 255
195 221 255
195 221 255
195 221 255
195 221 255
195 221 255
195 221 255
195 221 255
195 221 255
195 221 255
195 221 255
195 221 255
195 221 255
195 221 255
195 221 255
195 221 255
195 221 255
195 221 255
196 221 255
196 221 255
196 222 255
196 222 255
196 222 255
196 222 255
196 222 255
196 222 255
196 222 255
196 222 255
196 222 255
196 222 255
196 222 255
196 222 255
196 222 255
196 222 255
196 222 255
197 222 255
197 222 255
197 222 255
197 222 255
197 222 255
197 222 255
197 222 255
197 222 255
197 222 255
197 222 255
197 222 255
197 222 255
197 222 255
198 223 255
198 223 255
198 223 255
198 223 255
198 223 255
198 223 255
198 223 255
198 223 255
198 223 255
198 223 255
198 223 255
198 223 255
199 223 255
199 223 255
199 223 255
199 223 255
199 223 255
199 223 255
199 223 255
199 223 255
199 223 255
199 223 255
199 224 255
199 224 255
200 224 255
200 224 255
200 224 255
200 224 255
200 224 255
200 224 255
200 224 255
200 224 255
200 224 255
200 224 255
200 224 255
200 224 255
201 224 255
201 224 255
201 224 255
201 224 255
201 224 255
201 224 255
201 224 255
201 224 255
201 225 255
201 225 255
201 225 255
202 225 255
202 225 255
202 225 255
202 225 255
202 225 255
202 225 255
202 225 255
202 225 255
202 225 255
202 225 255
202 225 255
202 225 255
203 225 255
203 225 255
203 225 255
203 225 255
203 225 255
203 225 255
203 225 255
203 225 255
203 226 255
203 226 255
203 226 255
203 226 255
203 226 255
204 226 255
204 226 255
204 226 255
204 226 255
204 226 255
204 226 255
204 226 255
204 226 255
204 226 255
204 226 255
204 226 255
204 226 255
204 226 255
204 226 255
205 226 255
205 226 255
205 226 255
205 226 255
205 226 255
205 226 255
205 227 255
205 227 255
205 227 255
205 227 255
205 227 255
205 227 255
205 227 255
205 227 255
206 227 255
206 227 255
206 227 255
206 227 255
206 227 255
206 227 255
206 227 255
206 227 255
205 227 255
205 227 255
205 227 255
205 227 255
205 227 255
205 227 255
205 227 255
205 227 255
205 227 255
205 226 255
205 226 255
205 226 255
205 226 255
205 226 255
205 226 255
204 226 255
204 226 255
204 226 255
204 226 255
204 226 255
204 226 255
204 226 255
204 226 255
204 226 255
204 226 255
204 226 255
204 226 255
204 226 255
203 226 255
203 226 255
203 226 255
203 226 255
203 226 255
203 226 255
203 225 255
203 225 255
203 225 255
203 225 255
203 225 255
203 225 255
203 225 255
202 225 255
202 225 255
202 225 255
202 225 255
202 225 255
202 225 255
202 225 255
202 225 255
202 225 255
202 225 255
202 225 255
202 225 255
201 225 255
201 225 255
201 225 255
201 225 255
201 224 255
201 224 255
201 224 255
201 224 255
201 224 255
201 224 255
201 224 255
201 224 255
200 224 255
200 224 255
200 224 255
200 224 255
200 224 255
200 224 255
200 224 255
200 224 255
200 224 255
200 224 255
200 224 255
199 224 255
199 224 255
199 223 255
199 223 255
199 223 255
199 223 255
199 223 255
199 223 255
199 223 255
199 223 255
199 223 255
199 223 255
198 223 255
198 223 255
198 223 255
198 223 255
198 223 255
198 223 255
198 223 255
198 223 255
198 223 255
198 223 255
198 223 255
198 223 255
197 223 255
197 222 255
197 222 255
197 222 255
197 222 255
197 222 255
197 222 255
197 222 255
197 222 255
197 222 255
197 222 255
197 222 255
197 222 255
197 222 255
196 222 255
196 222 255
196 222 255
196 222 255
196 222 255
196 222 255
196 222 255
196 222 255
196 222 255
196 222 255
196 222 255
196 222 255
196 222 255
196 222 255
196 222 255
196 222 255
196 222 255
196 221 255
196 221 255
195 221 255
195 221 255
195 221 255
195 221 255
195 221 255
195 221 255
195 221 255
195 221 255
195 221 255
195 221 255
195 221 255
195 221 255
195 221 255
195 221 255
195 221 255
195 221 255
195 221 255
195 221 255
195 221 255
195 221 255
195 221 255
195 221 255
195 221 255
195 221 255
195 221 255
195 221 255
195 221 255
195 221 255
195 221 255
195 221 255
195 221 255
195 221 255
195 221 255
195 221 255
195 221 255
195 221 255
195 221 255
195 221 255
195 221 255
195 221 255
195 221 255
195 221 255
195 221 255
195 221 255
195 221 255
196 221 255
196 221 255
196 222 255
196 222 255
196 222 255
196 222 255
196 222 255
196 222 255
196 222 255
196 222 255
196 222 255
196 222 255
196 222 255
196 222 255
196 222 255
196 222 255
196 222 255
196 222 255
197 222 255
197 222 255
197 222 255
197 222 255
197 222 255
197 222 255
197 222 255
197 222 255
197 222 255
197 222 255
197 222 255
197 222 255
197 222 255
197 223 255
198 223 255
198 223 255
198 223 255
198 223 255
198 223 255
198 223 255
198 223 255
198 223 255
198 223 255
198 223 255
198 223 255
198 223 255
199 223 255
199 223 255
199 223 255
199 223 255
199 223 255
199 223 255
199 223 255
199 223 255
199 223 255
199 223 255
199 224 255
199 224 255
200 224 255
200 224 255
200 224 255
200 224 255
200 224 255
200 224 255
200 224 255
200 224 255
200 224 255
200 224 255
200 224 255
201 224 255
201 224 255
201 224 255
201 224 255
201 224 255
201 224 255
201 224 255
201 224 255
201 224 255
201 225 255
201 225 255
201 225 255
202 225 255
202 225 255
202 225 255
202 225 255
202 225 255
202 225 255
202 225 255
202 225 255
202 225 255
202 225 255
202 225 255
202 225 255
203 225 255
203 225 255
203 225 255
203 225 255
203 225 255
203 225 255
203 225 255
203 226 255
203 226 255
203 226 255
203 226 255
203 226 255
203 226 255
204 226 255
204 226 255
204 226 255
204 226 255
204 226 255
204 226 255
204 226 255
204 226 255
204 226 255
204 226 255
204 226 255
204 226 255
204 226 255
205 226 255
205 226 255
205 226 255
205 226 255
205 226 255
205 226 255
205 227 255
205 227 255
205 227 255
205 227 255
205 227 255
205 227 255
205 227 255
205 227 255
205 227 255
206 227 255
206 227 255
206 227 255
206 227 255
206 227 255
206 227 255
206 227 255
206 227 255
206 227 255
206 227 255
206 227 255
206 227 255
206 227 255
205 227 255
205 227 255
205 227 255
205 227 255
205 227 255
205 227 255
205 227 255
205 227 255
205 227 255
205 226 255
205 226 255
205 226 255
205 226 255
205 226 255
204 226 255
204 226 255
204 226 255
204 226 255
204 226 255
204 226 255
204 226 255
204 226 255
204 226 255
204 226 255
204 226 255
204 226 255
204 226 255
204 226 255
203 226 255
203 226 255
203 226 255
203 226 255
203 226 255
203 225 255
203 225 255
203 225 255
203 225 255
203 225 255
203 225 255
203 225 255
202 225 255
202 225 255
202 225 255
202 225 255
202 225 255
202 225 255
202 225 255
202 225 255
202 225 255
202 225 255
202 225 255
202 225 255
201 225 255
201 225 255
201 225 255
201 225 255
201 224 255
201 224 255
201 224 255
201 224 255
201 224 255
201 224 255
201 224 255
201 224 255
200 224 255
200 224 255
200 224 255
200 224 255
200 224 255
200 224 255
200 224 255
200 224 255
200 224 255
200 224 255
200 224 255
200 224 255
199 224 255
199 224 255
199 223 255
199 223 255
199 223 255
199 223 255
199 223 255
199 223 255
199 223 255
199 223 255
199 223 255
199 223 255
198 223 255
198 223 255
198 223 255
198 223 255
198 223 255
198 223 255
198 223 255
198 223 255
198 223 255
198 223 255
198 223 255
198 223 255
197 222 255
197 222 255
197 222 255
197 222 255
197 222 255
197 222 255
197 222 255
197 222 255
197 222 255
197 222 255
197 222 255
197 222 255
197 222 255
197 222 255
196 222 255
196 222 255
196 222 255
196 222 255
196 222 255
196 222 255
196 222 255
196 222 255
196 222 255
196 222 255
196 222 255
196 222 255
196 222 255
196 222 255
196 222 255
196 222 255
196 222 255
196 222 255
196 221 255
196 221 255
196 221 255
195 221 255
195 221 255
195 221 255
195 221 255
195 221 255
195 221 255
195 221 255
195 221 255
195 221 255
195 221 255
195 221 255
195 221 255
195 221 255
195 221 255
195 221 255
195 221 255
195 221 255
195 221 255
195 221 255
195 221 255
195 221 255
195 221 255
195 221 255
195 221 255
195 221 255
195 221 255
195 221 255
195 221 255
195 221 255
195 221 255
195 221 255
195 221 255
195 221 255
195 221 255
196 221 255
196 221 255
196 221 255
196 222 255
196 222 255
196 222 255
196 222 255
196 222 255
196 222 255
196 222 255
196 222 255
196 222 255
196 222 255
196 222 255
196 222 255
196 222 255
196 222 255
196 222 255
196 222 255
196 222 255
196 222 255
197 222 255
197 222 255
197 222 255
197 222 255
197 222 255
197 222 255
197 222 255
197 222 255
197 222 255
197 222 255
197 222 255
197 222 255
197 222 255
197 222 255
198 223 255
198 223 255
198 223 255
198 223 255
198 223 255
198 223 255
198 223 255
198 223 255
198 223 255
198 223 255
198 223 255
198 223 255
198 223 255
199 223 255
199 223 255
199 223 255
199 223 255
199 223 255
199 223 255
199 223 255
199 223 255
199 223 255
199 224 255
199 224 255
200 224 255
200 224 255
200 224 255
200 224 255
200 224 255
200 224 255
200 224 255
200 224 255
200 224 255
200 224 255
200 224 255
200 224 255
201 224 255
201 224 255
201 224 255
201 224 255
201 224 255
201 224 255
201 224 255
201 224 255
201 225 255
201 225 255
201 225 255
201 225 255
202 225 255
202 225 255
202 225 255
202 225 255
202 225 255
202 225 255
202 225 255
202 225 255
202 225 255
202 225 255
202 225 255
202 225 255
203 225 255
203 225 255
203 225 255
203 225 255
203 225 255
203 225 255
203 225 255
203 226 255
203 226 255
203 226 255
203 226 255
203 226 255
204 226 255
204 226 255
204 226 255
204 226 255
204 226 255
204 226 255
204 226 255
204 226 255
204 226 255
204 226 255
204 226 255
204 226 255
204 226 255
204 226 255
205 226 255
205 226 255
205 226 255
205 226 255
205 226 255
205 226 255
205 227 255
205 227 255
205 227 255
205 227 255
205 227 255
205 227 255
205 227 255
205 227 255
206 227 255
206 227 255
206 227 255
206 227 255
206 227 255
206 227 255
206 227 255
206 227 255
206 227 255
206 227 255
206 227 255
206 227 255
206 227 255
206 227 255
206 227 255
206 227 255
206 227 255
206 227 255
205 227 255
205 227 255
205 227 255
205 227 255
205 227 255
205 227 255
205 227 255
205 227 255
205 227 255
205 226 255
205 226 255
205 226 255
205 226 255
205 226 255
205 226 255
204 226 255
204 226 255
204 226 255
204 226 255
204 226 255
204 226 255
204 226 255
204 226 255
204 226 255
204 226 255
204 226 255
204 226 255
204 226 255
203 226 255
203 226 255
203 226 255
203 226 255
203 226 255
203 226 255
203 225 255
203 225 255
203 225 255
203 225 255
203 225 255
203 225 255
203 225 255
202 225 255
202 225 255
202 225 255
202 225 255
202 225 255
202 225 255
202 225 255
202 225 255
202 225 255
202 225 255
202 225 255
202 225 255
201 225 255
201 225 255
201 225 255
201 224 255
201 224 255
201 224 255
201 224 255
201 224 255
201 224 255
201 224 255
201 224 255
200 224 255
200 224 255
200 224 255
200 224 255
200 224 255
200 224 255
200 224 255
200 224 255
200 224 255
200 224 255
200 224 255
200 224 255
199 224 255
199 224 255
199 223 255
199 223 255
199 223 255
199 223 255
199 223 255
199 223 255
199 223 255
199 223 255
199 223 255
199 223 255
198 223 255
198 223 255
198 223 255
198 223 255
198 223 255
198 223 255
198 223 255
198 223 255
198 223 255
198 223 255
198 223 255
198 223 255
198 223 255
197 222 255
197 222 255
197 222 255
197 222 255
197 222 255
197 222 255
197 222 255
197 222 255
197 222 255
197 222 255
197 222 255
197 222 255
197 222 255
197 222 255
196 222 255
196 222 255
196 222 255
196 222 255
196 222 255
196 222 255
196 222 255
196 222 255
196 222 255
196 222 255
196 222 255
196 222 255
196 222 255
196 222 255
196 222 255
196 222 255
196 222 255
196 222 255
196 222 255
196 222 255
196 222 255
196 221 255
196 221 255
196 221 255
196 221 255
196 221 255
195 221 255
195 221 255
195 221 255
195 221 255
195 221 255
195 221 255
195 221 255
195 221 255
195 221 255
195 221 255
195 221 255
195 221 255
195 221 255
195 221 255
195 221 255
195 221 255
195 221 255
196 221 255
196 221 255
196 221 255
196 221 255
196 221 255
196 221 255
196 222 255
196 222 255
196 222 255
196 222 255
196 222 255
196 222 255
196 222 255
196 222 255
196 222 255
196 222 255
196 222 255
196 222 255
196 222 255
196 222 255
196 222 255
196 222 255
196 222 255
196 222 255
196 222 255
196 222 255
196 222 255
197 222 255
197 222 255
197 222 255
197 222 255
197 222 255
197 222 255
197 222 255
197 222 255
197 222 255
197 222 255
197 222 255
197 222 255
197 222 255
197 222 255
197 223 255
198 223 255
198 223 255
198 223 255
198 223 255
198 223 255
198 223 255
198 223 255
198 223 255
198 223 255
198 223 255
198 223 255
198 223 255
199 223 255
199 223 255
199 223 255
199 223 255
199 223 255
199 223 255
199 223 255
199 223 255
199 223 255
199 223 255
199 224 255
199 224 255
200 224 255
200 224 255
200 224 255
200 224 255
200 224 255
200 224 255
200 224 255
200 224 255
200 224 255
200 224 255
200 224 255
200 224 255
201 224 255
201 224 255
201 224 255
201 224 255
201 224 255
201 224 255
201 224 255
201 224 255
201 225 255
201 225 255
201 225 255
202 225 255
202 225 255
202 225 255
202 225 255
202 225 255
202 225 255
202 225 255
202 225 255
202 225 255
202 225 255
202 225 255
202 225 255
203 225 255
203 225 255
203 225 255
203 225 255
203 225 255
203 225 255
203 225 255
203 226 255
203 226 255
203 226 255
203 226 255
203 226 255
203 226 255
204 226 255
204 226 255
204 226 255
204 226 255
204 226 255
204 226 255
204 226 255
204 226 255
204 226 255
204 226 255
204 226 255
204 226 255
204 226 255
205 226 255
205 226 255
205 226 255
205 226 255
205 226 255
205 226 255
205 227 255
205 227 255
205 227 255
205 227 255
205 227 255
205 227 255
205 227 255
205 227 255
205 227 255
206 227 255
206 227 255
206 227 255
206 227 255
206 227 255
206 227 255
206 227 255
206 227 255
206 227 255
206 227 255
206 227 255
206 227 255
206 227 255
206 227 255
206 227 255
206 227 255
206 227 255
206 227 255
206 227 255
206 227 255
206 227 255
206 227 255
206 227 255
205 227 255
205 227 255
205 227 255
205 227 255
205 227 255
205 227 255
205 227 255
205 227 255
205 227 255
205 226 255
205 226 255
205 226 255
205 226 255
205 226 255
204 226 255
204 226 255
204 226 255
204 226 255
204 226 255
204 226 255
204 226 255
204 226 255
204 226 255
204 226 255
204 226 255
204 226 255
204 226 255
203 226 255
203 226 255
203 226 255
203 226 255
203 226 255
203 226 255
203 225 255
203 225 255
203 225 255
203 225 255
203 225 255
203 225 255
203 225 255
202 225 255
202 225 255
202 225 255
202 225 255
202 225 255
202 225 255
202 225 255
202 225 255
202 225 255
202 225 255
202 225 255
202 225 255
201 225 255
201 225 255
201 225 255
201 225 255
201 224 255
201 224 255
201 224 255
201 224 255
201 224 255
201 224 255
201 224 255
201 224 255
200 224 255
200 224 255
200 224 255
200 224 255
200 224 255
200 224 255
200 224 255
200 224 255
200 224 255
200 224 255
200 224 255
199 224 255
199 224 255
199 223 255
199 223 255
199 223 255
199 223 255
199 223 255
199 223 255
199 223 255
199 223 255
199 223 255
199 223 255
198 223 255
198 223 255
198 223 255
198 223 255
198 223 255
198 223 255
198 223 255
198 223 255
198 223 255
198 223 255
198 223 255
198 223 255
198 223 255
197 223 255
197 222 255
197 222 255
197 222 255
197 222 255
197 222 255
197 222 255
197 222 255
197 222 255
197 222 255
197 222 255
197 222 255
197 222 255
197 222 255
197 222 255
197 222 255
196 222 255
196 222 255
196 222 255
196 222 255
196 222 255
196 222 255
196 222 255
196 222 255
196 222 255
196 222 255
196 222 255
196 222 255
196 222 255
196 222 255
196 222 255
196 222 255
196 222 255
196 222 255
196 222 255
196 222 255
196 222 255
196 222 255
196 222 255
196 222 255
196 222 255
196 222 255
196 222 255
196 222 255
196 222 255
196 222 255
196 222 255
196 222 255
196 222 255
196 222 255
196 222 255
196 222 255
196 222 255
196 222 255
196 222 255
196 222 255
196 222 255
196 222 255
196 222 255
196 222 255
196 222 255
196 222 255
196 222 255
196 222 255
196 222 255
196 222 255
196 222 255
196 222 255
196 222 255
196 222 255
196 222 255
196 222 255
196 222 255
196 222 255
196 222 255
196 222 255
196 222 255
196 222 255
197 222 255
197 222 255
197 222 255
197 222 255
197 222 255
197 222 255
197 222 255
197 222 255
197 222 255
197 222 255
197 222 255
197 222 255
197 222 255
197 222 255
197 222 255
197 223 255
198 223 255
198 223 255
198 223 255
198 223 255
198 223 255
198 223 255
198 223 255
198 223 255
198 223 255
198 223 255
198 223 255
198 223 255
198 223 255
199 223 255
199 223 255
199 223 255
199 223 255
199 223 255
199 223 255
199 223 255
199 223 255
199 223 255
199 223 255
199 224 255
199 224 255
200 224 255
200 224 255
200 224 255
200 224 255
200 224 255
200 224 255
200 224 255
200 224 255
200 224 255
200 224 255
200 224 255
201 224 255
201 224 255
201 224 255
201 224 255
201 224 255
201 224 255
201 224 255
201 224 255
201 224 255
201 225 255
201 225 255
201 225 255
202 225 255
202 225 255
202 225 255
202 225 255
202 225 255
202 225 255
202 225 255
202 225 255
202 225 255
202 225 255
202 225 255
202 225 255
203 225 255
203 225 255
203 225 255
203 225 255
203 225 255
203 225 255
203 225 255
203 226 255
203 226 255
203 226 255
203 226 255
203 226 255
203 226 255
204 226 255
204 226 255
204 226 255
204 226 255
204 226 255
204 226 255
204 226 255
204 226 255
204 226 255
204 226 255
204 226 255
204 226 255
204 226 255
205 226 255
205 226 255
205 226 255
205 226 255
205 226 255
205 227 255
205 227 255
205 227 255
205 227 255
205 227 255
205 227 255
205 227 255
205 227 255
205 227 255
206 227 255
206 227 255
206 227 255
206 227 255
206 227 255
206 227 255
206 227 255
206 227 255
206 227 255
206 227 255
206 227 255
206 227 255
206 227 255
206 227 255
206 227 255
206 227 255
206 227 255
206 227 255
206 227 255
206 227 255
206 227 255
206 227 255
206 227 255
206 227 255
206 227 255
206 227 255
206 227 255
206 227 255
205 227 255
205 227 255
205 227 255
205 227 255
205 227 255
205 227 255
205 227 255
205 227 255
205 227 255
205 226 255
205 226 255
205 226 255
205 226 255
205 226 255
205 226 255
204 226 255
204 226 255
204 226 255
204 226 255
204 226 255
204 226 255
204 226 255
204 226 255
204 226 255
204 226 255
204 226 255
204 226 255
204 226 255
203 226 255
203 226 255
203 226 255
203 226 255
203 226 255
203 226 255
203 225 255
203 225 255
203 225 255
203 225 255
203 225 255
203 225 255
202 225 255
202 225 255
202 225 255
202 225 255
202 225 255
202 225 255
202 225 255
202 225 255
202 225 255
202 225 255
202 225 255
202 225 255
201 225 255
201 225 255
201 225 255
201 225 255
201 224 255
201 224 255
201 224 255
201 224 255
201 224 255
201 224 255
201 224 255
201 224 255
200 224 255
200 224 255
200 224 255
200 224 255
200 224 255
200 224 255
200 224 255
200 224 255
200 224 255
200 224 255
200 224 255
200 224 255
199 224 255
199 223 255
199 223 255
199 223 255
199 223 255
199 223 255
199 223 255
199 223 255
199 223 255
199 223 255
199 223 255
199 223 255
198 223 255
198 223 255
198 223 255
198 223 255
198 223 255
198 223 255
198 223 255
198 223 255
198 223 255
198 223 255
198 223 255
198 223 255
198 223 255
197 223 255
197 222 255
197 222 255
197 222 255
197 222 255
197 222 255
197 222 255
197 222 255
197 222 255
197 222 255
197 222 255
197 222 255
197 222 255
197 222 255
197 222 255
197 222 255
197 222 255
196 222 255
196 222 255
196 222 255
196 222 255
196 222 255
196 222 255
196 222 255
196 222 255
196 222 255
196 222 255
196 222 255
196 222 255
196 222 255
196 222 255
196 222 255
196 222 255
196 222 255
196 222 255
196 222 255
196 222 255
196 222 255
196 222 255
196 222 255
196 222 255
196 222 255
196 222 255
196 222 255
196 222 255
196 222 255
196 222 255
196 222 255
196 222 255
196 222 255
196 222 255
196 222 255
196 222 255
196 222 255
196 222 255
196 222 255
196 222 255
196 222 255
196 222 255
196 222 255
196 222 255
196 222 255
196 222 255
196 222 255
196 222 255
196 222 255
196 222 255
196 222 255
196 222 255
196 222 255
196 222 255
197 222 255
197 222 255
197 222 255
197 222 255
197 222 255
197 222 255
197 222 255
197 222 255
197 222 255
197 222 255
197 222 255
197 222 255
197 222 255
197 222 255
197 222 255
197 222 255
197 223 255
198 223 255
198 223 255
198 223 255
198 223 255
198 223 255
198 223 255
198 223 255
198 223 255
198 223 255
198 223 255
198 223 255
198 223 255
198 223 255
199 223 255
199 223 255
199 223 255
199 223 255
199 223 255
199 223 255
199 223 255
199 223 255
199 223 255
199 223 255
199 223 255
199 224 255
200 224 255
200 224 255
200 224 255
200 224 255
200 224 255
200 224 255
200 224 255
200 224 255
200 224 255
200 224 255
200 224 255
200 224 255
201 224 255
201 224 255
201 224 255
201 224 255
201 224 255
201 224 255
201 224 255
201 224 255
201 225 255
201 225 255
201 225 255
201 225 255
202 225 255
202 225 255
202 225 255
202 225 255
202 225 255
202 225 255
202 225 255
202 225 255
202 225 255
202 225 255
202 225 255
202 225 255
203 225 255
203 225 255
203 225 255
203 225 255
203 225 255
203 225 255
203 226 255
203 226 255
203 226 255
203 226 255
203 226 255
203 226 255
204 226 255
204 226 255
204 226 255
204 226 255
204 226 255
204 226 255
204 226 255
204 226 255
204 226 255
204 226 255
204 226 255
204 226 255
204 226 255
205 226 255
205 226 255
205 226 255
205 226 255
205 226 255
205 226 255
205 227 255
205 227 255
205 227 255
205 227 255
205 227 255
205 227 255
205 227 255
205 227 255
205 227 255
206 227 255
206 227 255
206 227 255
206 227 255
206 227 255
206 227 255
206 227 255
206 227 255
206 227 255
206 227 255
206 227 255
206 227 255
206 227 255
206 227 255
206 227 255
207 227 255
207 227 255
207 227 255
206 227 255
206 227 255
206 227 255
206 227 255
206 227 255
206 227 255
206 227 255
206 227 255
206 227 255
206 227 255
206 227 255
206 227 255
206 227 255
206 227 255
206 227 255
205 227 255
205 227 255
205 227 255
205 227 255
205 227 255
205 227 255
205 227 255
205 227 255
205 227 255
205 226 255
205 226 255
205 226 255
205 226 255
205 226 255
204 226 255
204 226 255
204 226 255
204 226 255
204 226 255
204 226 255
204 226 255
204 226 255
204 226 255
204 226 255
204 226 255
204 226 255
204 226 255
203 226 255
203 226 255
203 226 255
203 226 255
203 226 255
203 226 255
203 225 255
203 225 255
203 225 255
203 225 255
203 225 255
203 225 255
203 225 255
202 225 255
202 225 255
202 225 255
202 225 255
202 225 255
202 225 255
202 225 255
202 225 255
202 225 255
202 225 255
202 225 255
202 225 255
201 225 255
201 225 255
201 225 255
201 224 255
201 224 255
201 224 255
201 224 255
201 224 255
201 224 255
201 224 255
201 224 255
200 224 255
200 224 255
200 224 255
200 224 255
200 224 255
200 224 255
200 224 255
200 224 255
200 224 255
200 224 255
200 224 255
200 224 255
199 224 255
199 224 255
199 223 255
199 223 255
199 223 255
199 223 255
199 223 255
199 223 255
199 223 255
199 223 255
199 223 255
199 223 255
198 223 255
198 223 255
198 223 255
198 223 255
198 223 255
198 223 255
198 223 255
198 223 255
198 223 255
198 223 255
198 223 255
198 223 255
198 223 255
198 223 255
197 223 255
197 222 255
197 222 255
197 222 255
197 222 255
197 222 255
197 222 255
197 222 255
197 222 255
197 222 255
197 222 255
197 222 255
197 222 255
197 222 255
197 222 255
197 222 255
197 222 255
197 222 255
196 222 255
196 222 255
196 222 255
196 222 255
196 222 255
196 222 255
196 222 255
196 222 255
196 222 255
196 222 255
196 222 255
196 222 255
196 222 255
196 222 255
196 222 255
196 222 255
196 222 255
196 222 255
196 222 255
196 222 255
196 222 255
196 222 255
196 222 255
196 222 255
196 222 255
196 222 255
196 222 255
196 222 255
196 222 255
196 222 255
196 222 255
196 222 255
196 222 255
196 222 255
196 222 255
196 222 255
196 222 255
196 222 255
196 222 255
196 222 255
196 222 255
196 222 255
196 222 255
196 222 255
196 222 255
196 222 255
197 222 255
197 222 255
197 222 255
197 222 255
197 222 255
197 222 255
197 222 255
197 222 255
197 222 255
197 222 255
197 222 255
197 222 255
197 222 255
197 222 255
197 222 255
197 222 255
197 222 255
197 223 255
198 223 255
198 223 255
198 223 255
198 223 255
198 223 255
198 223 255
198 223 255
198 223 255
198 223 255
198 223 255
198 223 255
198 223 255
198 223 255
199 223 255
199 223 255
199 223 255
199 223 255
199 223 255
199 223 255
199 223 255
199 223 255
199 223 255
199 223 255
199 223 255
199 224 255
199 224 255
200 224 255
200 224 255
200 224 255
200 224 255
200 224 255
200 224 255
200 224 255
200 224 255
200 224 255
200 224 255
200 224 255
200 224 255
201 224 255
201 224 255
201 224 255
201 224 255
201 224 255
201 224 255
201 224 255
201 224 255
201 225 255
201 225 255
201 225 255
202 225 255
202 225 255
202 225 255
202 225 255
202 225 255
202 225 255
202 225 255
202 225 255
202 225 255
202 225 255
202 225 255
202 225 255
203 225 255
203 225 255
203 225 255
203 225 255
203 225 255
203 225 255
203 225 255
203 226 255
203 226 255
203 226 255
203 226 255
203 226 255
203 226 255
204 226 255
204 226 255
204 226 255
204 226 255
204 226 255
204 226 255
204 226 255
204 226 255
204 226 255
204 226 255
204 226 255
204 226 255
204 226 255
205 226 255
205 226 255
205 226 255
205 226 255
205 226 255
205 227 255
205 227 255
205 227 255
205 227 255
205 227 255
205 227 255
205 227 255
205 227 255
205 227 255
206 227 255
206 227 255
206 227 255
206 227 255
206 227 255
206 227 255
206 227 255
206 227 255
206 227 255
206 227 255
206 227 255
206 227 255
206 227 255
206 227 255
206 227 255
207 227 255
207 227 255
207 227 255
207 228 255
207 228 255
207 227 255
207 227 255
207 227 255
207 227 255
206 227 255
206 227 255
206 227 255
206 227 255
206 227 255
206 227 255
206 227 255
206 227 255
206 227 255
206 227 255
206 227 255
206 227 255
206 227 255
206 227 255
206 227 255
205 227 255
205 227 255
205 227 255
205 227 255
205 227 255
205 227 255
205 227 255
205 227 255
205 226 255
205 226 255
205 226 255
205 226 255
205 226 255
205 226 255
204 226 255
204 226 255
204 226 255
204 226 255
204 226 255
204 226 255
204 226 255
204 226 255
204 226 255
204 226 255
204 226 255
204 226 255
204 226 255
203 226 255
203 226 255
203 226 255
203 226 255
203 226 255
203 226 255
203 225 255
203 225 255
203 225 255
203 225 255
203 225 255
203 225 255
202 225 255
202 225 255
202 225 255
202 225 255
202 225 255
202 225 255
202 225 255
202 225 255
202 225 255
202 225 255
202 225 255
202 225 255
201 225 255
201 225 255
201 225 255
201 225 255
201 224 255
201 224 255
201 224 255
201 224 255
201 224 255
201 224 255
201 224 255
201 224 255
200 224 255
200 224 255
200 224 255
200 224 255
200 224 255
200 224 255
200 224 255
200 224 255
200 224 255
200 224 255
200 224 255
200 224 255
199 224 255
199 224 255
199 223 255
199 223 255
199 223 255
199 223 255
199 223 255
199 223 255
199 223 255
199 223 255
199 223 255
199 223 255
198 223 255
198 223 255
198 223 255
198 223 255
198 223 255
198 223 255
198 223 255
198 223 255
198 223 255
198 223 255
198 223 255
198 223 255
198 223 255
198 223 255
198 223 255
197 222 255
197 222 255
197 222 255
197 222 255
197 222 255
197 222 255
197 222 255
197 222 255
197 222 255
197 222 255
197 222 255
197 222 255
197 222 255
197 222 255
197 222 255
197 222 255
197 222 255
197 222 255
197 222 255
197 222 255
196 222 255
196 222 255
196 222 255
196 222 255
196 222 255
196 222 255
196 222 255
196 222 255
196 222 255
196 222 255
196 222 255
196 222 255
196 222 255
196 222 255
196 222 255
196 222 255
196 222 255
196 222 255
196 222 255
196 222 255
196 222 255
196 222 255
196 222 255
196 222 255
196 222 255
196 222 255
196 222 255
196 222 255
196 222 255
196 222 255
196 222 255
196 222 255
196 222 255
196 222 255
197 222 255
197 222 255
197 222 255
197 222 255
197 222 255
197 222 255
197 222 255
197 222 255
197 222 255
197 222 255
197 222 255
197 222 255
197 222 255
197 222 255
197 222 255
197 222 255
197 222 255
197 222 255
197 222 255
197 222 255
198 223 255
198 223 255
198 223 255
198 223 255
198 223 255
198 223 255
198 223 255
198 223 255
198 223 255
198 223 255
198 223 255
198 223 255
198 223 255
198 223 255
198 223 255
199 223 255
199 223 255
199 223 255
199 223 255
199 223 255
199 223 255
199 223 255
199 223 255
199 223 255
199 223 255
199 224 255
199 224 255
200 224 255
200 224 255
200 224 255
200 224 255
200 224 255
200 224 255
200 224 255
200 224 255
200 224 255
200 224 255
200 224 255
200 224 255
201 224 255
201 224 255
201 224 255
201 224 255
201 224 255
201 224 255
201 224 255
201 224 255
201 225 255
201 225 255
201 225 255
201 225 255
202 225 255
202 225 255
202 225 255
202 225 255
202 225 255
202 225 255
202 225 255
202 225 255
202 225 255
202 225 255
202 225 255
202 225 255
203 225 255
203 225 255
203 225 255
203 225 255
203 225 255
203 225 255
203 225 255
203 226 255
203 226 255
203 226 255
203 226 255
203 226 255
204 226 255
204 226 255
204 226 255
204 226 255
204 226 255
204 226 255
204 226 255
204 226 255
204 226 255
204 226 255
204 226 255
204 226 255
204 226 255
205 226 255
205 226 255
205 226 255
205 226 255
205 226 255
205 226 255
205 227 255
205 227 255
205 227 255
205 227 255
205 227 255
205 227 255
205 227 255
205 227 255
206 227 255
206 227 255
206 227 255
206 227 255
206 227 255
206 227 255
206 227 255
206 227 255
206 227 255
206 227 255
206 227 255
206 227 255
206 227 255
206 227 255
206 227 255
206 227 255
207 227 255
207 227 255
207 227 255
207 228 255
207 228 255
207 228 255
207 228 255
207 228 255
207 228 255
207 228 255
207 227 255
207 227 255
207 227 255
206 227 255
206 227 255
206 227 255
206 227 255
206 227 255
206 227 255
206 227 255
206 227 255
206 227 255
206 227 255
206 227 255
206 227 255
206 227 255
206 227 255
206 227 255
205 227 255
205 227 255
205 227 255
205 227 255
205 227 255
205 227 255
205 227 255
205 227 255
205 227 255
205 226 255
205 226 255
205 226 255
205 226 255
205 226 255
204 226 255
204 226 255
204 226 255
204 226 255
204 226 255
204 226 255
204 226 255
204 226 255
204 226 255
204 226 255
204 226 255
204 226 255
204 226 255
204 226 255
203 226 255
203 226 255
203 226 255
203 226 255
203 226 255
203 225 255
203 225 255
203 225 255
203 225 255
203 225 255
203 225 255
202 225 255
202 225 255
202 225 255
202 225 255
202 225 255
202 225 255
202 225 255
202 225 255
202 225 255
202 225 255
202 225 255
202 225 255
202 225 255
201 225 255
201 225 255
201 225 255
201 224 255
201 224 255
201 224 255
201 224 255
201 224 255
201 224 255
201 224 255
201 224 255
200 224 255
200 224 255
200 224 255
200 224 255
200 224 255
200 224 255
200 224 255
200 224 255
200 224 255
200 224 255
200 224 255
200 224 255
199 224 255
199 224 255
199 223 255
199 223 255
199 223 255
199 223 255
199 223 255
199 223 255
199 223 255
199 223 255
199 223 255
199 223 255
199 223 255
198 223 255
198 223 255
198 223 255
198 223 255
198 223 255
198 223 255
198 223 255
198 223 255
198 223 255
198 223 255
198 223 255
198 223 255
198 223 255
198 223 255
198 223 255
197 223 255
197 222 255
197 222 255
197 222 255
197 222 255
197 222 255
197 222 255
197 222 255
197 222 255
197 222 255
197 222 255
197 222 255
197 222 255
197 222 255
197 222 255
197 222 255
197 222 255
197 222 255
197 222 255
197 222 255
197 222 255
197 222 255
197 222 255
197 222 255
197 222 255
197 222 255
196 222 255
196 222 255
196 222 255
196 222 255
196 222 255
196 222 255
196 222 255
196 222 255
196 222 255
196 222 255
196 222 255
196 222 255
196 222 255
196 222 255
196 222 255
196 222 255
197 222 255
197 222 255
197 222 255
197 222 255
197 222 255
197 222 255
197 222 255
197 222 255
197 222 255
197 222 255
197 222 255
197 222 255
197 222 255
197 222 255
197 222 255
197 222 255
197 222 255
197 222 255
197 222 255
197 222 255
197 222 255
197 222 255
197 222 255
197 222 255
197 222 255
197 222 255
198 223 255
198 223 255
198 223 255
198 223 255
198 223 255
198 223 255
198 223 255
198 223 255
198 223 255
198 223 255
198 223 255
198 223 255
198 223 255
198 223 255
198 223 255
199 223 255
199 223 255
199 223 255
199 223 255
199 223 255
199 223 255
199 223 255
199 223 255
199 223 255
199 223 255
199 223 255
199 224 255
199 224 255
200 224 255
200 224 255
200 224 255
200 224 255
200 224 255
200 224 255
200 224 255
200 224 255
200 224 255
200 224 255
200 224 255
200 224 255
201 224 255
201 224 255
201 224 255
201 224 255
201 224 255
201 224 255
201 224 255
201 224 255
201 225 255
201 225 255
201 225 255
202 225 255
202 225 255
202 225 255
202 225 255
202 225 255
202 225 255
202 225 255
202 225 255
202 225 255
202 225 255
202 225 255
202 225 255
203 225 255
203 225 255
203 225 255
203 225 255
203 225 255
203 225 255
203 225 255
203 226 255
203 226 255
203 226 255
203 226 255
203 226 255
203 226 255
204 226 255
204 226 255
204 226 255
204 226 255
204 226 255
204 226 255
204 226 255
204 226 255
204 226 255
204 226 255
204 226 255
204 226 255
204 226 255
205 226 255
205 226 255
205 226 255
205 226 255
205 226 255
205 227 255
205 227 255
205 227 255
205 227 255
205 227 255
205 227 255
205 227 255
205 227 255
206 227 255
206 227 255
206 227 255
206 227 255
206 227 255
206 227 255
206 227 255
206 227 255
206 227 255
206 227 255
206 227 255
206 227 255
206 227 255
206 227 255
206 227 255
206 227 255
207 227 255
207 227 255
207 227 255
207 228 255
207 228 255
207 228 255
207 228 255
207 228 255
207 228 255
207 228 255
207 228 255
207 228 255
207 228 255
207 228 255
207 228 255
207 227 255
207 227 255
207 227 255
207 227 255
206 227 255
206 227 255
206 227 255
206 227 255
206 227 255
206 227 255
206 227 255
206 227 255
206 227 255
206 227 255
206 227 255
206 227 255
206 227 255
206 227 255
206 227 255
205 227 255
205 227 255
205 227 255
205 227 255
205 227 255
205 227 255
205 227 255
205 227 255
205 226 255
205 226 255
205 226 255
205 226 255
205 226 255
205 226 255
204 226 255
204 226 255
204 226 255
204 226 255
204 226 255
204 226 255
204 226 255
204 226 255
204 226 255
204 226 255
204 226 255
204 226 255
204 226 255
203 226 255
203 226 255
203 226 255
203 226 255
203 226 255
203 225 255
203 225 255
203 225 255
203 225 255
203 225 255
203 225 255
203 225 255
202 225 255
202 225 255
202 225 255
202 225 255
202 225 255
202 225 255
202 225 255
202 225 255
202 225 255
202 225 255
202 225 255
202 225 255
201 225 255
201 225 255
201 225 255
201 224 255
201 224 255
201 224 255
201 224 255
201 224 255
201 224 255
201 224 255
201 224 255
201 224 255
200 224 255
200 224 255
200 224 255
200 224 255
200 224 255
200 224 255
200 224 255
200 224 255
200 224 255
200 224 255
200 224 255
200 224 255
199 224 255
199 224 255
199 223 255
199 223 255
199 223 255
199 223 255
199 223 255
199 223 255
199 223 255
199 223 255
199 223 255
199 223 255
199 223 255
198 223 255
198 223 255
198 223 255
198 223 255
198 223 255
198 223 255
198 223 255
198 223 255
198 223 255
198 223 255
198 223 255
198 223 255
198 223 255
198 223 255
198 223 255
198 223 255
197 223 255
197 222 255
197 222 255
197 222 255
197 222 255
197 222 255
197 222 255
197 222 255
197 222 255
197 222 255
197 222 255
197 222 255
197 222 255
197 222 255
197 222 255
197 222 255
197 222 255
197 222 255
197 222 255
197 222 255
197 222 255
197 222 255
197 222 255
197 222 255
197 222 255
197 222 255
197 222 255
197 222 255
197 222 255
197 222 255
197 222 255
197 222 255
197 222 255
197 222 255
197 222 255
197 222 255
197 222 255
197 222 255
197 222 255
197 222 255
197 222 255
197 222 255
197 222 255
197 222 255
197 222 255
197 222 255
197 222 255
197 222 255
197 222 255
197 222 255
197 222 255
197 222 255
197 222 255
197 222 255
197 222 255
197 222 255
197 222 255
197 222 255
197 222 255
197 222 255
198 223 255
198 223 255
198 223 255
198 223 255
198 223 255
198 223 255
198 223 255
198 223 255
198 223 255
198 223 255
198 223 255
198 223 255
198 223 255
198 223 255
198 223 255
198 223 255
199 223 255
199 223 255
199 223 255
199 223 255
199 223 255
199 223 255
199 223 255
199 223 255
199 223 255
199 223 255
199 223 255
199 224 255
199 224 255
200 224 255
200 224 255
200 224 255
200 224 255
200 224 255
200 224 255
200 224 255
200 224 255
200 224 255
200 224 255
200 224 255
200 224 255
201 224 255
201 224 255
201 224 255
201 224 255
201 224 255
201 224 255
201 224 255
201 224 255
201 225 255
201 225 255
201 225 255
201 225 255
202 225 255
202 225 255
202 225 255
202 225 255
202 225 255
202 225 255
202 225 255
202 225 255
202 225 255
202 225 255
202 225 255
202 225 255
203 225 255
203 225 255
203 225 255
203 225 255
203 225 255
203 225 255
203 225 255
203 226 255
203 226 255
203 226 255
203 226 255
203 226 255
204 226 255
204 226 255
204 226 255
204 226 255
204 226 255
204 226 255
204 226 255
204 226 255
204 226 255
204 226 255
204 226 255
204 226 255
204 226 255
205 226 255
205 226 255
205 226 255
205 226 255
205 226 255
205 226 255
205 227 255
205 227 255
205 227 255
205 227 255
205 227 255
205 227 255
205 227 255
205 227 255
206 227 255
206 227 255
206 227 255
206 227 255
206 227 255
206 227 255
206 227 255
206 227 255
206 227 255
206 227 255
206 227 255
206 227 255
206 227 255
206 227 255
206 227 255
207 227 255
207 227 255
207 227 255
207 227 255
207 228 255
207 228 255
207 228 255
207 228 255
207 228 255
207 228 255
207 228 255
207 228 255
207 228 255
207 228 255
207 228 255
207 228 255
207 228 255
207 228 255
207 228 255
207 228 255
207 228 255
207 227 255
207 227 255
207 227 255
207 227 255
206 227 255
206 227 255
206 227 255
206 227 255
206 227 255
206 227 255
206 227 255
206 227 255
206 227 255
206 227 255
206 227 255
206 227 255
206 227 255
206 227 255
206 227 255
205 227 255
205 227 255
205 227 255
205 227 255
205 227 255
205 227 255
205 227 255
205 227 255
205 226 255
205 226 255
205 226 255
205 226 255
205 226 255
204 226 255
204 226 255
204 226 255
204 226 255
204 226 255
204 226 255
204 226 255
204 226 255
204 226 255
204 226 255
204 226 255
204 226 255
204 226 255
203 226 255
203 226 255
203 226 255
203 226 255
203 226 255
203 226 255
203 225 255
203 225 255
203 225 255
203 225 255
203 225 255
203 225 255
203 225 255
202 225 255
202 225 255
202 225 255
202 225 255
202 225 255
202 225 255
202 225 255
202 225 255
202 225 255
202 225 255
202 225 255
202 225 255
201 225 255
201 225 255
201 225 255
201 224 255
201 224 255
201 224 255
201 224 255
201 224 255
201 224 255
201 224 255
201 224 255
201 224 255
200 224 255
200 224 255
200 224 255
200 224 255
200 224 255
200 224 255
200 224 255
200 224 255
200 224 255
200 224 255
200 224 255
200 224 255
199 224 255
199 224 255
199 223 255
199 223 255
199 223 255
199 223 255
199 223 255
199 223 255
199 223 255
199 223 255
199 223 255
199 223 255
199 223 255
198 223 255
198 223 255
198 223 255
198 223 255
198 223 255
198 223 255
198 223 255
198 223 255
198 223 255
198 223 255
198 223 255
198 223 255
198 223 255
198 223 255
198 223 255
198 223 255
198 223 255
197 223 255
197 222 255
197 222 255
197 222 255
197 222 255
197 222 255
197 222 255
197 222 255
197 222 255
197 222 255
197 222 255
197 222 255
197 222 255
197 222 255
197 222 255
197 222 255
197 222 255
197 222 255
197 222 255
197 222 255
197 222 255
197 222 255
197 222 255
197 222 255
197 222 255
197 222 255
197 222 255
197 222 255
197 222 255
197 222 255
197 222 255
197 222 255
197 222 255
197 222 255
197 222 255
197 222 255
197 222 255
197 222 255
197 222 255
197 222 255
197 222 255
197 222 255
197 222 255
197 222 255
197 222 255
197 222 255
197 222 255
197 222 255
197 222 255
197 222 255
197 222 255
197 223 255
198 223 255
198 223 255
198 223 255
198 223 255
198 223 255
198 223 255
198 223 255
198 223 255
198 223 255
198 223 255
198 223 255
198 223 255
198 223 255
198 223 255
198 223 255
198 223 255
198 223 255
199 223 255
199 223 255
199 223 255
199 223 255
199 223 255
199 223 255
199 223 255
199 223 255
199 223 255
199 223 255
199 223 255
199 224 255
199 224 255
200 224 255
200 224 255
200 224 255
200 224 255
200 224 255
200 224 255
200 224 255
200 224 255
200 224 255
200 224 255
200 224 255
200 224 255
200 224 255
201 224 255
201 224 255
201 224 255
201 224 255
201 224 255
201 224 255
201 224 255
201 224 255
201 225 255
201 225 255
201 225 255
202 225 255
202 225 255
202 225 255
202 225 255
202 225 255
202 225 255
202 225 255
202 225 255
202 225 255
202 225 255
202 225 255
202 225 255
203 225 255
203 225 255
203 225 255
203 225 255
203 225 255
203 225 255
203 225 255
203 226 255
203 226 255
203 226 255
203 226 255
203 226 255
203 226 255
204 226 255
204 226 255
204 226 255
204 226 255
204 226 255
204 226 255
204 226 255
204 226 255
204 226 255
204 226 255
204 226 255
204 226 255
205 226 255
205 226 255
205 226 255
205 226 255
205 226 255
205 226 255
205 227 255
205 227 255
205 227 255
205 227 255
205 227 255
205 227 255
205 227 255
205 227 255
206 227 255
206 227 255
206 227 255
206 227 255
206 227 255
206 227 255
206 227 255
206 227 255
206 227 255
206 227 255
206 227 255
206 227 255
206 227 255
206 227 255
206 227 255
207 227 255
207 227 255
207 227 255
207 227 255
207 228 255
207 228 255
207 228 255
207 228 255
207 228 255
207 228 255
207 228 255
207 228 255
207 228 255
207 228 255
208 228 255
207 228 255
207 228 255
207 228 255
207 228 255
207 228 255
207 228 255
207 228 255
207 228 255
207 228 255
207 228 255
207 228 255
207 228 255
207 227 255
207 227 255
207 227 255
207 227 255
206 227 255
206 227 255
206 227 255
206 227 255
206 227 255
206 227 255
206 227 255
206 227 255
206 227 255
206 227 255
206 227 255
206 227 255
206 227 255
206 227 255
206 227 255
205 227 255
205 227 255
205 227 255
205 227 255
205 227 255
205 227 255
205 227 255
205 227 255
205 226 255
205 226 255
205 226 255
205 226 255
205 226 255
204 226 255
204 226 255
204 226 255
204 226 255
204 226 255
204 226 255
204 226 255
204 226 255
204 226 255
204 226 255
204 226 255
204 226 255
204 226 255
203 226 255
203 226 255
203 226 255
203 226 255
203 226 255
203 225 255
203 225 255
203 225 255
203 225 255
203 225 255
203 225 255
203 225 255
202 225 255
202 225 255
202 225 255
202 225 255
202 225 255
202 225 255
202 225 255
202 225 255
202 225 255
202 225 255
202 225 255
202 225 255
201 225 255
201 225 255
201 225 255
201 225 255
201 224 255
201 224 255
201 224 255
201 224 255
201 224 255
201 224 255
201 224 255
201 224 255
200 224 255
200 224 255
200 224 255
200 224 255
200 224 255
200 224 255
200 224 255
200 224 255
200 224 255
200 224 255
200 224 255
200 224 255
200 224 255
199 224 255
199 224 255
199 223 255
199 223 255
199 223 255
199 223 255
199 223 255
199 223 255
199 223 255
199 223 255
199 223 255
199 223 255
199 223 255
198 223 255
198 223 255
198 223 255
198 223 255
198 223 255
198 223 255
198 223 255
198 223 255
198 223 255
198 223 255
198 223 255
198 223 255
198 223 255
198 223 255
198 223 255
198 223 255
198 223 255
198 223 255
198 223 255
197 223 255
197 223 255
197 222 255
197 222 255
197 222 255
197 222 255
197 222 255
197 222 255
197 222 255
197 222 255
197 222 255
197 222 255
197 222 255
197 222 255
197 222 255
197 222 255
197 222 255
197 222 255
197 222 255
197 222 255
197 222 255
197 222 255
197 222 255
197 222 255
197 222 255
197 222 255
197 222 255
197 222 255
197 222 255
197 222 255
197 222 255
197 222 255
197 222 255
197 222 255
197 222 255
197 222 255
197 222 255
197 222 255
197 222 255
197 222 255
197 223 255
198 223 255
198 223 255
198 223 255
198 223 255
198 223 255
198 223 255
198 223 255
198 223 255
198 223 255
198 223 255
198 223 255
198 223 255
198 223 255
198 223 255
198 223 255
198 223 255
198 223 255
198 223 255
198 223 255
199 223 255
199 223 255
199 223 255
199 223 255
199 223 255
199 223 255
199 223 255
199 223 255
199 223 255
199 223 255
199 223 255
199 223 255
199 224 255
199 224 255
199 224 255
200 224 255
200 224 255
200 224 255
200 224 255
200 224 255
200 224 255
200 224 255
200 224 255
200 224 255
200 224 255
200 224 255
200 224 255
201 224 255
201 224 255
201 224 255
201 224 255
201 224 255
201 224 255
201 224 255
201 224 255
201 225 255
201 225 255
201 225 255
201 225 255
202 225 255
202 225 255
202 225 255
202 225 255
202 225 255
202 225 255
202 225 255
202 225 255
202 225 255
202 225 255
202 225 255
202 225 255
203 225 255
203 225 255
203 225 255
203 225 255
203 225 255
203 225 255
203 225 255
203 226 255
203 226 255
203 226 255
203 226 255
203 226 255
204 226 255
204 226 255
204 226 255
204 226 255
204 226 255
204 226 255
204 226 255
204 226 255
204 226 255
204 226 255
204 226 255
204 226 255
204 226 255
205 226 255
205 226 255
205 226 255
205 226 255
205 226 255
205 227 255
205 227 255
205 227 255
205 227 255
205 227 255
205 227 255
205 227 255
205 227 255
206 227 255
206 227 255
206 227 255
206 227 255
206 227 255
206 227 255
206 227 255
206 227 255
206 227 255
206 227 255
206 227 255
206 227 255
206 227 255
206 227 255
206 227 255
207 227 255
207 227 255
207 227 255
207 227 255
207 228 255
207 228 255
207 228 255
207 228 255
207 228 255
207 228 255
207 228 255
207 228 255
207 228 255
207 228 255
207 228 255
207 228 255
208 228 255
208 228 255
208 228 255
208 228 255
208 228 255
207 228 255
207 228 255
207 228 255
207 228 255
207 228 255
207 228 255
207 228 255
207 228 255
207 228 255
207 228 255
207 228 255
207 228 255
207 227 255
207 227 255
207 227 255
207 227 255
206 227 255
206 227 255
206 227 255
206 227 255
206 227 255
206 227 255
206 227 255
206 227 255
206 227 255
206 227 255
206 227 255
206 227 255
206 227 255
206 227 255
205 227 255
205 227 255
205 227 255
205 227 255
205 227 255
205 227 255
205 227 255
205 227 255
205 226 255
205 226 255
205 226 255
205 226 255
205 226 255
205 226 255
204 226 255
204 226 255
204 226 255
204 226 255
204 226 255
204 226 255
204 226 255
204 226 255
204 226 255
204 226 255
204 226 255
204 226 255
204 226 255
203 226 255
203 226 255
203 226 255
203 226 255
203 226 255
203 225 255
203 225 255
203 225 255
203 225 255
203 225 255
203 225 255
203 225 255
202 225 255
202 225 255
202 225 255
202 225 255
202 225 255
202 225 255
202 225 255
202 225 255
202 225 255
202 225 255
202 225 255
202 225 255
201 225 255
201 225 255
201 225 255
201 224 255
201 224 255
201 224 255
201 224 255
201 224 255
201 224 255
201 224 255
201 224 255
201 224 255
200 224 255
200 224 255
200 224 255
200 224 255
200 224 255
200 224 255
200 224 255
200 224 255
200 224 255
200 224 255
200 224 255
200 224 255
199 224 255
199 224 255
199 224 255
199 223 255
199 223 255
199 223 255
199 223 255
199 223 255
199 223 255
199 223 255
199 223 255
199 223 255
199 223 255
199 223 255
199 223 255
198 223 255
198 223 255
198 223 255
198 223 255
198 223 255
198 223 255
198 223 255
198 223 255
198 223 255
198 223 255
198 223 255
198 223 255
198 223 255
198 223 255
198 223 255
198 223 255
198 223 255
198 223 255
198 223 255
198 223 255
198 223 255
198 223 255
198 223 255
197 223 255
197 223 255
197 222 255
197 222 255
197 222 255
197 222 255
197 222 255
197 222 255
197 222 255
197 222 255
197 222 255
197 222 255
197 222 255
197 222 255
197 222 255
197 222 255
197 222 255
197 222 255
197 222 255
197 222 255
197 222 255
197 222 255
197 222 255
197 222 255
197 222 255
197 223 255
198 223 255
198 223 255
198 223 255
198 223 255
198 223 255
198 223 255
198 223 255
198 223 255
198 223 255
198 223 255
198 223 255
198 223 255
198 223 255
198 223 255
198 223 255
198 223 255
198 223 255
198 223 255
198 223 255
198 223 255
198 223 255
198 223 255
199 223 255
199 223 255
199 223 255
199 223 255
199 223 255
199 223 255
199 223 255
199 223 255
199 223 255
199 223 255
199 223 255
199 223 255
199 223 255
199 224 255
199 224 255
200 224 255
200 224 255
200 224 255
200 224 255
200 224 255
200 224 255
200 224 255
200 224 255
200 224 255
200 224 255
200 224 255
200 224 255
200 224 255
201 224 255
201 224 255
201 224 255
201 224 255
201 224 255
201 224 255
201 224 255
201 224 255
201 224 255
201 225 255
201 225 255
201 225 255
202 225 255
202 225 255
202 225 255
202 225 255
202 225 255
202 225 255
202 225 255
202 225 255
202 225 255
202 225 255
202 225 255
202 225 255
203 225 255
203 225 255
203 225 255
203 225 255
203 225 255
203 225 255
203 225 255
203 226 255
203 226 255
203 226 255
203 226 255
203 226 255
204 226 255
204 226 255
204 226 255
204 226 255
204 226 255
204 226 255
204 226 255
204 226 255
204 226 255
204 226 255
204 226 255
204 226 255
204 226 255
205 226 255
205 226 255
205 226 255
205 226 255
205 226 255
205 226 255
205 227 255
205 227 255
205 227 255
205 227 255
205 227 255
205 227 255
205 227 255
205 227 255
206 227 255
206 227 255
206 227 255
206 227 255
206 227 255
206 227 255
206 227 255
206 227 255
206 227 255
206 227 255
206 227 255
206 227 255
206 227 255
206 227 255
206 227 255
207 227 255
207 227 255
207 227 255
207 228 255
207 228 255
207 228 255
207 228 255
207 228 255
207 228 255
207 228 255
207 228 255
207 228 255
207 228 255
207 228 255
207 228 255
207 228 255
208 228 255
208 228 255
208 228 255
208 228 255
208 228 255
208 228 255
208 228 255
208 228 255
208 228 255
208 228 255
207 228 255
207 228 255
207 228 255
207 228 255
207 228 255
207 228 255
207 228 255
207 228 255
207 228 255
207 228 255
207 228 255
207 228 255
207 227 255
207 227 255
207 227 255
206 227 255
206 227 255
206 227 255
206 227 255
206 227 255
206 227 255
206 227 255
206 227 255
206 227 255
206 227 255
206 227 255
206 227 255
206 227 255
206 227 255
206 227 255
205 227 255
205 227 255
205 227 255
205 227 255
205 227 255
205 227 255
205 227 255
205 227 255
205 226 255
205 226 255
205 226 255
205 226 255
205 226 255
204 226 255
204 226 255
204 226 255
204 226 255
204 226 255
204 226 255
204 226 255
204 226 255
204 226 255
204 226 255
204 226 255
204 226 255
204 226 255
203 226 255
203 226 255
203 226 255
203 226 255
203 226 255
203 225 255
203 225 255
203 225 255
203 225 255
203 225 255
203 225 255
203 225 255
202 225 255
202 225 255
202 225 255
202 225 255
202 225 255
202 225 255
202 225 255
202 225 255
202 225 255
202 225 255
202 225 255
202 225 255
201 225 255
201 225 255
201 225 255
201 225 255
201 224 255
201 224 255
201 224 255
201 224 255
201 224 255
201 224 255
201 224 255
201 224 255
201 224 255
200 224 255
200 224 255
200 224 255
200 224 255
200 224 255
200 224 255
200 224 255
200 224 255
200 224 255
200 224 255
200 224 255
200 224 255
200 224 255
199 224 255
199 224 255
199 223 255
199 223 255
199 223 255
199 223 255
199 223 255
199 223 255
199 223 255
199 223 255
199 223 255
199 223 255
199 223 255
199 223 255
199 223 255
198 223 255
198 223 255
198 223 255
198 223 255
198 223 255
198 223 255
198 223 255
198 223 255
198 223 255
198 223 255
198 223 255
198 223 255
198 223 255
198 223 255
198 223 255
198 223 255
198 223 255
198 223 255
198 223 255
198 223 255
198 223 255
198 223 255
198 223 255
198 223 255
198 223 255
198 223 255
198 223 255
198 223 255
198 223 255
198 223 255
198 223 255
198 223 255
198 223 255
198 223 255
198 223 255
198 223 255
198 223 255
198 223 255
198 223 255
198 223 255
198 223 255
198 223 255
198 223 255
198 223 255
198 223 255
198 223 255
198 223 255
198 223 255
198 223 255
198 223 255
198 223 255
198 223 255
198 223 255
198 223 255
198 223 255
198 223 255
198 223 255
198 223 255
198 223 255
198 223 255
198 223 255
198 223 255
198 223 255
198 223 255
199 223 255
199 223 255
199 223 255
199 223 255
199 223 255
199 223 255
199 223 255
199 223 255
199 223 255
199 223 255
199 223 255
199 223 255
199 223 255
199 224 255
199 224 255
200 224 255
200 224 255
200 224 255
200 224 255
200 224 255
200 224 255
200 224 255
200 224 255
200 224 255
200 224 255
200 224 255
200 224 255
200 224 255
201 224 255
201 224 255
201 224 255
201 224 255
201 224 255
201 224 255
201 224 255
201 224 255
201 224 255
201 225 255
201 225 255
201 225 255
201 225 255
202 225 255
202 225 255
202 225 255
202 225 255
202 225 255
202 225 255
202 225 255
202 225 255
202 225 255
202 225 255
202 225 255
202 225 255
203 225 255
203 225 255
203 225 255
203 225 255
203 225 255
203 225 255
203 225 255
203 226 255
203 226 255
203 226 255
203 226 255
203 226 255
204 226 255
204 226 255
204 226 255
204 226 255
204 226 255
204 226 255
204 226 255
204 226 255
204 226 255
204 226 255
204 226 255
204 226 255
204 226 255
205 226 255
205 226 255
205 226 255
205 226 255
205 226 255
205 227 255
205 227 255
205 227 255
205 227 255
205 227 255
205 227 255
205 227 255
205 227 255
206 227 255
206 227 255
206 227 255
206 227 255
206 227 255
206 227 255
206 227 255
206 227 255
206 227 255
206 227 255
206 227 255
206 227 255
206 227 255
206 227 255
207 227 255
207 227 255
207 227 255
207 227 255
207 228 255
207 228 255
207 228 255
207 228 255
207 228 255
207 228 255
207 228 255
207 228 255
207 228 255
207 228 255
207 228 255
207 228 255
208 228 255
208 228 255
208 228 255
208 228 255
208 228 255
208 228 255
208 228 255
208 228 255
208 228 255
208 228 255
208 228 255
208 228 255
208 228 255
208 228 255
208 228 255
208 228 255
207 228 255
207 228 255
207 228 255
207 228 255
207 228 255
207 228 255
207 228 255
207 228 255
207 228 255
207 228 255
207 228 255
207 228 255
207 228 255
207 227 255
207 227 255
207 227 255
206 227 255
206 227 255
206 227 255
206 227 255
206 227 255
206 227 255
206 227 255
206 227 255
206 227 255
206 227 255
206 227 255
206 227 255
206 227 255
206 227 255
206 227 255
205 227 255
205 227 255
205 227 255
205 227 255
205 227 255
205 227 255
205 227 255
205 227 255
205 226 255
205 226 255
205 226 255
205 226 255
205 226 255
204 226 255
204 226 255
204 226 255
204 226 255
204 226 255
204 226 255
204 226 255
204 226 255
204 226 255
204 226 255
204 226 255
204 226 255
204 226 255
203 226 255
203 226 255
203 226 255
203 226 255
203 226 255
203 225 255
203 225 255
203 225 255
203 225 255
203 225 255
203 225 255
203 225 255
202 225 255
202 225 255
202 225 255
202 225 255
202 225 255
202 225 255
202 225 255
202 225 255
202 225 255
202 225 255
202 225 255
202 225 255
201 225 255
201 225 255
201 225 255
201 225 255
201 224 255
201 224 255
201 224 255
201 224 255
201 224 255
201 224 255
201 224 255
201 224 255
201 224 255
200 224 255
200 224 255
200 224 255
200 224 255
200 224 255
200 224 255
200 224 255
200 224 255
200 224 255
200 224 255
200 224 255
200 224 255
200 224 255
199 224 255
199 224 255
199 223 255
199 223 255
199 223 255
199 223 255
199 223 255
199 223 255
199 223 255
199 223 255
199 223 255
199 223 255
199 223 255
199 223 255
199 223 255
199 223 255
199 223 255
198 223 255
198 223 255
198 223 255
198 223 255
198 223 255
198 223 255
198 223 255
198 223 255
198 223 255
198 223 255
198 223 255
198 223 255
198 223 255
198 223 255
198 223 255
198 223 255
198 223 255
198 223 255
198 223 255
198 223 255
198 223 255
198 223 255
198 223 255
198 223 255
198 223 255
198 223 255
198 223 255
198 223 255
198 223 255
198 223 255
198 223 255
198 223 255
198 223 255
198 223 255
198 223 255
198 223 255
198 223 255
198 223 255
198 223 255
198 223 255
198 223 255
198 223 255
198 223 255
198 223 255
198 223 255
198 223 255
198 223 255
198 223 255
198 223 255
198 223 255
198 223 255
198 223 255
198 223 255
198 223 255
199 223 255
199 223 255
199 223 255
199 223 255
199 223 255
199 223 255
199 223 255
199 223 255
199 223 255
199 223 255
199 223 255
199 223 255
199 223 255
199 223 255
199 223 255
199 224 255
199 224 255
200 224 255
200 224 255
200 224 255
200 224 255
200 224 255
200 224 255
200 224 255
200 224 255
200 224 255
200 224 255
200 224 255
200 224 255
200 224 255
200 224 255
201 224 255
201 224 255
201 224 255
201 224 255
201 224 255
201 224 255
201 224 255
201 224 255
201 225 255
201 225 255
201 225 255
201 225 255
202 225 255
202 225 255
202 225 255
202 225 255
202 225 255
202 225 255
202 225 255
202 225 255
202 225 255
202 225 255
202 225 255
202 225 255
203 225 255
203 225 255
203 225 255
203 225 255
203 225 255
203 225 255
203 225 255
203 226 255
203 226 255
203 226 255
203 226 255
203 226 255
204 226 255
204 226 255
204 226 255
204 226 255
204 226 255
204 226 255
204 226 255
204 226 255
204 226 255
204 226 255
204 226 255
204 226 255
204 226 255
205 226 255
205 226 255
205 226 255
205 226 255
205 226 255
205 227 255
205 227 255
205 227 255
205 227 255
205 227 255
205 227 255
205 227 255
205 227 255
206 227 255
206 227 255
206 227 255
206 227 255
206 227 255
206 227 255
206 227 255
206 227 255
206 227 255
206 227 255
206 227 255
206 227 255
206 227 255
206 227 255
206 227 255
207 227 255
207 227 255
207 227 255
207 227 255
207 228 255
207 228 255
207 228 255
207 228 255
207 228 255
207 228 255
207 228 255
207 228 255
207 228 255
207 228 255
207 228 255
208 228 255
208 228 255
208 228 255
208 228 255
208 228 255
208 228 255
208 228 255
208 228 255
208 228 255
208 228 255
208 228 255
208 228 255
208 228 255
208 228 255
208 228 255
208 228 255
208 228 255
208 228 255
208 228 255
208 228 255
208 228 255
208 228 255
208 228 255
207 228 255
207 228 255
207 228 255
207 228 255
207 228 255
207 228 255
207 228 255
207 228 255
207 228 255
207 228 255
207 228 255
207 228 255
207 227 255
207 227 255
207 227 255
206 227 255
206 227 255
206 227 255
206 227 255
206 227 255
206 227 255
206 227 255
206 227 255
206 227 255
206 227 255
206 227 255
206 227 255
206 227 255
206 227 255
205 227 255
205 227 255
205 227 255
205 227 255
205 227 255
205 227 255
205 227 255
205 227 255
205 227 255
205 226 255
205 226 255
205 226 255
205 226 255
205 226 255
204 226 255
204 226 255
204 226 255
204 226 255
204 226 255
204 226 255
204 226 255
204 226 255
204 226 255
204 226 255
204 226 255
204 226 255
204 226 255
203 226 255
203 226 255
203 226 255
203 226 255
203 226 255
203 225 255
203 225 255
203 225 255
203 225 255
203 225 255
203 225 255
203 225 255
202 225 255
202 225 255
202 225 255
202 225 255
202 225 255
202 225 255
202 225 255
202 225 255
202 225 255
202 225 255
202 225 255
202 225 255
201 225 255
201 225 255
201 225 255
201 225 255
201 224 255
201 224 255
201 224 255
201 224 255
201 224 255
201 224 255
201 224 255
201 224 255
201 224 255
200 224 255
200 224 255
200 224 255
200 224 255
200 224 255
200 224 255
200 224 255
200 224 255
200 224 255
200 224 255
200 224 255
200 224 255
200 224 255
200 224 255
199 224 255
199 224 255
199 223 255
199 223 255
199 223 255
199 223 255
199 223 255
199 223 255
199 223 255
199 223 255
199 223 255
199 223 255
199 223 255
199 223 255
199 223 255
199 223 255
199 223 255
198 223 255
198 223 255
198 223 255
198 223 255
198 223 255
198 223 255
198 223 255
198 223 255
198 223 255
198 223 255
198 223 255
198 223 255
198 223 255
198 223 255
198 223 255
198 223 255
198 223 255
198 223 255
198 223 255
198 223 255
198 223 255
198 223 255
198 223 255
198 223 255
198 223 255
198 223 255
198 223 255
198 223 255
198 223 255
198 223 255
198 223 255
198 223 255
198 223 255
198 223 255
198 223 255
198 223 255
198 223 255
198 223 255
198 223 255
198 223 255
198 223 255
198 223 255
198 223 255
198 223 255
198 223 255
199 223 255
199 223 255
199 223 255
199 223 255
199 223 255
199 223 255
199 223 255
199 223 255
199 223 255
199 223 255
199 223 255
199 223 255
199 223 255
199 223 255
199 223 255
199 223 255
199 224 255
199 224 255
199 224 255
200 224 255
200 224 255
200 224 255
200 224 255
200 224 255
200 224 255
200 224 255
200 224 255
200 224 255
200 224 255
200 224 255
200 224 255
200 224 255
200 224 255
201 224 255
201 224 255
201 224 255
201 224 255
201 224 255
201 224 255
201 224 255
201 224 255
201 224 255
201 225 255
201 225 255
201 225 255
202 225 255
202 225 255
202 225 255
202 225 255
202 225 255
202 225 255
202 225 255
202 225 255
202 225 255
202 225 255
202 225 255
202 225 255
203 225 255
203 225 255
203 225 255
203 225 255
203 225 255
203 225 255
203 225 255
203 226 255
203 226 255
203 226 255
203 226 255
203 226 255
203 226 255
204 226 255
204 226 255
204 226 255
204 226 255
204 226 255
204 226 255
204 226 255
204 226 255
204 226 255
204 226 255
204 226 255
204 226 255
205 226 255
205 226 255
205 226 255
205 226 255
205 226 255
205 227 255
205 227 255
205 227 255
205 227 255
205 227 255
205 227 255
205 227 255
205 227 255
205 227 255
206 227 255
206 227 255
206 227 255
206 227 255
206 227 255
206 227 255
206 227 255
206 227 255
206 227 255
206 227 255
206 227 255
206 227 255
206 227 255
206 227 255
207 227 255
207 227 255
207 227 255
207 227 255
207 228 255
207 228 255
207 228 255
207 228 255
207 228 255
207 228 255
207 228 255
207 228 255
207 228 255
207 228 255
207 228 255
208 228 255
208 228 255
208 228 255
208 228 255
208 228 255
208 228 255
208 228 255
208 228 255
208 228 255
208 228 255
208 228 255
208 228 255
208 228 255
208 228 255
208 228 255
208 228 255
208 228 255
208 228 255
208 228 255
208 228 255
208 228 255
208 228 255
208 228 255
208 228 255
208 228 255
208 228 255
208 228 255
208 228 255
208 228 255
207 228 255
207 228 255
207 228 255
207 228 255
207 228 255
207 228 255
207 228 255
207 228 255
207 228 255
207 228 255
207 228 255
207 228 255
207 227 255
207 227 255
207 227 255
206 227 255
206 227 255
206 227 255
206 227 255
206 227 255
206 227 255
206 227 255
206 227 255
206 227 255
206 227 255
206 227 255
206 227 255
206 227 255
206 227 255
205 227 255
205 227 255
205 227 255
205 227 255
205 227 255
205 227 255
205 227 255
205 227 255
205 226 255
205 226 255
205 226 255
205 226 255
205 226 255
205 226 255
204 226 255
204 226 255
204 226 255
204 226 255
204 226 255
204 226 255
204 226 255
204 226 255
204 226 255
204 226 255
204 226 255
204 226 255
203 226 255
203 226 255
203 226 255
203 226 255
203 226 255
203 226 255
203 225 255
203 225 255
203 225 255
203 225 255
203 225 255
203 225 255
202 225 255
202 225 255
202 225 255
202 225 255
202 225 255
202 225 255
202 225 255
202 225 255
202 225 255
202 225 255
202 225 255
202 225 255
202 225 255
201 225 255
201 225 255
201 225 255
201 224 255
201 224 255
201 224 255
201 224 255
201 224 255
201 224 255
201 224 255
201 224 255
201 224 255
201 224 255
200 224 255
200 224 255
200 224 255
200 224 255
200 224 255
200 224 255
200 224 255
200 224 255
200 224 255
200 224 255
200 224 255
200 224 255
200 224 255
200 224 255
199 224 255
199 224 255
199 224 255
199 223 255
199 223 255
199 223 255
199 223 255
199 223 255
199 223 255
199 223 255
199 223 255
199 223 255
199 223 255
199 223 255
199 223 255
199 223 255
199 223 255
199 223 255
199 223 255
199 223 255
199 223 255
199 223 255
198 223 255
198 223 255
198 223 255
198 223 255
198 223 255
198 223 255
198 223 255
198 223 255
198 223 255
198 223 255
198 223 255
198 223 255
198 223 255
198 223 255
198 223 255
198 223 255
198 223 255
198 223 255
198 223 255
198 223 255
198 223 255
198 223 255
198 223 255
198 223 255
198 223 255
198 223 255
198 223 255
198 223 255
198 223 255
198 223 255
198 223 255
199 223 255
199 223 255
199 223 255
199 223 255
199 223 255
199 223 255
199 223 255
199 223 255
199 223 255
199 223 255
199 223 255
199 223 255
199 223 255
199 223 255
199 223 255
199 223 255
199 223 255
199 223 255
199 224 255
199 224 255
199 224 255
200 224 255
200 224 255
200 224 255
200 224 255
200 224 255
200 224 255
200 224 255
200 224 255
200 224 255
200 224 255
200 224 255
200 224 255
200 224 255
200 224 255
201 224 255
201 224 255
201 224 255
201 224 255
201 224 255
201 224 255
201 224 255
201 224 255
201 224 255
201 225 255
201 225 255
201 225 255
201 225 255
202 225 255
202 225 255
202 225 255
202 225 255
202 225 255
202 225 255
202 225 255
202 225 255
202 225 255
202 225 255
202 225 255
202 225 255
203 225 255
203 225 255
203 225 255
203 225 255
203 225 255
203 225 255
203 225 255
203 226 255
203 226 255
203 226 255
203 226 255
203 226 255
203 226 255
204 226 255
204 226 255
204 226 255
204 226 255
204 226 255
204 226 255
204 226 255
204 226 255
204 226 255
204 226 255
204 226 255
204 226 255
205 226 255
205 226 255
205 226 255
205 226 255
205 226 255
205 226 255
205 227 255
205 227 255
205 227 255
205 227 255
205 227 255
205 227 255
205 227 255
205 227 255
206 227 255
206 227 255
206 227 255
206 227 255
206 227 255
206 227 255
206 227 255
206 227 255
206 227 255
206 227 255
206 227 255
206 227 255
206 227 255
206 227 255
207 227 255
207 227 255
207 227 255
207 227 255
207 228 255
207 228 255
207 228 255
207 228 255
207 228 255
207 228 255
207 228 255
207 228 255
207 228 255
207 228 255
207 228 255
208 228 255
208 228 255
208 228 255
208 228 255
208 228 255
208 228 255
208 228 255
208 228 255
208 228 255
208 228 255
208 228 255
208 228 255
208 228 255
208 228 255
208 228 255
208 228 255
209 229 255
209 228 255
208 228 255
208 228 255
208 228 255
208 228 255
208 228 255
208 228 255
208 228 255
208 228 255
208 228 255
208 228 255
208 228 255
208 228 255
208 228 255
208 228 255
208 228 255
208 228 255
208 228 255
207 228 255
207 228 255
207 228 255
207 228 255
207 228 255
207 228 255
207 228 255
207 228 255
207 228 255
207 228 255
207 228 255
207 228 255
207 227 255
207 227 255
207 227 255
206 227 255
206 227 255
206 227 255
206 227 255
206 227 255
206 227 255
206 227 255
206 227 255
206 227 255
206 227 255
206 227 255
206 227 255
206 227 255
206 227 255
205 227 255
205 227 255
205 227 255
205 227 255
205 227 255
205 227 255
205 227 255
205 227 255
205 226 255
205 226 255
205 226 255
205 226 255
205 226 255
204 226 255
204 226 255
204 226 255
204 226 255
204 226 255
204 226 255
204 226 255
204 226 255
204 226 255
204 226 255
204 226 255
204 226 255
204 226 255
203 226 255
203 226 255
203 226 255
203 226 255
203 226 255
203 225 255
203 225 255
203 225 255
203 225 255
203 225 255
203 225 255
203 225 255
202 225 255
202 225 255
202 225 255
202 225 255
202 225 255
202 225 255
202 225 255
202 225 255
202 225 255
202 225 255
202 225 255
202 225 255
202 225 255
201 225 255
201 225 255
201 225 255
201 224 255
201 224 255
201 224 255
201 224 255
201 224 255
201 224 255
201 224 255
201 224 255
201 224 255
201 224 255
200 224 255
200 224 255
200 224 255
200 224 255
200 224 255
200 224 255
200 224 255
200 224 255
200 224 255
200 224 255
200 224 255
200 224 255
200 224 255
200 224 255
200 224 255
199 224 255
199 224 255
199 224 255
199 223 255
199 223 255
199 223 255
199 223 255
199 223 255
199 223 255
199 223 255
199 223 255
199 223 255
199 223 255
199 223 255
199 223 255
199 223 255
199 223 255
199 223 255
199 223 255
199 223 255
199 223 255
199 223 255
199 223 255
199 223 255
199 223 255
199 223 255
199 223 255
199 223 255
199 223 255
199 223 255
199 223 255
199 223 255
199 223 255
199 223 255
199 223 255
199 223 255
199 223 255
199 223 255
199 223 255
199 223 255
199 223 255
199 223 255
199 223 255
199 223 255
199 223 255
199 223 255
199 223 255
199 223 255
199 223 255
199 223 255
199 223 255
199 223 255
199 223 255
199 223 255
199 223 255
199 223 255
199 223 255
199 223 255
199 223 255
199 223 255
199 223 255
199 223 255
199 223 255
199 224 255
199 224 255
200 224 255
200 224 255
200 224 255
200 224 255
200 224 255
200 224 255
200 224 255
200 224 255
200 224 255
200 224 255
200 224 255
200 224 255
200 224 255
200 224 255
200 224 255
200 224 255
201 224 255
201 224 255
201 224 255
201 224 255
201 224 255
201 224 255
201 224 255
201 224 255
201 224 255
201 225 255
201 225 255
201 225 255
201 225 255
201 225 255
202 225 255
202 225 255
202 225 255
202 225 255
202 225 255
202 225 255
202 225 255
202 225 255
202 225 255
202 225 255
202 225 255
202 225 255
203 225 255
203 225 255
203 225 255
203 225 255
203 225 255
203 225 255
203 225 255
203 226 255
203 226 255
203 226 255
203 226 255
203 226 255
204 226 255
204 226 255
204 226 255
204 226 255
204 226 255
204 226 255
204 226 255
204 226 255
204 226 255
204 226 255
204 226 255
204 226 255
204 226 255
205 226 255
205 226 255
205 226 255
205 226 255
205 226 255
205 227 255
205 227 255
205 227 255
205 227 255
205 227 255
205 227 255
205 227 255
205 227 255
206 227 255
206 227 255
206 227 255
206 227 255
206 227 255
206 227 255
206 227 255
206 227 255
206 227 255
206 227 255
206 227 255
206 227 255
206 227 255
206 227 255
207 227 255
207 227 255
207 227 255
207 228 255
207 228 255
207 228 255
207 228 255
207 228 255
207 228 255
207 228 255
207 228 255
207 228 255
207 228 255
207 228 255
207 228 255
208 228 255
208 228 255
208 228 255
208 228 255
208 228 255
208 228 255
208 228 255
208 228 255
208 228 255
208 228 255
208 228 255
208 228 255
208 228 255
208 228 255
208 228 255
208 228 255
208 228 255
209 228 255
209 229 255
209 229 255
209 229 255
209 229 255
209 229 255
209 228 255
208 228 255
208 228 255
208 228 255
208 228 255
208 228 255
208 228 255
208 228 255
208 228 255
208 228 255
208 228 255
208 228 255
208 228 255
208 228 255
208 228 255
208 228 255
208 228 255
208 228 255
207 228 255
207 228 255
207 228 255
207 228 255
207 228 255
207 228 255
207 228 255
207 228 255
207 228 255
207 228 255
207 228 255
207 228 255
207 227 255
207 227 255
207 227 255
206 227 255
206 227 255
206 227 255
206 227 255
206 227 255
206 227 255
206 227 255
206 227 255
206 227 255
206 227 255
206 227 255
206 227 255
206 227 255
206 227 255
205 227 255
205 227 255
205 227 255
205 227 255
205 227 255
205 227 255
205 227 255
205 227 255
205 226 255
205 226 255
205 226 255
205 226 255
205 226 255
204 226 255
204 226 255
204 226 255
204 226 255
204 226 255
204 226 255
204 226 255
204 226 255
204 226 255
204 226 255
204 226 255
204 226 255
204 226 255
203 226 255
203 226 255
203 226 255
203 226 255
203 226 255
203 225 255
203 225 255
203 225 255
203 225 255
203 225 255
203 225 255
203 225 255
202 225 255
202 225 255
202 225 255
202 225 255
202 225 255
202 225 255
202 225 255
202 225 255
202 225 255
202 225 255
202 225 255
202 225 255
202 225 255
201 225 255
201 225 255
201 225 255
201 225 255
201 224 255
201 224 255
201 224 255
201 224 255
201 224 255
201 224 255
201 224 255
201 224 255
201 224 255
201 224 255
200 224 255
200 224 255
200 224 255
200 224 255
200 224 255
200 224 255
200 224 255
200 224 255
200 224 255
200 224 255
200 224 255
200 224 255
200 224 255
200 224 255
200 224 255
199 224 255
199 224 255
199 224 255
199 224 255
199 224 255
199 223 255
199 223 255
199 223 255
199 223 255
199 223 255
199 223 255
199 223 255
199 223 255
199 223 255
199 223 255
199 223 255
199 223 255
199 223 255
199 223 255
199 223 255
199 223 255
199 223 255
199 223 255
199 223 255
199 223 255
199 223 255
199 223 255
199 223 255
199 223 255
199 223 255
199 223 255
199 223 255
199 223 255
199 223 255
199 223 255
199 223 255
199 223 255
199 223 255
199 223 255
199 223 255
199 223 255
199 223 255
199 223 255
199 223 255
199 223 255
199 223 255
199 223 255
199 223 255
199 223 255
199 223 255
199 223 255
199 223 255
199 223 255
199 223 255
199 224 255
199 224 255
199 224 255
200 224 255
200 224 255
200 224 255
200 224 255
200 224 255
200 224 255
200 224 255
200 224 255
200 224 255
200 224 255
200 224 255
200 224 255
200 224 255
200 224 255
200 224 255
200 224 255
200 224 255
201 224 255
201 224 255
201 224 255
201 224 255
201 224 255
201 224 255
201 224 255
201 224 255
201 224 255
201 224 255
201 225 255
201 225 255
201 225 255
202 225 255
202 225 255
202 225 255
202 225 255
202 225 255
202 225 255
202 225 255
202 225 255
202 225 255
202 225 255
202 225 255
202 225 255
202 225 255
203 225 255
203 225 255
203 225 255
203 225 255
203 225 255
203 225 255
203 225 255
203 226 255
203 226 255
203 226 255
203 226 255
203 226 255
204 226 255
204 226 255
204 226 255
204 226 255
204 226 255
204 226 255
204 226 255
204 226 255
204 226 255
204 226 255
204 226 255
204 226 255
204 226 255
205 226 255
205 226 255
205 226 255
205 226 255
205 226 255
205 227 255
205 227 255
205 227 255
205 227 255
205 227 255
205 227 255
205 227 255
205 227 255
206 227 255
206 227 255
206 227 255
206 227 255
206 227 255
206 227 255
206 227 255
206 227 255
206 227 255
206 227 255
206 227 255
206 227 255
206 227 255
206 227 255
207 227 255
207 227 255
207 227 255
207 228 255
207 228 255
207 228 255
207 228 255
207 228 255
207 228 255
207 228 255
207 228 255
207 228 255
207 228 255
207 228 255
207 228 255
208 228 255
208 228 255
208 228 255
208 228 255
208 228 255
208 228 255
208 228 255
208 228 255
208 228 255
208 228 255
208 228 255
208 228 255
208 228 255
208 228 255
208 228 255
208 228 255
208 228 255
209 228 255
209 229 255
209 229 255
209 229 255
209 229 255
209 229 255
209 229 255
209 229 255
209 229 255
209 229 255
209 229 255
209 229 255
209 228 255
208 228 255
208 228 255
208 228 255
208 228 255
208 228 255
208 228 255
208 228 255
208 228 255
208 228 255
208 228 255
208 228 255
208 228 255
208 228 255
208 228 255
208 228 255
208 228 255
208 228 255
207 228 255
207 228 255
207 228 255
207 228 255
207 228 255
207 228 255
207 228 255
207 228 255
207 228 255
207 228 255
207 228 255
207 228 255
207 227 255
207 227 255
207 227 255
206 227 255
206 227 255
206 227 255
206 227 255
206 227 255
206 227 255
206 227 255
206 227 255
206 227 255
206 227 255
206 227 255
206 227 255
206 227 255
206 227 255
205 227 255
205 227 255
205 227 255
205 227 255
205 227 255
205 227 255
205 227 255
205 227 255
205 226 255
205 226 255
205 226 255
205 226 255
205 226 255
204 226 255
204 226 255
204 226 255
204 226 255
204 226 255
204 226 255
204 226 255
204 226 255
204 226 255
204 226 255
204 226 255
204 226 255
203 226 255
203 226 255
203 226 255
203 226 255
203 226 255
203 226 255
203 225 255
203 225 255
203 225 255
203 225 255
203 225 255
203 225 255
203 225 255
202 225 255
202 225 255
202 225 255
202 225 255
202 225 255
202 225 255
202 225 255
202 225 255
202 225 255
202 225 255
202 225 255
202 225 255
202 225 255
201 225 255
201 225 255
201 225 255
201 225 255
201 224 255
201 224 255
201 224 255
201 224 255
201 224 255
201 224 255
201 224 255
201 224 255
201 224 255
201 224 255
200 224 255
200 224 255
200 224 255
200 224 255
200 224 255
200 224 255
200 224 255
200 224 255
200 224 255
200 224 255
200 224 255
200 224 255
200 224 255
200 224 255
200 224 255
200 224 255
200 224 255
200 224 255
199 224 255
199 224 255
199 224 255
199 224 255
199 224 255
199 223 255
199 223 255
199 223 255
199 223 255
199 223 255
199 223 255
199 223 255
199 223 255
199 223 255
199 223 255
199 223 255
199 223 255
199 223 255
199 223 255
199 223 255
199 223 255
199 223 255
199 223 255
199 223 255
199 223 255
199 223 255
199 223 255
199 223 255
199 223 255
199 223 255
199 223 255
199 223 255
199 223 255
199 223 255
199 223 255
199 223 255
199 223 255
199 223 255
199 223 255
199 223 255
199 223 255
199 224 255
199 224 255
199 224 255
199 224 255
199 224 255
200 224 255
200 224 255
200 224 255
200 224 255
200 224 255
200 224 255
200 224 255
200 224 255
200 224 255
200 224 255
200 224 255
200 224 255
200 224 255
200 224 255
200 224 255
200 224 255
200 224 255
200 224 255
201 224 255
201 224 255
201 224 255
201 224 255
201 224 255
201 224 255
201 224 255
201 224 255
201 224 255
201 224 255
201 225 255
201 225 255
201 225 255
201 225 255
202 225 255
202 225 255
202 225 255
202 225 255
202 225 255
202 225 255
202 225 255
202 225 255
202 225 255
202 225 255
202 225 255
202 225 255
202 225 255
203 225 255
203 225 255
203 225 255
203 225 255
203 225 255
203 225 255
203 225 255
203 226 255
203 226 255
203 226 255
203 226 255
203 226 255
204 226 255
204 226 255
204 226 255
204 226 255
204 226 255
204 226 255
204 226 255
204 226 255
204 226 255
204 226 255
204 226 255
204 226 255
204 226 255
205 226 255
205 226 255
205 226 255
205 226 255
205 226 255
205 227 255
205 227 255
205 227 255
205 227 255
205 227 255
205 227 255
205 227 255
205 227 255
206 227 255
206 227 255
206 227 255
206 227 255
206 227 255
206 227 255
206 227 255
206 227 255
206 227 255
206 227 255
206 227 255
206 227 255
206 227 255
206 227 255
207 227 255
207 227 255
207 227 255
207 227 255
207 228 255
207 228 255
207 228 255
207 228 255
207 228 255
207 228 255
207 228 255
207 228 255
207 228 255
207 228 255
207 228 255
208 228 255
208 228 255
208 228 255
208 228 255
208 228 255
208 228 255
208 228 255
208 228 255
208 228 255
208 228 255
208 228 255
208 228 255
208 228 255
208 228 255
208 228 255
208 228 255
208 228 255
209 228 255
209 229 255
209 229 255
209 229 255
209 229 255
209 229 255
209 229 255
209 229 255
209 229 255
209 229 255
209 229 255
209 229 255
209 229 255
209 229 255
209 229 255
209 229 255
209 229 255
209 229 255
209 228 255
209 228 255
208 228 255
208 228 255
208 228 255
208 228 255
208 228 255
208 228 255
208 228 255
208 228 255
208 228 255
208 228 255
208 228 255
208 228 255
208 228 255
208 228 255
208 228 255
208 228 255
207 228 255
207 228 255
207 228 255
207 228 255
207 228 255
207 228 255
207 228 255
207 228 255
207 228 255
207 228 255
207 228 255
207 228 255
207 227 255
207 227 255
207 227 255
206 227 255
206 227 255
206 227 255
206 227 255
206 227 255
206 227 255
206 227 255
206 227 255
206 227 255
206 227 255
206 227 255
206 227 255
206 227 255
206 227 255
205 227 255
205 227 255
205 227 255
205 227 255
205 227 255
205 227 255
205 227 255
205 227 255
205 226 255
205 226 255
205 226 255
205 226 255
205 226 255
204 226 255
204 226 255
204 226 255
204 226 255
204 226 255
204 226 255
204 226 255
204 226 255
204 226 255
204 226 255
204 226 255
204 226 255
204 226 255
203 226 255
203 226 255
203 226 255
203 226 255
203 226 255
203 225 255
203 225 255
203 225 255
203 225 255
203 225 255
203 225 255
203 225 255
202 225 255
202 225 255
202 225 255
202 225 255
202 225 255
202 225 255
202 225 255
202 225 255
202 225 255
202 225 255
202 225 255
202 225 255
202 225 255
201 225 255
201 225 255
201 225 255
201 225 255
201 224 255
201 224 255
201 224 255
201 224 255
201 224 255
201 224 255
201 224 255
201 224 255
201 224 255
201 224 255
201 224 255
200 224 255
200 224 255
200 224 255
200 224 255
200 224 255
200 224 255
200 224 255
200 224 255
200 224 255
200 224 255
200 224 255
200 224 255
200 224 255
200 224 255
200 224 255
200 224 255
200 224 255
200 224 255
200 224 255
200 224 255
200 224 255
200 224 255
199 224 255
199 224 255
199 224 255
199 224 255
199 224 255
199 224 255
199 223 255
199 223 255
199 223 255
199 223 255
199 223 255
199 223 255
199 223 255
199 223 255
199 223 255
199 223 255
199 223 255
199 223 255
199 223 255
199 223 255
199 223 255
199 223 255
199 223 255
199 223 255
199 224 255
199 224 255
199 224 255
199 224 255
199 224 255
199 224 255
200 224 255
200 224 255
200 224 255
200 224 255
200 224 255
200 224 255
200 224 255
200 224 255
200 224 255
200 224 255
200 224 255
200 224 255
200 224 255
200 224 255
200 224 255
200 224 255
200 224 255
200 224 255
200 224 255
200 224 255
200 224 255
200 224 255
201 224 255
201 224 255
201 224 255
201 224 255
201 224 255
201 224 255
201 224 255
201 224 255
201 224 255
201 224 255
201 224 255
201 225 255
201 225 255
201 225 255
201 225 255
202 225 255
202 225 255
202 225 255
202 225 255
202 225 255
202 225 255
202 225 255
202 225 255
202 225 255
202 225 255
202 225 255
202 225 255
202 225 255
203 225 255
203 225 255
203 225 255
203 225 255
203 225 255
203 225 255
203 225 255
203 226 255
203 226 255
203 226 255
203 226 255
203 226 255
203 226 255
204 226 255
204 226 255
204 226 255
204 226 255
204 226 255
204 226 255
204 226 255
204 226 255
204 226 255
204 226 255
204 226 255
204 226 255
205 226 255
205 226 255
205 226 255
205 226 255
205 226 255
205 227 255
205 227 255
205 227 255
205 227 255
205 227 255
205 227 255
205 227 255
205 227 255
206 227 255
206 227 255
206 227 255
206 227 255
206 227 255
206 227 255
206 227 255
206 227 255
206 227 255
206 227 255
206 227 255
206 227 255
206 227 255
206 227 255
207 227 255
207 227 255
207 227 255
207 228 255
207 228 255
207 228 255
207 228 255
207 228 255
207 228 255
207 228 255
207 228 255
207 228 255
207 228 255
207 228 255
207 228 255
208 228 255
208 228 255
208 228 255
208 228 255
208 228 255
208 228 255
208 228 255
208 228 255
208 228 255
208 228 255
208 228 255
208 228 255
208 228 255
208 228 255
208 228 255
208 228 255
209 228 255
209 228 255
209 229 255
209 229 255
209 229 255
209 229 255
209 229 255
209 229 255
209 229 255
209 229 255
209 229 255
209 229 255
209 229 255
209 229 255
209 229 255
209 229 255
209 229 255
209 229 255
209 229 255
209 229 255
209 229 255
209 229 255
209 229 255
209 229 255
209 229 255
209 229 255
209 228 255
208 228 255
208 228 255
208 228 255
208 228 255
208 228 255
208 228 255
208 228 255
208 228 255
208 228 255
208 228 255
208 228 255
208 228 255
208 228 255
208 228 255
208 228 255
208 228 255
207 228 255
207 228 255
207 228 255
207 228 255
207 228 255
207 228 255
207 228 255
207 228 255
207 228 255
207 228 255
207 228 255
207 228 255
207 227 255
207 227 255
207 227 255
206 227 255
206 227 255
206 227 255
206 227 255
206 227 255
206 227 255
206 227 255
206 227 255
206 227 255
206 227 255
206 227 255
206 227 255
206 227 255
206 227 255
205 227 255
205 227 255
205 227 255
205 227 255
205 227 255
205 227 255
205 227 255
205 227 255
205 226 255
205 226 255
205 226 255
205 226 255
205 226 255
204 226 255
204 226 255
204 226 255
204 226 255
204 226 255
204 226 255
204 226 255
204 226 255
204 226 255
204 226 255
204 226 255
204 226 255
204 226 255
203 226 255
203 226 255
203 226 255
203 226 255
203 226 255
203 225 255
203 225 255
203 225 255
203 225 255
203 225 255
203 225 255
203 225 255
202 225 255
202 225 255
202 225 255
202 225 255
202 225 255
202 225 255
202 225 255
202 225 255
202 225 255
202 225 255
202 225 255
202 225 255
202 225 255
202 225 255
201 225 255
201 225 255
201 225 255
201 225 255
201 224 255
201 224 255
201 224 255
201 224 255
201 224 255
201 224 255
201 224 255
201 224 255
201 224 255
201 224 255
201 224 255
200 224 255
200 224 255
200 224 255
200 224 255
200 224 255
200 224 255
200 224 255
200 224 255
200 224 255
200 224 255
200 224 255
200 224 255
200 224 255
200 224 255
200 224 255
200 224 255
200 224 255
200 224 255
200 224 255
200 224 255
200 224 255
200 224 255
200 224 255
200 224 255
200 224 255
200 224 255
200 224 255
200 224 255
200 224 255
200 224 255
200 224 255
200 224 255
200 224 255
200 224 255
200 224 255
200 224 255
200 224 255
200 224 255
200 224 255
200 224 255
200 224 255
200 224 255
200 224 255
200 224 255
200 224 255
200 224 255
200 224 255
200 224 255
200 224 255
200 224 255
200 224 255
200 224 255
200 224 255
200 224 255
200 224 255
200 224 255
200 224 255
200 224 255
200 224 255
200 224 255
200 224 255
200 224 255
200 224 255
200 224 255
200 224 255
200 224 255
201 224 255
201 224 255
201 224 255
201 224 255
201 224 255
201 224 255
201 224 255
201 224 255
201 224 255
201 224 255
201 224 255
201 225 255
201 225 255
201 225 255
201 225 255
202 225 255
202 225 255
202 225 255
202 225 255
202 225 255
202 225 255
202 225 255
202 225 255
202 225 255
202 225 255
202 225 255
202 225 255
202 225 255
202 225 255
203 225 255
203 225 255
203 225 255
203 225 255
203 225 255
203 225 255
203 225 255
203 226 255
203 226 255
203 226 255
203 226 255
203 226 255
204 226 255
204 226 255
204 226 255
204 226 255
204 226 255
204 226 255
204 226 255
204 226 255
204 226 255
204 226 255
204 226 255
204 226 255
204 226 255
205 226 255
205 226 255
205 226 255
205 226 255
205 226 255
205 227 255
205 227 255
205 227 255
205 227 255
205 227 255
205 227 255
205 227 255
205 227 255
206 227 255
206 227 255
206 227 255
206 227 255
206 227 255
206 227 255
206 227 255
206 227 255
206 227 255
206 227 255
206 227 255
206 227 255
206 227 255
206 227 255
207 227 255
207 227 255
207 227 255
207 228 255
207 228 255
207 228 255
207 228 255
207 228 255
207 228 255
207 228 255
207 228 255
207 228 255
207 228 255
207 228 255
207 228 255
208 228 255
208 228 255
208 228 255
208 228 255
208 228 255
208 228 255
208 228 255
208 228 255
208 228 255
208 228 255
208 228 255
208 228 255
208 228 255
208 228 255
208 228 255
208 228 255
209 228 255
209 229 255
209 229 255
209 229 255
209 229 255
209 229 255
209 229 255
209 229 255
209 229 255
209 229 255
209 229 255
209 229 255
209 229 255
209 229 255
209 229 255
209 229 255
209 229 255
209 229 255
209 229 255
209 229 255
209 229 255
209 229 255
209 229 255
209 229 255
209 229 255
209 229 255
209 229 255
209 229 255
209 229 255
209 229 255
209 229 255
209 229 255
209 228 255
208 228 255
208 228 255
208 228 255
208 228 255
208 228 255
208 228 255
208 228 255
208 228 255
208 228 255
208 228 255
208 228 255
208 228 255
208 228 255
208 228 255
208 228 255
208 228 255
207 228 255
207 228 255
207 228 255
207 228 255
207 228 255
207 228 255
207 228 255
207 228 255
207 228 255
207 228 255
207 228 255
207 228 255
207 227 255
207 227 255
207 227 255
206 227 255
206 227 255
206 227 255
206 227 255
206 227 255
206 227 255
206 227 255
206 227 255
206 227 255
206 227 255
206 227 255
206 227 255
206 227 255
206 227 255
205 227 255
205 227 255
205 227 255
205 227 255
205 227 255
205 227 255
205 227 255
205 227 255
205 226 255
205 226 255
205 226 255
205 226 255
205 226 255
204 226 255
204 226 255
204 226 255
204 226 255
204 226 255
204 226 255
204 226 255
204 226 255
204 226 255
204 226 255
204 226 255
204 226 255
204 226 255
203 226 255
203 226 255
203 226 255
203 226 255
203 226 255
203 225 255
203 225 255
203 225 255
203 225 255
203 225 255
203 225 255
203 225 255
202 225 255
202 225 255
202 225 255
202 225 255
202 225 255
202 225 255
202 225 255
202 225 255
202 225 255
202 225 255
202 225 255
202 225 255
202 225 255
202 225 255
201 225 255
201 225 255
201 225 255
201 225 255
201 225 255
201 224 255
201 224 255
201 224 255
201 224 255
201 224 255
201 224 255
201 224 255
201 224 255
201 224 255
201 224 255
201 224 255
201 224 255
200 224 255
200 224 255
200 224 255
200 224 255
200 224 255
200 224 255
200 224 255
200 224 255
200 224 255
200 224 255
200 224 255
200 224 255
200 224 255
200 224 255
200 224 255
200 224 255
200 224 255
200 224 255
200 224 255
200 224 255
200 224 255
200 224 255
200 224 255
200 224 255
200 224 255
200 224 255
200 224 255
200 224 255
200 224 255
200 224 255
200 224 255
200 224 255
200 224 255
200 224 255
200 224 255
200 224 255
200 224 255
200 224 255
200 224 255
200 224 255
200 224 255
200 224 255
200 224 255
200 224 255
200 224 255
200 224 255
200 224 255
200 224 255
200 224 255
200 224 255
200 224 255
200 224 255
200 224 255
200 224 255
200 224 255
200 224 255
201 224 255
201 224 255
201 224 255
201 224 255
201 224 255
201 224 255
201 224 255
201 224 255
201 224 255
201 224 255
201 224 255
201 224 255
201 225 255
201 225 255
201 225 255
201 225 255
202 225 255
202 225 255
202 225 255
202 225 255
202 225 255
202 225 255
202 225 255
202 225 255
202 225 255
202 225 255
202 225 255
202 225 255
202 225 255
202 225 255
203 225 255
203 225 255
203 225 255
203 225 255
203 225 255
203 225 255
203 225 255
203 225 255
203 226 255
203 226 255
203 226 255
203 226 255
203 226 255
204 226 255
204 226 255
204 226 255
204 226 255
204 226 255
204 226 255
204 226 255
204 226 255
204 226 255
204 226 255
204 226 255
204 226 255
204 226 255
205 226 255
205 226 255
205 226 255
205 226 255
205 226 255
205 227 255
205 227 255
205 227 255
205 227 255
205 227 255
205 227 255
205 227 255
205 227 255
206 227 255
206 227 255
206 227 255
206 227 255
206 227 255
206 227 255
206 227 255
206 227 255
206 227 255
206 227 255
206 227 255
206 227 255
206 227 255
206 227 255
207 227 255
207 227 255
207 227 255
207 228 255
207 228 255
207 228 255
207 228 255
207 228 255
207 228 255
207 228 255
207 228 255
207 228 255
207 228 255
207 228 255
207 228 255
208 228 255
208 228 255
208 228 255
208 228 255
208 228 255
208 228 255
208 228 255
208 228 255
208 228 255
208 228 255
208 228 255
208 228 255
208 228 255
208 228 255
208 228 255
208 228 255
209 228 255
209 229 255
209 229 255
209 229 255
209 229 255
209 229 255
209 229 255
209 229 255
209 229 255
209 229 255
209 229 255
209 229 255
209 229 255
209 229 255
209 229 255
209 229 255
209 229 255
209 229 255
210 229 255
210 229 255
210 229 255
209 229 255
209 229 255
209 229 255
209 229 255
209 229 255
209 229 255
209 229 255
209 229 255
209 229 255
209 229 255
209 229 255
209 229 255
209 229 255
209 229 255
209 229 255
209 229 255
209 229 255
209 228 255
209 228 255
208 228 255
208 228 255
208 228 255
208 228 255
208 228 255
208 228 255
208 228 255
208 228 255
208 228 255
208 228 255
208 228 255
208 228 255
208 228 255
208 228 255
208 228 255
208 228 255
207 228 255
207 228 255
207 228 255
207 228 255
207 228 255
207 228 255
207 228 255
207 228 255
207 228 255
207 228 255
207 228 255
207 227 255
207 227 255
207 227 255
207 227 255
206 227 255
206 227 255
206 227 255
206 227 255
206 227 255
206 227 255
206 227 255
206 227 255
206 227 255
206 227 255
206 227 255
206 227 255
206 227 255
205 227 255
205 227 255
205 227 255
205 227 255
205 227 255
205 227 255
205 227 255
205 227 255
205 226 255
205 226 255
205 226 255
205 226 255
205 226 255
204 226 255
204 226 255
204 226 255
204 226 255
204 226 255
204 226 255
204 226 255
204 226 255
204 226 255
204 226 255
204 226 255
204 226 255
204 226 255
203 226 255
203 226 255
203 226 255
203 226 255
203 226 255
203 226 255
203 225 255
203 225 255
203 225 255
203 225 255
203 225 255
203 225 255
203 225 255
202 225 255
202 225 255
202 225 255
202 225 255
202 225 255
202 225 255
202 225 255
202 225 255
202 225 255
202 225 255
202 225 255
202 225 255
202 225 255
202 225 255
202 225 255
201 225 255
201 225 255
201 225 255
201 225 255
201 224 255
201 224 255
201 224 255
201 224 255
201 224 255
201 224 255
201 224 255
201 224 255
201 224 255
201 224 255
201 224 255
201 224 255
201 224 255
201 224 255
200 224 255
200 224 255
200 224 255
200 224 255
200 224 255
200 224 255
200 224 255
200 224 255
200 224 255
200 224 255
200 224 255
200 224 255
200 224 255
200 224 255
200 224 255
200 224 255
200 224 255
200 224 255
200 224 255
200 224 255
200 224 255
200 224 255
200 224 255
200 224 255
200 224 255
200 224 255
200 224 255
200 224 255
200 224 255
200 224 255
200 224 255
200 224 255
200 224 255
200 224 255
200 224 255
200 224 255
200 224 255
200 224 255
200 224 255
200 224 255
200 224 255
200 224 255
200 224 255
201 224 255
201 224 255
201 224 255
201 224 255
201 224 255
201 224 255
201 224 255
201 224 255
201 224 255
201 224 255
201 224 255
201 224 255
201 224 255
201 224 255
201 224 255
201 225 255
201 225 255
201 225 255
201 225 255
201 225 255
202 225 255
202 225 255
202 225 255
202 225 255
202 225 255
202 225 255
202 225 255
202 225 255
202 225 255
202 225 255
202 225 255
202 225 255
202 225 255
202 225 255
203 225 255
203 225 255
203 225 255
203 225 255
203 225 255
203 225 255
203 225 255
203 225 255
203 226 255
203 226 255
203 226 255
203 226 255
203 226 255
204 226 255
204 226 255
204 226 255
204 226 255
204 226 255
204 226 255
204 226 255
204 226 255
204 226 255
204 226 255
204 226 255
204 226 255
204 226 255
205 226 255
205 226 255
205 226 255
205 226 255
205 226 255
205 227 255
205 227 255
205 227 255
205 227 255
205 227 255
205 227 255
205 227 255
205 227 255
206 227 255
206 227 255
206 227 255
206 227 255
206 227 255
206 227 255
206 227 255
206 227 255
206 227 255
206 227 255
206 227 255
206 227 255
206 227 255
206 227 255
207 227 255
207 227 255
207 227 255
207 228 255
207 228 255
207 228 255
207 228 255
207 228 255
207 228 255
207 228 255
207 228 255
207 228 255
207 228 255
207 228 255
208 228 255
208 228 255
208 228 255
208 228 255
208 228 255
208 228 255
208 228 255
208 228 255
208 228 255
208 228 255
208 228 255
208 228 255
208 228 255
208 228 255
208 228 255
208 228 255
209 228 255
209 228 255
209 229 255
209 229 255
209 229 255
209 229 255
209 229 255
209 229 255
209 229 255
209 229 255
209 229 255
209 229 255
209 229 255
209 229 255
209 229 255
209 229 255
209 229 255
209 229 255
209 229 255
210 229 255
210 229 255
210 229 255
210 229 255
210 229 255
210 229 255
210 229 255
210 229 255
210 229 255
210 229 255
209 229 255
209 229 255
209 229 255
209 229 255
209 229 255
209 229 255
209 229 255
209 229 255
209 229 255
209 229 255
209 229 255
209 229 255
209 229 255
209 229 255
209 229 255
209 229 255
209 229 255
209 228 255
208 228 255
208 228 255
208 228 255
208 228 255
208 228 255
208 228 255
208 228 255
208 228 255
208 228 255
208 228 255
208 228 255
208 228 255
208 228 255
208 228 255
208 228 255
208 228 255
207 228 255
207 228 255
207 228 255
207 228 255
207 228 255
207 228 255
207 228 255
207 228 255
207 228 255
207 228 255
207 228 255
207 227 255
207 227 255
207 227 255
206 227 255
206 227 255
206 227 255
206 227 255
206 227 255
206 227 255
206 227 255
206 227 255
206 227 255
206 227 255
206 227 255
206 227 255
206 227 255
206 227 255
205 227 255
205 227 255
205 227 255
205 227 255
205 227 255
205 227 255
205 227 255
205 227 255
205 226 255
205 226 255
205 226 255
205 226 255
205 226 255
204 226 255
204 226 255
204 226 255
204 226 255
204 226 255
204 226 255
204 226 255
204 226 255
204 226 255
204 226 255
204 226 255
204 226 255
204 226 255
203 226 255
203 226 255
203 226 255
203 226 255
203 226 255
203 226 255
203 225 255
203 225 255
203 225 255
203 225 255
203 225 255
203 225 255
203 225 255
202 225 255
202 225 255
202 225 255
202 225 255
202 225 255
202 225 255
202 225 255
202 225 255
202 225 255
202 225 255
202 225 255
202 225 255
202 225 255
202 225 255
202 225 255
202 225 255
201 225 255
201 225 255
201 225 255
201 225 255
201 225 255
201 224 255
201 224 255
201 224 255
201 224 255
201 224 255
201 224 255
201 224 255
201 224 255
201 224 255
201 224 255
201 224 255
201 224 255
201 224 255
201 224 255
201 224 255
201 224 255
201 224 255
200 224 255
200 224 255
200 224 255
200 224 255
200 224 255
200 224 255
200 224 255
200 224 255
200 224 255
200 224 255
200 224 255
200 224 255
200 224 255
200 224 255
200 224 255
200 224 255
200 224 255
200 224 255
200 224 255
200 224 255
200 224 255
200 224 255
200 224 255
200 224 255
200 224 255
200 224 255
200 224 255
201 224 255
201 224 255
201 224 255
201 224 255
201 224 255
201 224 255
201 224 255
201 224 255
201 224 255
201 224 255
201 224 255
201 224 255
201 224 255
201 224 255
201 224 255
201 224 255
201 224 255
201 224 255
201 225 255
201 225 255
201 225 255
201 225 255
201 225 255
201 225 255
202 225 255
202 225 255
202 225 255
202 225 255
202 225 255
202 225 255
202 225 255
202 225 255
202 225 255
202 225 255
202 225 255
202 225 255
202 225 255
202 225 255
202 225 255
203 225 255
203 225 255
203 225 255
203 225 255
203 225 255
203 225 255
203 225 255
203 226 255
203 226 255
203 226 255
203 226 255
203 226 255
203 226 255
204 226 255
204 226 255
204 226 255
204 226 255
204 226 255
204 226 255
204 226 255
204 226 255
204 226 255
204 226 255
204 226 255
204 226 255
204 226 255
205 226 255
205 226 255
205 226 255
205 226 255
205 226 255
205 227 255
205 227 255
205 227 255
205 227 255
205 227 255
205 227 255
205 227 255
205 227 255
206 227 255
206 227 255
206 227 255
206 227 255
206 227 255
206 227 255
206 227 255
206 227 255
206 227 255
206 227 255
206 227 255
206 227 255
206 227 255
206 227 255
207 227 255
207 227 255
207 227 255
207 228 255
207 228 255
207 228 255
207 228 255
207 228 255
207 228 255
207 228 255
207 228 255
207 228 255
207 228 255
207 228 255
208 228 255
208 228 255
208 228 255
208 228 255
208 228 255
208 228 255
208 228 255
208 228 255
208 228 255
208 228 255
208 228 255
208 228 255
208 228 255
208 228 255
208 228 255
208 228 255
209 228 255
209 229 255
209 229 255
209 229 255
209 229 255
209 229 255
209 229 255
209 229 255
209 229 255
209 229 255
209 229 255
209 229 255
209 229 255
209 229 255
209 229 255
209 229 255
209 229 255
209 229 255
210 229 255
210 229 255
210 229 255
210 229 255
210 229 255
210 229 255
210 229 255
210 229 255
210 229 255
210 229 255
210 229 255
210 229 255
210 229 255
210 229 255
210 229 255
210 229 255
210 229 255
210 229 255
209 229 255
209 229 255
209 229 255
209 229 255
209 229 255
209 229 255
209 229 255
209 229 255
209 229 255
209 229 255
209 229 255
209 229 255
209 229 255
209 229 255
209 229 255
209 229 255
209 229 255
208 228 255
208 228 255
208 228 255
208 228 255
208 228 255
208 228 255
208 228 255
208 228 255
208 228 255
208 228 255
208 228 255
208 228 255
208 228 255
208 228 255
208 228 255
208 228 255
207 228 255
207 228 255
207 228 255
207 228 255
207 228 255
207 228 255
207 228 255
207 228 255
207 228 255
207 228 255
207 228 255
207 227 255
207 227 255
207 227 255
207 227 255
206 227 255
206 227 255
206 227 255
206 227 255
206 227 255
206 227 255
206 227 255
206 227 255
206 227 255
206 227 255
206 227 255
206 227 255
206 227 255
205 227 255
205 227 255
205 227 255
205 227 255
205 227 255
205 227 255
205 227 255
205 227 255
205 226 255
205 226 255
205 226 255
205 226 255
205 226 255
204 226 255
204 226 255
204 226 255
204 226 255
204 226 255
204 226 255
204 226 255
204 226 255
204 226 255
204 226 255
204 226 255
204 226 255
204 226 255
203 226 255
203 226 255
203 226 255
203 226 255
203 226 255
203 226 255
203 225 255
203 225 255
203 225 255
203 225 255
203 225 255
203 225 255
203 225 255
203 225 255
202 225 255
202 225 255
202 225 255
202 225 255
202 225 255
202 225 255
202 225 255
202 225 255
202 225 255
202 225 255
202 225 255
202 225 255
202 225 255
202 225 255
202 225 255
202 225 255
201 225 255
201 225 255
201 225 255
201 225 255
201 225 255
201 225 255
201 225 255
201 224 255
201 224 255
201 224 255
201 224 255
201 224 255
201 224 255
201 224 255
201 224 255
201 224 255
201 224 255
201 224 255
201 224 255
201 224 255
201 224 255
201 224 255
201 224 255
201 224 255
201 224 255
201 224 255
201 224 255
201 224 255
201 224 255
201 224 255
201 224 255
201 224 255
201 224 255
201 224 255
201 224 255
201 224 255
201 224 255
201 224 255
201 224 255
201 224 255
201 224 255
201 224 255
201 224 255
201 224 255
201 224 255
201 224 255
201 224 255
201 224 255
201 224 255
201 224 255
201 224 255
201 224 255
201 224 255
201 224 255
201 224 255
201 224 255
201 224 255
201 224 255
201 225 255
201 225 255
201 225 255
201 225 255
201 225 255
201 225 255
202 225 255
202 225 255
202 225 255
202 225 255
202 225 255
202 225 255
202 225 255
202 225 255
202 225 255
202 225 255
202 225 255
202 225 255
202 225 255
202 225 255
202 225 255
202 225 255
203 225 255
203 225 255
203 225 255
203 225 255
203 225 255
203 225 255
203 225 255
203 225 255
203 226 255
203 226 255
203 226 255
203 226 255
203 226 255
203 226 255
204 226 255
204 226 255
204 226 255
204 226 255
204 226 255
204 226 255
204 226 255
204 226 255
204 226 255
204 226 255
204 226 255
204 226 255
204 226 255
205 226 255
205 226 255
205 226 255
205 226 255
205 226 255
205 227 255
205 227 255
205 227 255
205 227 255
205 227 255
205 227 255
205 227 255
205 227 255
206 227 255
206 227 255
206 227 255
206 227 255
206 227 255
206 227 255
206 227 255
206 227 255
206 227 255
206 227 255
206 227 255
206 227 255
206 227 255
207 227 255
207 227 255
207 227 255
207 227 255
207 228 255
207 228 255
207 228 255
207 228 255
207 228 255
207 228 255
207 228 255
207 228 255
207 228 255
207 228 255
207 228 255
208 228 255
208 228 255
208 228 255
208 228 255
208 228 255
208 228 255
208 228 255
208 228 255
208 228 255
208 228 255
208 228 255
208 228 255
208 228 255
208 228 255
208 228 255
208 228 255
209 228 255
209 229 255
209 229 255
209 229 255
209 229 255
209 229 255
209 229 255
209 229 255
209 229 255
209 229 255
209 229 255
209 229 255
209 229 255
209 229 255
209 229 255
209 229 255
209 229 255
210 229 255
210 229 255
210 229 255
210 229 255
210 229 255
210 229 255
210 229 255
210 229 255
210 229 255
210 229 255
210 229 255
210 229 255
210 229 255
210 229 255
210 229 255
210 229 255
210 229 255
210 229 255
210 229 255
210 229 255
210 229 255
210 229 255
210 229 255
210 229 255
210 229 255
209 229 255
209 229 255
209 229 255
209 229 255
209 229 255
209 229 255
209 229 255
209 229 255
209 229 255
209 229 255
209 229 255
209 229 255
209 229 255
209 229 255
209 229 255
209 229 255
209 228 255
209 228 255
208 228 255
208 228 255
208 228 255
208 228 255
208 228 255
208 228 255
208 228 255
208 228 255
208 228 255
208 228 255
208 228 255
208 228 255
208 228 255
208 228 255
208 228 255
207 228 255
207 228 255
207 228 255
207 228 255
207 228 255
207 228 255
207 228 255
207 228 255
207 228 255
207 228 255
207 228 255
207 227 255
207 227 255
207 227 255
207 227 255
206 227 255
206 227 255
206 227 255
206 227 255
206 227 255
206 227 255
206 227 255
206 227 255
206 227 255
206 227 255
206 227 255
206 227 255
206 227 255
206 227 255
205 227 255
205 227 255
205 227 255
205 227 255
205 227 255
205 227 255
205 227 255
205 226 255
205 226 255
205 226 255
205 226 255
205 226 255
205 226 255
204 226 255
204 226 255
204 226 255
204 226 255
204 226 255
204 226 255
204 226 255
204 226 255
204 226 255
204 226 255
204 226 255
204 226 255
204 226 255
203 226 255
203 226 255
203 226 255
203 226 255
203 226 255
203 226 255
203 225 255
203 225 255
203 225 255
203 225 255
203 225 255
203 225 255
203 225 255
203 225 255
202 225 255
202 225 255
202 225 255
202 225 255
202 225 255
202 225 255
202 225 255
202 225 255
202 225 255
202 225 255
202 225 255
202 225 255
202 225 255
202 225 255
202 225 255
202 225 255
202 225 255
202 225 255
201 225 255
201 225 255
201 225 255
201 225 255
201 225 255
201 225 255
201 225 255
201 224 255
201 224 255
201 224 255
201 224 255
201 224 255
201 224 255
201 224 255
201 224 255
201 224 255
201 224 255
201 224 255
201 224 255
201 224 255
201 224 255
201 224 255
201 224 255
201 224 255
201 224 255
201 224 255
201 224 255
201 224 255
201 224 255
201 224 255
201 224 255
201 224 255
201 224 255
201 224 255
201 224 255
201 224 255
201 224 255
201 224 255
201 224 255
201 224 255
201 224 255
201 224 255
201 224 255
201 224 255
201 224 255
201 225 255
201 225 255
201 225 255
201 225 255
201 225 255
201 225 255
201 225 255
202 225 255
202 225 255
202 225 255
202 225 255
202 225 255
202 225 255
202 225 255
202 225 255
202 225 255
202 225 255
202 225 255
202 225 255
202 225 255
202 225 255
202 225 255
202 225 255
202 225 255
202 225 255
203 225 255
203 225 255
203 225 255
203 225 255
203 225 255
203 225 255
203 225 255
203 225 255
203 226 255
203 226 255
203 226 255
203 226 255
203 226 255
203 226 255
204 226 255
204 226 255
204 226 255
204 226 255
204 226 255
204 226 255
204 226 255
204 226 255
204 226 255
204 226 255
204 226 255
204 226 255
204 226 255
205 226 255
205 226 255
205 226 255
205 226 255
205 226 255
205 226 255
205 227 255
205 227 255
205 227 255
205 227 255
205 227 255
205 227 255
205 227 255
206 227 255
206 227 255
206 227 255
206 227 255
206 227 255
206 227 255
206 227 255
206 227 255
206 227 255
206 227 255
206 227 255
206 227 255
206 227 255
206 227 255
207 227 255
207 227 255
207 227 255
207 228 255
207 228 255
207 228 255
207 228 255
207 228 255
207 228 255
207 228 255
207 228 255
207 228 255
207 228 255
207 228 255
207 228 255
208 228 255
208 228 255
208 228 255
208 228 255
208 228 255
208 228 255
208 228 255
208 228 255
208 228 255
208 228 255
208 228 255
208 228 255
208 228 255
208 228 255
208 228 255
209 228 255
209 229 255
209 229 255
209 229 255
209 229 255
209 229 255
209 229 255
209 229 255
209 229 255
209 229 255
209 229 255
209 229 255
209 229 255
209 229 255
209 229 255
209 229 255
209 229 255
209 229 255
210 229 255
210 229 255
210 229 255
210 229 255
210 229 255
210 229 255
210 229 255
210 229 255
210 229 255
210 229 255
210 229 255
210 229 255
210 229 255
210 229 255
210 230 255
210 229 255
210 229 255
210 229 255
210 229 255
210 229 255
210 229 255
210 229 255
210 229 255
210 229 255
210 229 255
210 229 255
210 229 255
210 229 255
210 229 255
210 229 255
210 229 255
210 229 255
209 229 255
209 229 255
209 229 255
209 229 255
209 229 255
209 229 255
209 229 255
209 229 255
209 229 255
209 229 255
209 229 255
209 229 255
209 229 255
209 229 255
209 229 255
209 229 255
209 228 255
208 228 255
208 228 255
208 228 255
208 228 255
208 228 255
208 228 255
208 228 255
208 228 255
208 228 255
208 228 255
208 228 255
208 228 255
208 228 255
208 228 255
208 228 255
208 228 255
207 228 255
207 228 255
207 228 255
207 228 255
207 228 255
207 228 255
207 228 255
207 228 255
207 228 255
207 228 255
207 228 255
207 227 255
207 227 255
207 227 255
206 227 255
206 227 255
206 227 255
206 227 255
206 227 255
206 227 255
206 227 255
206 227 255
206 227 255
206 227 255
206 227 255
206 227 255
206 227 255
206 227 255
205 227 255
205 227 255
205 227 255
205 227 255
205 227 255
205 227 255
205 227 255
205 227 255
205 226 255
205 226 255
205 226 255
205 226 255
205 226 255
204 226 255
204 226 255
204 226 255
204 226 255
204 226 255
204 226 255
204 226 255
204 226 255
204 226 255
204 226 255
204 226 255
204 226 255
204 226 255
204 226 255
203 226 255
203 226 255
203 226 255
203 226 255
203 226 255
203 225 255
203 225 255
203 225 255
203 225 255
203 225 255
203 225 255
203 225 255
203 225 255
203 225 255
202 225 255
202 225 255
202 225 255
202 225 255
202 225 255
202 225 255
202 225 255
202 225 255
202 225 255
202 225 255
202 225 255
202 225 255
202 225 255
202 225 255
202 225 255
202 225 255
202 225 255
202 225 255
202 225 255
202 225 255
201 225 255
201 225 255
201 225 255
201 225 255
201 225 255
201 225 255
201 225 255
201 225 255
201 225 255
201 225 255
201 225 255
201 225 255
201 225 255
201 224 255
201 224 255
201 224 255
201 224 255
201 224 255
201 224 255
201 224 255
201 224 255
201 224 255
201 224 255
201 224 255
201 224 255
201 224 255
201 224 255
201 224 255
201 225 255
201 225 255
201 225 255
201 225 255
201 225 255
201 225 255
201 225 255
201 225 255
201 225 255
201 225 255
201 225 255
202 225 255
202 225 255
202 225 255
202 225 255
202 225 255
202 225 255
202 225 255
202 225 255
202 225 255
202 225 255
202 225 255
202 225 255
202 225 255
202 225 255
202 225 255
202 225 255
202 225 255
202 225 255
202 225 255
202 225 255
202 225 255
203 225 255
203 225 255
203 225 255
203 225 255
203 225 255
203 225 255
203 225 255
203 225 255
203 226 255
203 226 255
203 226 255
203 226 255
203 226 255
203 226 255
203 226 255
204 226 255
204 226 255
204 226 255
204 226 255
204 226 255
204 226 255
204 226 255
204 226 255
204 226 255
204 226 255
204 226 255
204 226 255
204 226 255
205 226 255
205 226 255
205 226 255
205 226 255
205 226 255
205 227 255
205 227 255
205 227 255
205 227 255
205 227 255
205 227 255
205 227 255
205 227 255
206 227 255
206 227 255
206 227 255
206 227 255
206 227 255
206 227 255
206 227 255
206 227 255
206 227 255
206 227 255
206 227 255
206 227 255
206 227 255
206 227 255
207 227 255
207 227 255
207 227 255
207 228 255
207 228 255
207 228 255
207 228 255
207 228 255
207 228 255
207 228 255
207 228 255
207 228 255
207 228 255
207 228 255
208 228 255
208 228 255
208 228 255
208 228 255
208 228 255
208 228 255
208 228 255
208 228 255
208 228 255
208 228 255
208 228 255
208 228 255
208 228 255
208 228 255
208 228 255
209 228 255
209 228 255
209 229 255
209 229 255
209 229 255
209 229 255
209 229 255
209 229 255
209 229 255
209 229 255
209 229 255
209 229 255
209 229 255
209 229 255
209 229 255
209 229 255
209 229 255
209 229 255
210 229 255
210 229 255
210 229 255
210 229 255
210 229 255
210 229 255
210 229 255
210 229 255
210 229 255
210 229 255
210 229 255
210 229 255
210 229 255
210 229 255
210 229 255
210 229 255
210 229 255
210 230 255
211 230 255
211 230 255
211 230 255
210 230 255
210 229 255
210 229 255
210 229 255
210 229 255
210 229 255
210 229 255
210 229 255
210 229 255
210 229 255
210 229 255
210 229 255
210 229 255
210 229 255
210 229 255
210 229 255
210 229 255
210 229 255
210 229 255
209 229 255
209 229 255
209 229 255
209 229 255
209 229 255
209 229 255
209 229 255
209 229 255
209 229 255
209 229 255
209 229 255
209 229 255
209 229 255
209 229 255
209 229 255
209 229 255
209 228 255
208 228 255
208 228 255
208 228 255
208 228 255
208 228 255
208 228 255
208 228 255
208 228 255
208 228 255
208 228 255
208 228 255
208 228 255
208 228 255
208 228 255
208 228 255
207 228 255
207 228 255
207 228 255
207 228 255
207 228 255
207 228 255
207 228 255
207 228 255
207 228 255
207 228 255
207 228 255
207 227 255
207 227 255
207 227 255
206 227 255
206 227 255
206 227 255
206 227 255
206 227 255
206 227 255
206 227 255
206 227 255
206 227 255
206 227 255
206 227 255
206 227 255
206 227 255
206 227 255
205 227 255
205 227 255
205 227 255
205 227 255
205 227 255
205 227 255
205 227 255
205 227 255
205 226 255
205 226 255
205 226 255
205 226 255
205 226 255
204 226 255
204 226 255
204 226 255
204 226 255
204 226 255
204 226 255
204 226 255
204 226 255
204 226 255
204 226 255
204 226 255
204 226 255
204 226 255
204 226 255
203 226 255
203 226 255
203 226 255
203 226 255
203 226 255
203 226 255
203 226 255
203 225 255
203 225 255
203 225 255
203 225 255
203 225 255
203 225 255
203 225 255
203 225 255
203 225 255
202 225 255
202 225 255
202 225 255
202 225 255
202 225 255
202 225 255
202 225 255
202 225 255
202 225 255
202 225 255
202 225 255
202 225 255
202 225 255
202 225 255
202 225 255
202 225 255
202 225 255
202 225 255
202 225 255
202 225 255
202 225 255
202 225 255
202 225 255
202 225 255
202 225 255
202 225 255
202 225 255
202 225 255
201 225 255
201 225 255
201 225 255
201 225 255
201 225 255
201 225 255
201 225 255
201 225 255
201 225 255
201 225 255
201 225 255
201 225 255
201 225 255
201 225 255
201 225 255
202 225 255
202 225 255
202 225 255
202 225 255
202 225 255
202 225 255
202 225 255
202 225 255
202 225 255
202 225 255
202 225 255
202 225 255
202 225 255
202 225 255
202 225 255
202 225 255
202 225 255
202 225 255
202 225 255
202 225 255
202 225 255
202 225 255
202 225 255
202 225 255
202 225 255
202 225 255
202 225 255
203 225 255
203 225 255
203 225 255
203 225 255
203 225 255
203 225 255
203 225 255
203 225 255
203 225 255
203 226 255
203 226 255
203 226 255
203 226 255
203 226 255
203 226 255
203 226 255
204 226 255
204 226 255
204 226 255
204 226 255
204 226 255
204 226 255
204 226 255
204 226 255
204 226 255
204 226 255
204 226 255
204 226 255
204 226 255
205 226 255
205 226 255
205 226 255
205 226 255
205 226 255
205 226 255
205 227 255
205 227 255
205 227 255
205 227 255
205 227 255
205 227 255
205 227 255
205 227 255
206 227 255
206 227 255
206 227 255
206 227 255
206 227 255
206 227 255
206 227 255
206 227 255
206 227 255
206 227 255
206 227 255
206 227 255
206 227 255
207 227 255
207 227 255
207 227 255
207 227 255
207 228 255
207 228 255
207 228 255
207 228 255
207 228 255
207 228 255
207 228 255
207 228 255
207 228 255
207 228 255
207 228 255
208 228 255
208 228 255
208 228 255
208 228 255
208 228 255
208 228 255
208 228 255
208 228 255
208 228 255
208 228 255
208 228 255
208 228 255
208 228 255
208 228 255
208 228 255
209 228 255
209 228 255
209 229 255
209 229 255
209 229 255
209 229 255
209 229 255
209 229 255
209 229 255
209 229 255
209 229 255
209 229 255
209 229 255
209 229 255
209 229 255
209 229 255
209 229 255
210 229 255
210 229 255
210 229 255
210 229 255
210 229 255
210 229 255
210 229 255
210 229 255
210 229 255
210 229 255
210 229 255
210 229 255
210 229 255
210 229 255
210 229 255
210 229 255
210 229 255
210 230 255
210 230 255
210 230 255
211 230 255
211 230 255
211 230 255
211 230 255
211 230 255
211 230 255
211 230 255
211 230 255
210 230 255
210 230 255
210 229 255
210 229 255
210 229 255
210 229 255
210 229 255
210 229 255
210 229 255
210 229 255
210 229 255
210 229 255
210 229 255
210 229 255
210 229 255
210 229 255
210 229 255
210 229 255
210 229 255
210 229 255
209 229 255
209 229 255
209 229 255
209 229 255
209 229 255
209 229 255
209 229 255
209 229 255
209 229 255
209 229 255
209 229 255
209 229 255
209 229 255
209 229 255
209 229 255
209 228 255
208 228 255
208 228 255
208 228 255
208 228 255
208 228 255
208 228 255
208 228 255
208 228 255
208 228 255
208 228 255
208 228 255
208 228 255
208 228 255
208 228 255
208 228 255
208 228 255
207 228 255
207 228 255
207 228 255
207 228 255
207 228 255
207 228 255
207 228 255
207 228 255
207 228 255
207 228 255
207 227 255
207 227 255
207 227 255
207 227 255
206 227 255
206 227 255
206 227 255
206 227 255
206 227 255
206 227 255
206 227 255
206 227 255
206 227 255
206 227 255
206 227 255
206 227 255
206 227 255
205 227 255
205 227 255
205 227 255
205 227 255
205 227 255
205 227 255
205 227 255
205 227 255
205 226 255
205 226 255
205 226 255
205 226 255
205 226 255
205 226 255
204 226 255
204 226 255
204 226 255
204 226 255
204 226 255
204 226 255
204 226 255
204 226 255
204 226 255
204 226 255
204 226 255
204 226 255
204 226 255
204 226 255
203 226 255
203 226 255
203 226 255
203 226 255
203 226 255
203 226 255
203 226 255
203 225 255
203 225 255
203 225 255
203 225 255
203 225 255
203 225 255
203 225 255
203 225 255
203 225 255
203 225 255
202 225 255
202 225 255
202 225 255
202 225 255
202 225 255
202 225 255
202 225 255
202 225 255
202 225 255
202 225 255
202 225 255
202 225 255
202 225 255
202 225 255
202 225 255
202 225 255
202 225 255
202 225 255
202 225 255
202 225 255
202 225 255
202 225 255
202 225 255
202 225 255
202 225 255
202 225 255
202 225 255
202 225 255
202 225 255
202 225 255
202 225 255
202 225 255
202 225 255
202 225 255
202 225 255
202 225 255
202 225 255
202 225 255
202 225 255
202 225 255
202 225 255
202 225 255
202 225 255
202 225 255
202 225 255
202 225 255
202 225 255
202 225 255
202 225 255
202 225 255
202 225 255
202 225 255
202 225 255
202 225 255
202 225 255
202 225 255
202 225 255
202 225 255
202 225 255
202 225 255
203 225 255
203 225 255
203 225 255
203 225 255
203 225 255
203 225 255
203 225 255
203 225 255
203 225 255
203 225 255
203 226 255
203 226 255
203 226 255
203 226 255
203 226 255
203 226 255
203 226 255
204 226 255
204 226 255
204 226 255
204 226 255
204 226 255
204 226 255
204 226 255
204 226 255
204 226 255
204 226 255
204 226 255
204 226 255
204 226 255
204 226 255
205 226 255
205 226 255
205 226 255
205 226 255
205 226 255
205 226 255
205 227 255
205 227 255
205 227 255
205 227 255
205 227 255
205 227 255
205 227 255
205 227 255
206 227 255
206 227 255
206 227 255
206 227 255
206 227 255
206 227 255
206 227 255
206 227 255
206 227 255
206 227 255
206 227 255
206 227 255
206 227 255
207 227 255
207 227 255
207 227 255
207 227 255
207 228 255
207 228 255
207 228 255
207 228 255
207 228 255
207 228 255
207 228 255
207 228 255
207 228 255
207 228 255
208 228 255
208 228 255
208 228 255
208 228 255
208 228 255
208 228 255
208 228 255
208 228 255
208 228 255
208 228 255
208 228 255
208 228 255
208 228 255
208 228 255
208 228 255
208 228 255
209 228 255
209 229 255
209 229 255
209 229 255
209 229 255
209 229 255
209 229 255
209 229 255
209 229 255
209 229 255
209 229 255
209 229 255
209 229 255
209 229 255
209 229 255
209 229 255
209 229 255
210 229 255
210 229 255
210 229 255
210 229 255
210 229 255
210 229 255
210 229 255
210 229 255
210 229 255
210 229 255
210 229 255
210 229 255
210 229 255
210 229 255
210 229 255
210 229 255
210 230 255
210 230 255
210 230 255
211 230 255
211 230 255
211 230 255
211 230 255
211 230 255
211 230 255
211 230 255
211 230 255
211 230 255
211 230 255
211 230 255
211 230 255
211 230 255
211 230 255
211 230 255
211 230 255
210 230 255
210 230 255
210 229 255
210 229 255
210 229 255
210 229 255
210 229 255
210 229 255
210 229 255
210 229 255
210 229 255
210 229 255
210 229 255
210 229 255
210 229 255
210 229 255
210 229 255
210 229 255
210 229 255
209 229 255
209 229 255
209 229 255
209 229 255
209 229 255
209 229 255
209 229 255
209 229 255
209 229 255
209 229 255
209 229 255
209 229 255
209 229 255
209 229 255
209 229 255
209 229 255
209 228 255
208 228 255
208 228 255
208 228 255
208 228 255
208 228 255
208 228 255
208 228 255
208 228 255
208 228 255
208 228 255
208 228 255
208 228 255
208 228 255
208 228 255
208 228 255
207 228 255
207 228 255
207 228 255
207 228 255
207 228 255
207 228 255
207 228 255
207 228 255
207 228 255
207 228 255
207 228 255
207 227 255
207 227 255
207 227 255
206 227 255
206 227 255
206 227 255
206 227 255
206 227 255
206 227 255
206 227 255
206 227 255
206 227 255
206 227 255
206 227 255
206 227 255
206 227 255
206 227 255
205 227 255
205 227 255
205 227 255
205 227 255
205 227 255
205 227 255
205 227 255
205 227 255
205 227 255
205 226 255
205 226 255
205 226 255
205 226 255
205 226 255
204 226 255
204 226 255
204 226 255
204 226 255
204 226 255
204 226 255
204 226 255
204 226 255
204 226 255
204 226 255
204 226 255
204 226 255
204 226 255
204 226 255
204 226 255
203 226 255
203 226 255
203 226 255
203 226 255
203 226 255
203 226 255
203 226 255
203 226 255
203 225 255
203 225 255
203 225 255
203 225 255
203 225 255
203 225 255
203 225 255
203 225 255
203 225 255
203 225 255
203 225 255
202 225 255
202 225 255
202 225 255
202 225 255
202 225 255
202 225 255
202 225 255
202 225 255
202 225 255
202 225 255
202 225 255
202 225 255
202 225 255
202 225 255
202 225 255
202 225 255
202 225 255
202 225 255
202 225 255
202 225 255
202 225 255
202 225 255
202 225 255
202 225 255
202 225 255
202 225 255
202 225 255
202 225 255
202 225 255
202 225 255
202 225 255
202 225 255
202 225 255
202 225 255
202 225 255
202 225 255
202 225 255
202 225 255
202 225 255
202 225 255
202 225 255
202 225 255
202 225 255
202 225 255
202 225 255
202 225 255
203 225 255
203 225 255
203 225 255
203 225 255
203 225 255
203 225 255
203 225 255
203 225 255
203 225 255
203 225 255
203 225 255
203 225 255
203 226 255
203 226 255
203 226 255
203 226 255
203 226 255
203 226 255
203 226 255
204 226 255
204 226 255
204 226 255
204 226 255
204 226 255
204 226 255
204 226 255
204 226 255
204 226 255
204 226 255
204 226 255
204 226 255
204 226 255
204 226 255
204 226 255
205 226 255
205 226 255
205 226 255
205 226 255
205 226 255
205 226 255
205 227 255
205 227 255
205 227 255
205 227 255
205 227 255
205 227 255
205 227 255
205 227 255
206 227 255
206 227 255
206 227 255
206 227 255
206 227 255
206 227 255
206 227 255
206 227 255
206 227 255
206 227 255
206 227 255
206 227 255
206 227 255
206 227 255
207 227 255
207 227 255
207 227 255
207 228 255
207 228 255
207 228 255
207 228 255
207 228 255
207 228 255
207 228 255
207 228 255
207 228 255
207 228 255
207 228 255
208 228 255
208 228 255
208 228 255
208 228 255
208 228 255
208 228 255
208 228 255
208 228 255
208 228 255
208 228 255
208 228 255
208 228 255
208 228 255
208 228 255
208 228 255
209 228 255
209 229 255
209 229 255
209 229 255
209 229 255
209 229 255
209 229 255
209 229 255
209 229 255
209 229 255
209 229 255
209 229 255
209 229 255
209 229 255
209 229 255
209 229 255
209 229 255
210 229 255
210 229 255
210 229 255
210 229 255
210 229 255
210 229 255
210 229 255
210 229 255
210 229 255
210 229 255
210 229 255
210 229 255
210 229 255
210 229 255
210 229 255
210 229 255
210 229 255
210 230 255
210 230 255
211 230 255
211 230 255
211 230 255
211 230 255
211 230 255
211 230 255
211 230 255
211 230 255
211 230 255
211 230 255
211 230 255
211 230 255
211 230 255
211 230 255
211 230 255
211 230 255
211 230 255
211 230 255
211 230 255
211 230 255
211 230 255
211 230 255
211 230 255
211 230 255
210 230 255
210 230 255
210 229 255
210 229 255
210 229 255
210 229 255
210 229 255
210 229 255
210 229 255
210 229 255
210 229 255
210 229 255
210 229 255
210 229 255
210 229 255
210 229 255
210 229 255
210 229 255
210 229 255
209 229 255
209 229 255
209 229 255
209 229 255
209 229 255
209 229 255
209 229 255
209 229 255
209 229 255
209 229 255
209 229 255
209 229 255
209 229 255
209 229 255
209 229 255
209 228 255
208 228 255
208 228 255
208 228 255
208 228 255
208 228 255
208 228 255
208 228 255
208 228 255
208 228 255
208 228 255
208 228 255
208 228 255
208 228 255
208 228 255
208 228 255
208 228 255
207 228 255
207 228 255
207 228 255
207 228 255
207 228 255
207 228 255
207 228 255
207 228 255
207 228 255
207 228 255
207 227 255
207 227 255
207 227 255
207 227 255
206 227 255
206 227 255
206 227 255
206 227 255
206 227 255
206 227 255
206 227 255
206 227 255
206 227 255
206 227 255
206 227 255
206 227 255
206 227 255
205 227 255
205 227 255
205 227 255
205 227 255
205 227 255
205 227 255
205 227 255
205 227 255
205 227 255
205 226 255
205 226 255
205 226 255
205 226 255
205 226 255
205 226 255
204 226 255
204 226 255
204 226 255
204 226 255
204 226 255
204 226 255
204 226 255
204 226 255
204 226 255
204 226 255
204 226 255
204 226 255
204 226 255
204 226 255
204 226 255
204 226 255
203 226 255
203 226 255
203 226 255
203 226 255
203 226 255
203 226 255
203 226 255
203 226 255
203 225 255
203 225 255
203 225 255
203 225 255
203 225 255
203 225 255
203 225 255
203 225 255
203 225 255
203 225 255
203 225 255
203 225 255
203 225 255
203 225 255
203 225 255
202 225 255
202 225 255
202 225 255
202 225 255
202 225 255
202 225 255
202 225 255
202 225 255
202 225 255
202 225 255
202 225 255
202 225 255
202 225 255
202 225 255
202 225 255
202 225 255
202 225 255
202 225 255
202 225 255
202 225 255
202 225 255
202 225 255
202 225 255
202 225 255
202 225 255
202 225 255
202 225 255
202 225 255
203 225 255
203 225 255
203 225 255
203 225 255
203 225 255
203 225 255
203 225 255
203 225 255
203 225 255
203 225 255
203 225 255
203 225 255
203 225 255
203 225 255
203 225 255
203 226 255
203 226 255
203 226 255
203 226 255
203 226 255
203 226 255
203 226 255
203 226 255
204 226 255
204 226 255
204 226 255
204 226 255
204 226 255
204 226 255
204 226 255
204 226 255
204 226 255
204 226 255
204 226 255
204 226 255
204 226 255
204 226 255
204 226 255
204 226 255
205 226 255
205 226 255
205 226 255
205 226 255
205 226 255
205 226 255
205 227 255
205 227 255
205 227 255
205 227 255
205 227 255
205 227 255
205 227 255
205 227 255
206 227 255
206 227 255
206 227 255
206 227 255
206 227 255
206 227 255
206 227 255
206 227 255
206 227 255
206 227 255
206 227 255
206 227 255
206 227 255
206 227 255
207 227 255
207 227 255
207 227 255
207 228 255
207 228 255
207 228 255
207 228 255
207 228 255
207 228 255
207 228 255
207 228 255
207 228 255
207 228 255
207 228 255
208 228 255
208 228 255
208 228 255
208 228 255
208 228 255
208 228 255
208 228 255
208 228 255
208 228 255
208 228 255
208 228 255
208 228 255
208 228 255
208 228 255
208 228 255
209 228 255
209 228 255
209 229 255
209 229 255
209 229 255
209 229 255
209 229 255
209 229 255
209 229 255
209 229 255
209 229 255
209 229 255
209 229 255
209 229 255
209 229 255
209 229 255
209 229 255
210 229 255
210 229 255
210 229 255
210 229 255
210 229 255
210 229 255
210 229 255
210 229 255
210 229 255
210 229 255
210 229 255
210 229 255
210 229 255
210 229 255
210 229 255
210 229 255
210 229 255
210 230 255
210 230 255
211 230 255
211 230 255
211 230 255
211 230 255
211 230 255
211 230 255
211 230 255
211 230 255
211 230 255
211 230 255
211 230 255
211 230 255
211 230 255
211 230 255
211 230 255
211 230 255
211 230 255
211 230 255
211 230 255
211 230 255
211 230 255
211 230 255
211 230 255
211 230 255
211 230 255
211 230 255
211 230 255
211 230 255
211 230 255
211 230 255
211 230 255
211 230 255
210 230 255
210 230 255
210 229 255
210 229 255
210 229 255
210 229 255
210 229 255
210 229 255
210 229 255
210 229 255
210 229 255
210 229 255
210 229 255
210 229 255
210 229 255
210 229 255
210 229 255
210 229 255
210 229 255
209 229 255
209 229 255
209 229 255
209 229 255
209 229 255
209 229 255
209 229 255
209 229 255
209 229 255
209 229 255
209 229 255
209 229 255
209 229 255
209 229 255
209 229 255
209 228 255
208 228 255
208 228 255
208 228 255
208 228 255
208 228 255
208 228 255
208 228 255
208 228 255
208 228 255
208 228 255
208 228 255
208 228 255
208 228 255
208 228 255
208 228 255
207 228 255
207 228 255
207 228 255
207 228 255
207 228 255
207 228 255
207 228 255
207 228 255
207 228 255
207 228 255
207 228 255
207 227 255
207 227 255
207 227 255
207 227 255
206 227 255
206 227 255
206 227 255
206 227 255
206 227 255
206 227 255
206 227 255
206 227 255
206 227 255
206 227 255
206 227 255
206 227 255
206 227 255
206 227 255
205 227 255
205 227 255
205 227 255
205 227 255
205 227 255
205 227 255
205 227 255
205 227 255
205 226 255
205 226 255
205 226 255
205 226 255
205 226 255
205 226 255
204 226 255
204 226 255
204 226 255
204 226 255
204 226 255
204 226 255
204 226 255
204 226 255
204 226 255
204 226 255
204 226 255
204 226 255
204 226 255
204 226 255
204 226 255
204 226 255
203 226 255
203 226 255
203 226 255
203 226 255
203 226 255
203 226 255
203 226 255
203 226 255
203 226 255
203 226 255
203 225 255
203 225 255
203 225 255
203 225 255
203 225 255
203 225 255
203 225 255
203 225 255
203 225 255
203 225 255
203 225 255
203 225 255
203 225 255
203 225 255
203 225 255
203 225 255
203 225 255
203 225 255
203 225 255
203 225 255
203 225 255
203 225 255
203 225 255
203 225 255
203 225 255
203 225 255
203 225 255
203 225 255
203 225 255
203 225 255
203 225 255
203 225 255
203 225 255
203 225 255
203 225 255
203 225 255
203 225 255
203 225 255
203 225 255
203 225 255
203 225 255
203 225 255
203 225 255
203 225 255
203 225 255
203 226 255
203 226 255
203 226 255
203 226 255
203 226 255
203 226 255
203 226 255
203 226 255
203 226 255
203 226 255
204 226 255
204 226 255
204 226 255
204 226 255
204 226 255
204 226 255
204 226 255
204 226 255
204 226 255
204 226 255
204 226 255
204 226 255
204 226 255
204 226 255
204 226 255
204 226 255
204 226 255
205 226 255
205 226 255
205 226 255
205 226 255
205 226 255
205 226 255
205 227 255
205 227 255
205 227 255
205 227 255
205 227 255
205 227 255
205 227 255
205 227 255
206 227 255
206 227 255
206 227 255
206 227 255
206 227 255
206 227 255
206 227 255
206 227 255
206 227 255
206 227 255
206 227 255
206 227 255
206 227 255
206 227 255
207 227 255
207 227 255
207 227 255
207 227 255
207 228 255
207 228 255
207 228 255
207 228 255
207 228 255
207 228 255
207 228 255
207 228 255
207 228 255
207 228 255
207 228 255
208 228 255
208 228 255
208 228 255
208 228 255
208 228 255
208 228 255
208 228 255
208 228 255
208 228 255
208 228 255
208 228 255
208 228 255
208 228 255
208 228 255
208 228 255
209 228 255
209 229 255
209 229 255
209 229 255
209 229 255
209 229 255
209 229 255
209 229 255
209 229 255
209 229 255
209 229 255
209 229 255
209 229 255
209 229 255
209 229 255
209 229 255
210 229 255
210 229 255
210 229 255
210 229 255
210 229 255
210 229 255
210 229 255
210 229 255
210 229 255
210 229 255
210 229 255
210 229 255
210 229 255
210 229 255
210 229 255
210 229 255
210 230 255
210 230 255
210 230 255
211 230 255
211 230 255
211 230 255
211 230 255
211 230 255
211 230 255
211 230 255
211 230 255
211 230 255
211 230 255
211 230 255
211 230 255
211 230 255
211 230 255
211 230 255
211 230 255
211 230 255
211 230 255
212 230 255
211 230 255
211 230 255
211 230 255
211 230 255
211 230 255
211 230 255
211 230 255
211 230 255
211 230 255
211 230 255
211 230 255
211 230 255
211 230 255
211 230 255
211 230 255
211 230 255
211 230 255
211 230 255
211 230 255
211 230 255
211 230 255
210 230 255
210 230 255
210 229 255
210 229 255
210 229 255
210 229 255
210 229 255
210 229 255
210 229 255
210 229 255
210 229 255
210 229 255
210 229 255
210 229 255
210 229 255
210 229 255
210 229 255
210 229 255
210 229 255
209 229 255
209 229 255
209 229 255
209 229 255
209 229 255
209 229 255
209 229 255
209 229 255
209 229 255
209 229 255
209 229 255
209 229 255
209 229 255
209 229 255
209 229 255
209 228 255
208 228 255
208 228 255
208 228 255
208 228 255
208 228 255
208 228 255
208 228 255
208 228 255
208 228 255
208 228 255
208 228 255
208 228 255
208 228 255
208 228 255
208 228 255
207 228 255
207 228 255
207 228 255
207 228 255
207 228 255
207 228 255
207 228 255
207 228 255
207 228 255
207 228 255
207 228 255
207 227 255
207 227 255
207 227 255
206 227 255
206 227 255
206 227 255
206 227 255
206 227 255
206 227 255
206 227 255
206 227 255
206 227 255
206 227 255
206 227 255
206 227 255
206 227 255
206 227 255
205 227 255
205 227 255
205 227 255
205 227 255
205 227 255
205 227 255
205 227 255
205 227 255
205 227 255
205 226 255
205 226 255
205 226 255
205 226 255
205 226 255
205 226 255
204 226 255
204 226 255
204 226 255
204 226 255
204 226 255
204 226 255
204 226 255
204 226 255
204 226 255
204 226 255
204 226 255
204 226 255
204 226 255
204 226 255
204 226 255
204 226 255
204 226 255
204 226 255
204 226 255
203 226 255
203 226 255
203 226 255
203 226 255
203 226 255
203 226 255
203 226 255
203 226 255
203 226 255
203 226 255
203 226 255
203 226 255
203 226 255
203 226 255
203 225 255
203 225 255
203 225 255
203 225 255
203 225 255
203 225 255
203 225 255
203 225 255
203 225 255
203 225 255
203 225 255
203 225 255
203 225 255
203 225 255
203 225 255
203 225 255
203 225 255
203 225 255
203 225 255
203 225 255
203 225 255
203 225 255
203 225 255
203 225 255
203 225 255
203 226 255
203 226 255
203 226 255
203 226 255
203 226 255
203 226 255
203 226 255
203 226 255
203 226 255
203 226 255
203 226 255
203 226 255
203 226 255
204 226 255
204 226 255
204 226 255
204 226 255
204 226 255
204 226 255
204 226 255
204 226 255
204 226 255
204 226 255
204 226 255
204 226 255
204 226 255
204 226 255
204 226 255
204 226 255
204 226 255
204 226 255
205 226 255
205 226 255
205 226 255
205 226 255
205 226 255
205 226 255
205 226 255
205 227 255
205 227 255
205 227 255
205 227 255
205 227 255
205 227 255
205 227 255
205 227 255
205 227 255
206 227 255
206 227 255
206 227 255
206 227 255
206 227 255
206 227 255
206 227 255
206 227 255
206 227 255
206 227 255
206 227 255
206 227 255
206 227 255
206 227 255
207 227 255
207 227 255
207 227 255
207 228 255
207 228 255
207 228 255
207 228 255
207 228 255
207 228 255
207 228 255
207 228 255
207 228 255
207 228 255
207 228 255
208 228 255
208 228 255
208 228 255
208 228 255
208 228 255
208 228 255
208 228 255
208 228 255
208 228 255
208 228 255
208 228 255
208 228 255
208 228 255
208 228 255
208 228 255
209 228 255
209 229 255
209 229 255
209 229 255
209 229 255
209 229 255
209 229 255
209 229 255
209 229 255
209 229 255
209 229 255
209 229 255
209 229 255
209 229 255
209 229 255
209 229 255
209 229 255
210 229 255
210 229 255
210 229 255
210 229 255
210 229 255
210 229 255
210 229 255
210 229 255
210 229 255
210 229 255
210 229 255
210 229 255
210 229 255
210 229 255
210 229 255
210 229 255
210 230 255
210 230 255
211 230 255
211 230 255
211 230 255
211 230 255
211 230 255
211 230 255
211 230 255
211 230 255
211 230 255
211 230 255
211 230 255
211 230 255
211 230 255
211 230 255
211 230 255
211 230 255
211 230 255
211 230 255
211 230 255
211 230 255
211 230 255
212 230 255
212 230 255
212 230 255
212 230 255
212 230 255
212 230 255
212 230 255
211 230 255
211 230 255
211 230 255
211 230 255
211 230 255
211 230 255
211 230 255
211 230 255
211 230 255
211 230 255
211 230 255
211 230 255
211 230 255
211 230 255
211 230 255
211 230 255
211 230 255
211 230 255
211 230 255
211 230 255
210 230 255
210 230 255
210 229 255
210 229 255
210 229 255
210 229 255
210 229 255
210 229 255
210 229 255
210 229 255
210 229 255
210 229 255
210 229 255
210 229 255
210 229 255
210 229 255
210 229 255
210 229 255
209 229 255
209 229 255
209 229 255
209 229 255
209 229 255
209 229 255
209 229 255
209 229 255
209 229 255
209 229 255
209 229 255
209 229 255
209 229 255
209 229 255
209 229 255
209 229 255
209 228 255
208 228 255
208 228 255
208 228 255
208 228 255
208 228 255
208 228 255
208 228 255
208 228 255
208 228 255
208 228 255
208 228 255
208 228 255
208 228 255
208 228 255
208 228 255
207 228 255
207 228 255
207 228 255
207 228 255
207 228 255
207 228 255
207 228 255
207 228 255
207 228 255
207 228 255
207 228 255
207 227 255
207 227 255
207 227 255
206 227 255
206 227 255
206 227 255
206 227 255
206 227 255
206 227 255
206 227 255
206 227 255
206 227 255
206 227 255
206 227 255
206 227 255
206 227 255
206 227 255
205 227 255
205 227 255
205 227 255
205 227 255
205 227 255
205 227 255
205 227 255
205 227 255
205 227 255
205 227 255
205 226 255
205 226 255
205 226 255
205 226 255
205 226 255
205 226 255
204 226 255
204 226 255
204 226 255
204 226 255
204 226 255
204 226 255
204 226 255
204 226 255
204 226 255
204 226 255
204 226 255
204 226 255
204 226 255
204 226 255
204 226 255
204 226 255
204 226 255
204 226 255
204 226 255
204 226 255
204 226 255
204 226 255
204 226 255
203 226 255
203 226 255
203 226 255
203 226 255
203 226 255
203 226 255
203 226 255
203 226 255
203 226 255
203 226 255
203 226 255
203 226 255
203 226 255
203 226 255
203 226 255
203 226 255
203 226 255
203 226 255
203 226 255
203 226 255
203 226 255
203 226 255
203 226 255
203 226 255
203 226 255
203 226 255
203 226 255
203 226 255
203 226 255
203 226 255
203 226 255
203 226 255
203 226 255
203 226 255
204 226 255
204 226 255
204 226 255
204 226 255
204 226 255
204 226 255
204 226 255
204 226 255
204 226 255
204 226 255
204 226 255
204 226 255
204 226 255
204 226 255
204 226 255
204 226 255
204 226 255
204 226 255
204 226 255
204 226 255
204 226 255
204 226 255
205 226 255
205 226 255
205 226 255
205 226 255
205 226 255
205 226 255
205 226 255
205 227 255
205 227 255
205 227 255
205 227 255
205 227 255
205 227 255
205 227 255
205 227 255
205 227 255
206 227 255
206 227 255
206 227 255
206 227 255
206 227 255
206 227 255
206 227 255
206 227 255
206 227 255
206 227 255
206 227 255
206 227 255
206 227 255
206 227 255
206 227 255
207 227 255
207 227 255
207 227 255
207 227 255
207 228 255
207 228 255
207 228 255
207 228 255
207 228 255
207 228 255
207 228 255
207 228 255
207 228 255
207 228 255
208 228 255
208 228 255
208 228 255
208 228 255
208 228 255
208 228 255
208 228 255
208 228 255
208 228 255
208 228 255
208 228 255
208 228 255
208 228 255
208 228 255
208 228 255
209 228 255
209 228 255
209 229 255
209 229 255
209 229 255
209 229 255
209 229 255
209 229 255
209 229 255
209 229 255
209 229 255
209 229 255
209 229 255
209 229 255
209 229 255
209 229 255
209 229 255
210 229 255
210 229 255
210 229 255
210 229 255
210 229 255
210 229 255
210 229 255
210 229 255
210 229 255
210 229 255
210 229 255
210 229 255
210 229 255
210 229 255
210 229 255
210 229 255
210 230 255
210 230 255
211 230 255
211 230 255
211 230 255
211 230 255
211 230 255
211 230 255
211 230 255
211 230 255
211 230 255
211 230 255
211 230 255
211 230 255
211 230 255
211 230 255
211 230 255
211 230 255
211 230 255
211 230 255
211 230 255
211 230 255
212 230 255
212 230 255
212 230 255
212 230 255
212 230 255
212 230 255
212 230 255
212 230 255
212 230 255
212 230 255
212 230 255
212 230 255
212 230 255
212 230 255
212 230 255
212 230 255
211 230 255
211 230 255
211 230 255
211 230 255
211 230 255
211 230 255
211 230 255
211 230 255
211 230 255
211 230 255
211 230 255
211 230 255
211 230 255
211 230 255
211 230 255
211 230 255
211 230 255
211 230 255
211 230 255
211 230 255
210 230 255
210 230 255
210 229 255
210 229 255
210 229 255
210 229 255
210 229 255
210 229 255
210 229 255
210 229 255
210 229 255
210 229 255
210 229 255
210 229 255
210 229 255
210 229 255
210 229 255
210 229 255
209 229 255
209 229 255
209 229 255
209 229 255
209 229 255
209 229 255
209 229 255
209 229 255
209 229 255
209 229 255
209 229 255
209 229 255
209 229 255
209 229 255
209 229 255
209 228 255
208 228 255
208 228 255
208 228 255
208 228 255
208 228 255
208 228 255
208 228 255
208 228 255
208 228 255
208 228 255
208 228 255
208 228 255
208 228 255
208 228 255
208 228 255
207 228 255
207 228 255
207 228 255
207 228 255
207 228 255
207 228 255
207 228 255
207 228 255
207 228 255
207 228 255
207 228 255
207 228 255
207 227 255
207 227 255
207 227 255
206 227 255
206 227 255
206 227 255
206 227 255
206 227 255
206 227 255
206 227 255
206 227 255
206 227 255
206 227 255
206 227 255
206 227 255
206 227 255
206 227 255
206 227 255
205 227 255
205 227 255
205 227 255
205 227 255
205 227 255
205 227 255
205 227 255
205 227 255
205 227 255
205 226 255
205 226 255
205 226 255
205 226 255
205 226 255
205 226 255
205 226 255
205 226 255
204 226 255
204 226 255
204 226 255
204 226 255
204 226 255
204 226 255
204 226 255
204 226 255
204 226 255
204 226 255
204 226 255
204 226 255
204 226 255
204 226 255
204 226 255
204 226 255
204 226 255
204 226 255
204 226 255
204 226 255
204 226 255
204 226 255
204 226 255
204 226 255
204 226 255
204 226 255
204 226 255
204 226 255
204 226 255
204 226 255
204 226 255
204 226 255
204 226 255
204 226 255
204 226 255
204 226 255
204 226 255
204 226 255
204 226 255
204 226 255
204 226 255
204 226 255
204 226 255
204 226 255
204 226 255
204 226 255
204 226 255
204 226 255
204 226 255
204 226 255
204 226 255
204 226 255
204 226 255
204 226 255
204 226 255
204 226 255
204 226 255
204 226 255
204 226 255
204 226 255
204 226 255
204 226 255
204 226 255
204 226 255
204 226 255
204 226 255
204 226 255
204 226 255
205 226 255
205 226 255
205 226 255
205 226 255
205 226 255
205 226 255
205 226 255
205 226 255
205 227 255
205 227 255
205 227 255
205 227 255
205 227 255
205 227 255
205 227 255
205 227 255
205 227 255
206 227 255
206 227 255
206 227 255
206 227 255
206 227 255
206 227 255
206 227 255
206 227 255
206 227 255
206 227 255
206 227 255
206 227 255
206 227 255
206 227 255
206 227 255
207 227 255
207 227 255
207 227 255
207 227 255
207 228 255
207 228 255
207 228 255
207 228 255
207 228 255
207 228 255
207 228 255
207 228 255
207 228 255
207 228 255
208 228 255
208 228 255
208 228 255
208 228 255
208 228 255
208 228 255
208 228 255
208 228 255
208 228 255
208 228 255
208 228 255
208 228 255
208 228 255
208 228 255
208 228 255
208 228 255
209 228 255
209 229 255
209 229 255
209 229 255
209 229 255
209 229 255
209 229 255
209 229 255
209 229 255
209 229 255
209 229 255
209 229 255
209 229 255
209 229 255
209 229 255
209 229 255
210 229 255
210 229 255
210 229 255
210 229 255
210 229 255
210 229 255
210 229 255
210 229 255
210 229 255
210 229 255
210 229 255
210 229 255
210 229 255
210 229 255
210 229 255
210 229 255
210 230 255
210 230 255
211 230 255
211 230 255
211 230 255
211 230 255
211 230 255
211 230 255
211 230 255
211 230 255
211 230 255
211 230 255
211 230 255
211 230 255
211 230 255
211 230 255
211 230 255
211 230 255
211 230 255
211 230 255
211 230 255
211 230 255
212 230 255
212 230 255
212 230 255
212 230 255
212 230 255
212 230 255
212 230 255
212 230 255
212 230 255
212 230 255
212 230 255
212 230 255
212 230 255
212 230 255
212 230 255
212 230 255
212 230 255
212 230 255
212 230 255
212 230 255
212 230 255
212 230 255
212 230 255
212 230 255
211 230 255
211 230 255
211 230 255
211 230 255
211 230 255
211 230 255
211 230 255
211 230 255
211 230 255
211 230 255
211 230 255
211 230 255
211 230 255
211 230 255
211 230 255
211 230 255
211 230 255
211 230 255
211 230 255
211 230 255
211 230 255
210 230 255
210 230 255
210 229 255
210 229 255
210 229 255
210 229 255
210 229 255
210 229 255
210 229 255
210 229 255
210 229 255
210 229 255
210 229 255
210 229 255
210 229 255
210 229 255
210 229 255
209 229 255
209 229 255
209 229 255
209 229 255
209 229 255
209 229 255
209 229 255
209 229 255
209 229 255
209 229 255
209 229 255
209 229 255
209 229 255
209 229 255
209 229 255
209 228 255
208 228 255
208 228 255
208 228 255
208 228 255
208 228 255
208 228 255
208 228 255
208 228 255
208 228 255
208 228 255
208 228 255
208 228 255
208 228 255
208 228 255
208 228 255
208 228 255
207 228 255
207 228 255
207 228 255
207 228 255
207 228 255
207 228 255
207 228 255
207 228 255
207 228 255
207 228 255
207 228 255
207 227 255
207 227 255
207 227 255
206 227 255
206 227 255
206 227 255
206 227 255
206 227 255
206 227 255
206 227 255
206 227 255
206 227 255
206 227 255
206 227 255
206 227 255
206 227 255
206 227 255
206 227 255
206 227 255
205 227 255
205 227 255
205 227 255
205 227 255
205 227 255
205 227 255
205 227 255
205 227 255
205 227 255
205 227 255
205 226 255
205 226 255
205 226 255
205 226 255
205 226 255
205 226 255
205 226 255
205 226 255
204 226 255
204 226 255
204 226 255
204 226 255
204 226 255
204 226 255
204 226 255
204 226 255
204 226 255
204 226 255
204 226 255
204 226 255
204 226 255
204 226 255
204 226 255
204 226 255
204 226 255
204 226 255
204 226 255
204 226 255
204 226 255
204 226 255
204 226 255
204 226 255
204 226 255
204 226 255
204 226 255
204 226 255
204 226 255
204 226 255
204 226 255
204 226 255
204 226 255
204 226 255
204 226 255
204 226 255
204 226 255
204 226 255
204 226 255
204 226 255
204 226 255
204 226 255
204 226 255
204 226 255
204 226 255
204 226 255
204 226 255
204 226 255
204 226 255
204 226 255
204 226 255
204 226 255
204 226 255
204 226 255
204 226 255
204 226 255
205 226 255
205 226 255
205 226 255
205 226 255
205 226 255
205 226 255
205 226 255
205 226 255
205 227 255
205 227 255
205 227 255
205 227 255
205 227 255
205 227 255
205 227 255
205 227 255
205 227 255
205 227 255
206 227 255
206 227 255
206 227 255
206 227 255
206 227 255
206 227 255
206 227 255
206 227 255
206 227 255
206 227 255
206 227 255
206 227 255
206 227 255
206 227 255
206 227 255
206 227 255
207 227 255
207 227 255
207 227 255
207 227 255
207 228 255
207 228 255
207 228 255
207 228 255
207 228 255
207 228 255
207 228 255
207 228 255
207 228 255
207 228 255
208 228 255
208 228 255
208 228 255
208 228 255
208 228 255
208 228 255
208 228 255
208 228 255
208 228 255
208 228 255
208 228 255
208 228 255
208 228 255
208 228 255
208 228 255
209 228 255
209 228 255
209 229 255
209 229 255
209 229 255
209 229 255
209 229 255
209 229 255
209 229 255
209 229 255
209 229 255
209 229 255
209 229 255
209 229 255
209 229 255
209 229 255
210 229 255
210 229 255
210 229 255
210 229 255
210 229 255
210 229 255
210 229 255
210 229 255
210 229 255
210 229 255
210 229 255
210 229 255
210 229 255
210 229 255
210 229 255
210 229 255
210 230 255
210 230 255
210 230 255
211 230 255
211 230 255
211 230 255
211 230 255
211 230 255
211 230 255
211 230 255
211 230 255
211 230 255
211 230 255
211 230 255
211 230 255
211 230 255
211 230 255
211 230 255
211 230 255
211 230 255
211 230 255
211 230 255
211 230 255
212 230 255
212 230 255
212 230 255
212 230 255
212 230 255
212 230 255
212 230 255
212 230 255
212 230 255
212 230 255
212 230 255
212 230 255
212 230 255
212 230 255
212 231 255
212 231 255
212 230 255
212 230 255
212 230 255
212 230 255
212 230 255
212 230 255
212 230 255
212 230 255
212 230 255
212 230 255
212 230 255
212 230 255
212 230 255
212 230 255
212 230 255
212 230 255
212 230 255
211 230 255
211 230 255
211 230 255
211 230 255
211 230 255
211 230 255
211 230 255
211 230 255
211 230 255
211 230 255
211 230 255
211 230 255
211 230 255
211 230 255
211 230 255
211 230 255
211 230 255
211 230 255
211 230 255
211 230 255
210 230 255
210 230 255
210 229 255
210 229 255
210 229 255
210 229 255
210 229 255
210 229 255
210 229 255
210 229 255
210 229 255
210 229 255
210 229 255
210 229 255
210 229 255
210 229 255
210 229 255
209 229 255
209 229 255
209 229 255
209 229 255
209 229 255
209 229 255
209 229 255
209 229 255
209 229 255
209 229 255
209 229 255
209 229 255
209 229 255
209 229 255
209 229 255
209 228 255
208 228 255
208 228 255
208 228 255
208 228 255
208 228 255
208 228 255
208 228 255
208 228 255
208 228 255
208 228 255
208 228 255
208 228 255
208 228 255
208 228 255
208 228 255
208 228 255
207 228 255
207 228 255
207 228 255
207 228 255
207 228 255
207 228 255
207 228 255
207 228 255
207 228 255
207 228 255
207 228 255
207 227 255
207 227 255
207 227 255
206 227 255
206 227 255
206 227 255
206 227 255
206 227 255
206 227 255
206 227 255
206 227 255
206 227 255
206 227 255
206 227 255
206 227 255
206 227 255
206 227 255
206 227 255
206 227 255
205 227 255
205 227 255
205 227 255
205 227 255
205 227 255
205 227 255
205 227 255
205 227 255
205 227 255
205 227 255
205 227 255
205 227 255
205 226 255
205 226 255
205 226 255
205 226 255
205 226 255
205 226 255
205 226 255
205 226 255
205 226 255
205 226 255
204 226 255
204 226 255
204 226 255
204 226 255
204 226 255
204 226 255
204 226 255
204 226 255
204 226 255
204 226 255
204 226 255
204 226 255
204 226 255
204 226 255
204 226 255
204 226 255
204 226 255
204 226 255
204 226 255
204 226 255
204 226 255
204 226 255
204 226 255
204 226 255
204 226 255
204 226 255
204 226 255
204 226 255
204 226 255
204 226 255
204 226 255
204 226 255
204 226 255
204 226 255
204 226 255
204 226 255
204 226 255
204 226 255
204 226 255
205 226 255
205 226 255
205 226 255
205 226 255
205 226 255
205 226 255
205 226 255
205 226 255
205 226 255
205 226 255
205 226 255
205 227 255
205 227 255
205 227 255
205 227 255
205 227 255
205 227 255
205 227 255
205 227 255
205 227 255
205 227 255
205 227 255
206 227 255
206 227 255
206 227 255
206 227 255
206 227 255
206 227 255
206 227 255
206 227 255
206 227 255
206 227 255
206 227 255
206 227 255
206 227 255
206 227 255
206 227 255
206 227 255
207 227 255
207 227 255
207 227 255
207 227 255
207 228 255
207 228 255
207 228 255
207 228 255
207 228 255
207 228 255
207 228 255
207 228 255
207 228 255
207 228 255
207 228 255
208 228 255
208 228 255
208 228 255
208 228 255
208 228 255
208 228 255
208 228 255
208 228 255
208 228 255
208 228 255
208 228 255
208 228 255
208 228 255
208 228 255
208 228 255
209 228 255
209 228 255
209 229 255
209 229 255
209 229 255
209 229 255
209 229 255
209 229 255
209 229 255
209 229 255
209 229 255
209 229 255
209 229 255
209 229 255
209 229 255
209 229 255
209 229 255
210 229 255
210 229 255
210 229 255
210 229 255
210 229 255
210 229 255
210 229 255
210 229 255
210 229 255
210 229 255
210 229 255
210 229 255
210 229 255
210 229 255
210 229 255
210 229 255
210 230 255
211 230 255
211 230 255
211 230 255
211 230 255
211 230 255
211 230 255
211 230 255
211 230 255
211 230 255
211 230 255
211 230 255
211 230 255
211 230 255
211 230 255
211 230 255
211 230 255
211 230 255
211 230 255
211 230 255
211 230 255
212 230 255
212 230 255
212 230 255
212 230 255
212 230 255
212 230 255
212 230 255
212 230 255
212 230 255
212 230 255
212 230 255
212 230 255
212 230 255
212 230 255
212 230 255
212 230 255
212 231 255
212 231 255
212 231 255
212 231 255
212 231 255
212 231 255
212 231 255
212 231 255
212 231 255
212 231 255
212 231 255
212 230 255
212 230 255
212 230 255
212 230 255
212 230 255
212 230 255
212 230 255
212 230 255
212 230 255
212 230 255
212 230 255
212 230 255
212 230 255
212 230 255
212 230 255
211 230 255
211 230 255
211 230 255
211 230 255
211 230 255
211 230 255
211 230 255
211 230 255
211 230 255
211 230 255
211 230 255
211 230 255
211 230 255
211 230 255
211 230 255
211 230 255
211 230 255
211 230 255
211 230 255
211 230 255
210 230 255
210 230 255
210 229 255
210 229 255
210 229 255
210 229 255
210 229 255
210 229 255
210 229 255
210 229 255
210 229 255
210 229 255
210 229 255
210 229 255
210 229 255
210 229 255
210 229 255
210 229 255
209 229 255
209 229 255
209 229 255
209 229 255
209 229 255
209 229 255
209 229 255
209 229 255
209 229 255
209 229 255
209 229 255
209 229 255
209 229 255
209 229 255
209 228 255
208 228 255
208 228 255
208 228 255
208 228 255
208 228 255
208 228 255
208 228 255
208 228 255
208 228 255
208 228 255
208 228 255
208 228 255
208 228 255
208 228 255
208 228 255
208 228 255
207 228 255
207 228 255
207 228 255
207 228 255
207 228 255
207 228 255
207 228 255
207 228 255
207 228 255
207 228 255
207 228 255
207 227 255
207 227 255
207 227 255
207 227 255
206 227 255
206 227 255
206 227 255
206 227 255
206 227 255
206 227 255
206 227 255
206 227 255
206 227 255
206 227 255
206 227 255
206 227 255
206 227 255
206 227 255
206 227 255
206 227 255
206 227 255
205 227 255
205 227 255
205 227 255
205 227 255
205 227 255
205 227 255
205 227 255
205 227 255
205 227 255
205 227 255
205 227 255
205 227 255
205 227 255
205 227 255
205 226 255
205 226 255
205 226 255
205 226 255
205 226 255
205 226 255
205 226 255
205 226 255
205 226 255
205 226 255
205 226 255
205 226 255
205 226 255
205 226 255
205 226 255
205 226 255
205 226 255
205 226 255
204 226 255
205 226 255
204 226 255
204 226 255
204 226 255
204 226 255
204 226 255
205 226 255
205 226 255
205 226 255
205 226 255
205 226 255
205 226 255
205 226 255
205 226 255
205 226 255
205 226 255
205 226 255
205 226 255
205 226 255
205 226 255
205 226 255
205 226 255
205 226 255
205 226 255
205 226 255
205 227 255
205 227 255
205 227 255
205 227 255
205 227 255
205 227 255
205 227 255
205 227 255
205 227 255
205 227 255
205 227 255
205 227 255
205 227 255
205 227 255
206 227 255
206 227 255
206 227 255
206 227 255
206 227 255
206 227 255
206 227 255
206 227 255
206 227 255
206 227 255
206 227 255
206 227 255
206 227 255
206 227 255
206 227 255
206 227 255
206 227 255
207 227 255
207 227 255
207 227 255
207 227 255
207 228 255
207 228 255
207 228 255
207 228 255
207 228 255
207 228 255
207 228 255
207 228 255
207 228 255
207 228 255
207 228 255
208 228 255
208 228 255
208 228 255
208 228 255
208 228 255
208 228 255
208 228 255
208 228 255
208 228 255
208 228 255
208 228 255
208 228 255
208 228 255
208 228 255
208 228 255
209 228 255
209 228 255
209 229 255
209 229 255
209 229 255
209 229 255
209 229 255
209 229 255
209 229 255
209 229 255
209 229 255
209 229 255
209 229 255
209 229 255
209 229 255
209 229 255
210 229 255
210 229 255
210 229 255
210 229 255
210 229 255
210 229 255
210 229 255
210 229 255
210 229 255
210 229 255
210 229 255
210 229 255
210 229 255
210 229 255
210 229 255
210 229 255
210 230 255
210 230 255
211 230 255
211 230 255
211 230 255
211 230 255
211 230 255
211 230 255
211 230 255
211 230 255
211 230 255
211 230 255
211 230 255
211 230 255
211 230 255
211 230 255
211 230 255
211 230 255
211 230 255
211 230 255
211 230 255
211 230 255
212 230 255
212 230 255
212 230 255
212 230 255
212 230 255
212 230 255
212 230 255
212 230 255
212 230 255
212 230 255
212 230 255
212 230 255
212 230 255
212 230 255
212 230 255
212 230 255
212 231 255
212 231 255
212 231 255
212 231 255
212 231 255
212 231 255
212 231 255
213 231 255
213 231 255
213 231 255
213 231 255
213 231 255
212 231 255
212 231 255
212 231 255
212 231 255
212 231 255
212 231 255
212 231 255
212 230 255
212 230 255
212 230 255
212 230 255
212 230 255
212 230 255
212 230 255
212 230 255
212 230 255
212 230 255
212 230 255
212 230 255
212 230 255
212 230 255
212 230 255
212 230 255
211 230 255
211 230 255
211 230 255
211 230 255
211 230 255
211 230 255
211 230 255
211 230 255
211 230 255
211 230 255
211 230 255
211 230 255
211 230 255
211 230 255
211 230 255
211 230 255
211 230 255
211 230 255
211 230 255
210 230 255
210 230 255
210 229 255
210 229 255
210 229 255
210 229 255
210 229 255
210 229 255
210 229 255
210 229 255
210 229 255
210 229 255
210 229 255
210 229 255
210 229 255
210 229 255
210 229 255
210 229 255
209 229 255
209 229 255
209 229 255
209 229 255
209 229 255
209 229 255
209 229 255
209 229 255
209 229 255
209 229 255
209 229 255
209 229 255
209 229 255
209 229 255
209 229 255
209 228 255
208 228 255
208 228 255
208 228 255
208 228 255
208 228 255
208 228 255
208 228 255
208 228 255
208 228 255
208 228 255
208 228 255
208 228 255
208 228 255
208 228 255
208 228 255
207 228 255
207 228 255
207 228 255
207 228 255
207 228 255
207 228 255
207 228 255
207 228 255
207 228 255
207 228 255
207 228 255
207 228 255
207 227 255
207 227 255
207 227 255
207 227 255
206 227 255
206 227 255
206 227 255
206 227 255
206 227 255
206 227 255
206 227 255
206 227 255
206 227 255
206 227 255
206 227 255
206 227 255
206 227 255
206 227 255
206 227 255
206 227 255
206 227 255
206 227 255
206 227 255
205 227 255
205 227 255
205 227 255
205 227 255
205 227 255
205 227 255
205 227 255
205 227 255
205 227 255
205 227 255
205 227 255
205 227 255
205 227 255
205 227 255
205 227 255
205 227 255
205 227 255
205 227 255
205 226 255
205 226 255
205 226 255
205 226 255
205 226 255
205 226 255
205 226 255
205 226 255
205 226 255
205 226 255
205 226 255
205 226 255
205 226 255
205 226 255
205 226 255
205 226 255
205 226 255
205 226 255
205 226 255
205 226 255
205 227 255
205 227 255
205 227 255
205 227 255
205 227 255
205 227 255
205 227 255
205 227 255
205 227 255
205 227 255
205 227 255
205 227 255
205 227 255
205 227 255
205 227 255
205 227 255
205 227 255
205 227 255
205 227 255
205 227 255
206 227 255
206 227 255
206 227 255
206 227 255
206 227 255
206 227 255
206 227 255
206 227 255
206 227 255
206 227 255
206 227 255
206 227 255
206 227 255
206 227 255
206 227 255
206 227 255
206 227 255
206 227 255
206 227 255
207 227 255
207 227 255
207 227 255
207 227 255
207 228 255
207 228 255
207 228 255
207 228 255
207 228 255
207 228 255
207 228 255
207 228 255
207 228 255
207 228 255
207 228 255
207 228 255
208 228 255
208 228 255
208 228 255
208 228 255
208 228 255
208 228 255
208 228 255
208 228 255
208 228 255
208 228 255
208 228 255
208 228 255
208 228 255
208 228 255
208 228 255
208 228 255
209 228 255
209 229 255
209 229 255
209 229 255
209 229 255
209 229 255
209 229 255
209 229 255
209 229 255
209 229 255
209 229 255
209 229 255
209 229 255
209 229 255
209 229 255
210 229 255
210 229 255
210 229 255
210 229 255
210 229 255
210 229 255
210 229 255
210 229 255
210 229 255
210 229 255
210 229 255
210 229 255
210 229 255
210 229 255
210 229 255
210 229 255
210 230 255
210 230 255
211 230 255
211 230 255
211 230 255
211 230 255
211 230 255
211 230 255
211 230 255
211 230 255
211 230 255
211 230 255
211 230 255
211 230 255
211 230 255
211 230 255
211 230 255
211 230 255
211 230 255
211 230 255
211 230 255
212 230 255
212 230 255
212 230 255
212 230 255
212 230 255
212 230 255
212 230 255
212 230 255
212 230 255
212 230 255
212 230 255
212 230 255
212 230 255
212 230 255
212 230 255
212 230 255
212 231 255
212 231 255
212 231 255
212 231 255
212 231 255
212 231 255
212 231 255
213 231 255
213 231 255
213 231 255
213 231 255
213 231 255
213 231 255
213 231 255
213 231 255
213 231 255
213 231 255
213 231 255
213 231 255
213 231 255
213 231 255
213 231 255
212 231 255
212 231 255
212 231 255
212 231 255
212 231 255
212 231 255
212 231 255
212 230 255
212 230 255
212 230 255
212 230 255
212 230 255
212 230 255
212 230 255
212 230 255
212 230 255
212 230 255
212 230 255
212 230 255
212 230 255
212 230 255
212 230 255
212 230 255
211 230 255
211 230 255
211 230 255
211 230 255
211 230 255
211 230 255
211 230 255
211 230 255
211 230 255
211 230 255
211 230 255
211 230 255
211 230 255
211 230 255
211 230 255
211 230 255
211 230 255
211 230 255
210 230 255
210 230 255
210 230 255
210 229 255
210 229 255
210 229 255
210 229 255
210 229 255
210 229 255
210 229 255
210 229 255
210 229 255
210 229 255
210 229 255
210 229 255
210 229 255
210 229 255
210 229 255
209 229 255
209 229 255
209 229 255
209 229 255
209 229 255
209 229 255
209 229 255
209 229 255
209 229 255
209 229 255
209 229 255
209 229 255
209 229 255
209 229 255
209 229 255
209 228 255
208 228 255
208 228 255
208 228 255
208 228 255
208 228 255
208 228 255
208 228 255
208 228 255
208 228 255
208 228 255
208 228 255
208 228 255
208 228 255
208 228 255
208 228 255
208 228 255
207 228 255
207 228 255
207 228 255
207 228 255
207 228 255
207 228 255
207 228 255
207 228 255
207 228 255
207 228 255
207 228 255
207 228 255
207 227 255
207 227 255
207 227 255
207 227 255
207 227 255
206 227 255
206 227 255
206 227 255
206 227 255
206 227 255
206 227 255
206 227 255
206 227 255
206 227 255
206 227 255
206 227 255
206 227 255
206 227 255
206 227 255
206 227 255
206 227 255
206 227 255
206 227 255
206 227 255
206 227 255
206 227 255
206 227 255
205 227 255
205 227 255
205 227 255
205 227 255
205 227 255
205 227 255
205 227 255
205 227 255
205 227 255
205 227 255
205 227 255
205 227 255
205 227 255
205 227 255
205 227 255
205 227 255
205 227 255
205 227 255
205 227 255
205 227 255
205 227 255
205 227 255
205 227 255
205 227 255
205 227 255
205 227 255
205 227 255
205 227 255
205 227 255
205 227 255
205 227 255
205 227 255
205 227 255
205 227 255
205 227 255
205 227 255
205 227 255
205 227 255
205 227 255
205 227 255
205 227 255
206 227 255
206 227 255
206 227 255
206 227 255
206 227 255
206 227 255
206 227 255
206 227 255
206 227 255
206 227 255
206 227 255
206 227 255
206 227 255
206 227 255
206 227 255
206 227 255
206 227 255
206 227 255
206 227 255
206 227 255
206 227 255
206 227 255
207 227 255
207 227 255
207 227 255
207 227 255
207 228 255
207 228 255
207 228 255
207 228 255
207 228 255
207 228 255
207 228 255
207 228 255
207 228 255
207 228 255
207 228 255
207 228 255
208 228 255
208 228 255
208 228 255
208 228 255
208 228 255
208 228 255
208 228 255
208 228 255
208 228 255
208 228 255
208 228 255
208 228 255
208 228 255
208 228 255
208 228 255
208 228 255
209 228 255
209 229 255
209 229 255
209 229 255
209 229 255
209 229 255
209 229 255
209 229 255
209 229 255
209 229 255
209 229 255
209 229 255
209 229 255
209 229 255
209 229 255
209 229 255
210 229 255
210 229 255
210 229 255
210 229 255
210 229 255
210 229 255
210 229 255
210 229 255
210 229 255
210 229 255
210 229 255
210 229 255
210 229 255
210 229 255
210 229 255
210 230 255
210 230 255
211 230 255
211 230 255
211 230 255
211 230 255
211 230 255
211 230 255
211 230 255
211 230 255
211 230 255
211 230 255
211 230 255
211 230 255
211 230 255
211 230 255
211 230 255
211 230 255
211 230 255
211 230 255
211 230 255
212 230 255
212 230 255
212 230 255
212 230 255
212 230 255
212 230 255
212 230 255
212 230 255
212 230 255
212 230 255
212 230 255
212 230 255
212 230 255
212 230 255
212 230 255
212 230 255
212 231 255
212 231 255
212 231 255
212 231 255
212 231 255
212 231 255
212 231 255
213 231 255
213 231 255
213 231 255
213 231 255
213 231 255
213 231 255
213 231 255
213 231 255
213 231 255
213 231 255
213 231 255
213 231 255
213 231 255
213 231 255
213 231 255
213 231 255
213 231 255
213 231 255
213 231 255
213 231 255
213 231 255
213 231 255
213 231 255
213 231 255
213 231 255
212 231 255
212 231 255
212 231 255
212 231 255
212 231 255
212 231 255
212 231 255
212 230 255
212 230 255
212 230 255
212 230 255
212 230 255
212 230 255
212 230 255
212 230 255
212 230 255
212 230 255
212 230 255
212 230 255
212 230 255
212 230 255
212 230 255
211 230 255
211 230 255
211 230 255
211 230 255
211 230 255
211 230 255
211 230 255
211 230 255
211 230 255
211 230 255
211 230 255
211 230 255
211 230 255
211 230 255
211 230 255
211 230 255
211 230 255
211 230 255
211 230 255
210 230 255
210 230 255
210 229 255
210 229 255
210 229 255
210 229 255
210 229 255
210 229 255
210 229 255
210 229 255
210 229 255
210 229 255
210 229 255
210 229 255
210 229 255
210 229 255
210 229 255
209 229 255
209 229 255
209 229 255
209 229 255
209 229 255
209 229 255
209 229 255
209 229 255
209 229 255
209 229 255
209 229 255
209 229 255
209 229 255
209 229 255
209 229 255
209 228 255
208 228 255
208 228 255
208 228 255
208 228 255
208 228 255
208 228 255
208 228 255
208 228 255
208 228 255
208 228 255
208 228 255
208 228 255
208 228 255
208 228 255
208 228 255
208 228 255
208 228 255
207 228 255
207 228 255
207 228 255
207 228 255
207 228 255
207 228 255
207 228 255
207 228 255
207 228 255
207 228 255
207 228 255
207 228 255
207 228 255
207 227 255
207 227 255
207 227 255
207 227 255
206 227 255
206 227 255
206 227 255
206 227 255
206 227 255
206 227 255
206 227 255
206 227 255
206 227 255
206 227 255
206 227 255
206 227 255
206 227 255
206 227 255
206 227 255
206 227 255
206 227 255
206 227 255
206 227 255
206 227 255
206 227 255
206 227 255
206 227 255
206 227 255
206 227 255
206 227 255
206 227 255
206 227 255
206 227 255
206 227 255
206 227 255
205 227 255
205 227 255
205 227 255
205 227 255
205 227 255
205 227 255
205 227 255
206 227 255
205 227 255
205 227 255
205 227 255
206 227 255
206 227 255
206 227 255
206 227 255
206 227 255
206 227 255
206 227 255
206 227 255
206 227 255
206 227 255
206 227 255
206 227 255
206 227 255
206 227 255
206 227 255
206 227 255
206 227 255
206 227 255
206 227 255
206 227 255
206 227 255
206 227 255
206 227 255
206 227 255
206 227 255
206 227 255
206 227 255
206 227 255
206 227 255
206 227 255
206 227 255
206 227 255
207 227 255
207 227 255
207 227 255
207 227 255
207 228 255
207 228 255
207 228 255
207 228 255
207 228 255
207 228 255
207 228 255
207 228 255
207 228 255
207 228 255
207 228 255
207 228 255
207 228 255
208 228 255
208 228 255
208 228 255
208 228 255
208 228 255
208 228 255
208 228 255
208 228 255
208 228 255
208 228 255
208 228 255
208 228 255
208 228 255
208 228 255
208 228 255
208 228 255
209 228 255
209 228 255
209 229 255
209 229 255
209 229 255
209 229 255
209 229 255
209 229 255
209 229 255
209 229 255
209 229 255
209 229 255
209 229 255
209 229 255
209 229 255
209 229 255
209 229 255
210 229 255
210 229 255
210 229 255
210 229 255
210 229 255
210 229 255
210 229 255
210 229 255
210 229 255
210 229 255
210 229 255
210 229 255
210 229 255
210 229 255
210 229 255
210 230 255
210 230 255
211 230 255
211 230 255
211 230 255
211 230 255
211 230 255
211 230 255
211 230 255
211 230 255
211 230 255
211 230 255
211 230 255
211 230 255
211 230 255
211 230 255
211 230 255
211 230 255
211 230 255
211 230 255
211 230 255
212 230 255
212 230 255
212 230 255
212 230 255
212 230 255
212 230 255
212 230 255
212 230 255
212 230 255
212 230 255
212 230 255
212 230 255
212 230 255
212 230 255
212 230 255
212 231 255
212 231 255
212 231 255
212 231 255
212 231 255
212 231 255
212 231 255
213 231 255
213 231 255
213 231 255
213 231 255
213 231 255
213 231 255
213 231 255
213 231 255
213 231 255
213 231 255
213 231 255
213 231 255
213 231 255
213 231 255
213 231 255
213 231 255
213 231 255
213 231 255
213 231 255
213 231 255
213 231 255
213 231 255
213 231 255
213 231 255
213 231 255
213 231 255
213 231 255
213 231 255
213 231 255
213 231 255
213 231 255
213 231 255
213 231 255
213 231 255
213 231 255
212 231 255
212 231 255
212 231 255
212 231 255
212 231 255
212 231 255
212 231 255
212 230 255
212 230 255
212 230 255
212 230 255
212 230 255
212 230 255
212 230 255
212 230 255
212 230 255
212 230 255
212 230 255
212 230 255
212 230 255
212 230 255
212 230 255
211 230 255
211 230 255
211 230 255
211 230 255
211 230 255
211 230 255
211 230 255
211 230 255
211 230 255
211 230 255
211 230 255
211 230 255
211 230 255
211 230 255
211 230 255
211 230 255
211 230 255
211 230 255
211 230 255
210 230 255
210 230 255
210 229 255
210 229 255
210 229 255
210 229 255
210 229 255
210 229 255
210 229 255
210 229 255
210 229 255
210 229 255
210 229 255
210 229 255
210 229 255
210 229 255
210 229 255
209 229 255
209 229 255
209 229 255
209 229 255
209 229 255
209 229 255
209 229 255
209 229 255
209 229 255
209 229 255
209 229 255
209 229 255
209 229 255
209 229 255
209 229 255
209 228 255
208 228 255
208 228 255
208 228 255
208 228 255
208 228 255
208 228 255
208 228 255
208 228 255
208 228 255
208 228 255
208 228 255
208 228 255
208 228 255
208 228 255
208 228 255
208 228 255
207 228 255
207 228 255
207 228 255
207 228 255
207 228 255
207 228 255
207 228 255
207 228 255
207 228 255
207 228 255
207 228 255
207 228 255
207 228 255
207 228 255
207 228 255
207 227 255
207 227 255
207 227 255
207 227 255
207 227 255
206 227 255
206 227 255
206 227 255
206 227 255
206 227 255
206 227 255
206 227 255
206 227 255
206 227 255
206 227 255
206 227 255
206 227 255
206 227 255
206 227 255
206 227 255
206 227 255
206 227 255
206 227 255
206 227 255
206 227 255
206 227 255
206 227 255
206 227 255
206 227 255
206 227 255
206 227 255
206 227 255
206 227 255
206 227 255
206 227 255
206 227 255
206 227 255
206 227 255
206 227 255
206 227 255
206 227 255
206 227 255
206 227 255
206 227 255
206 227 255
206 227 255
206 227 255
206 227 255
206 227 255
206 227 255
206 227 255
206 227 255
206 227 255
206 227 255
206 227 255
206 227 255
206 227 255
206 227 255
206 227 255
206 227 255
206 227 255
206 227 255
206 227 255
206 227 255
206 227 255
207 227 255
207 227 255
207 227 255
207 227 255
207 227 255
207 228 255
207 228 255
207 228 255
207 228 255
207 228 255
207 228 255
207 228 255
207 228 255
207 228 255
207 228 255
207 228 255
207 228 255
207 228 255
207 228 255
208 228 255
208 228 255
208 228 255
208 228 255
208 228 255
208 228 255
208 228 255
208 228 255
208 228 255
208 228 255
208 228 255
208 228 255
208 228 255
208 228 255
208 228 255
208 228 255
208 228 255
209 228 255
209 229 255
209 229 255
209 229 255
209 229 255
209 229 255
209 229 255
209 229 255
209 229 255
209 229 255
209 229 255
209 229 255
209 229 255
209 229 255
209 229 255
209 229 255
210 229 255
210 229 255
210 229 255
210 229 255
210 229 255
210 229 255
210 229 255
210 229 255
210 229 255
210 229 255
210 229 255
210 229 255
210 229 255
210 229 255
210 229 255
210 230 255
210 230 255
211 230 255
211 230 255
211 230 255
211 230 255
211 230 255
211 230 255
211 230 255
211 230 255
211 230 255
211 230 255
211 230 255
211 230 255
211 230 255
211 230 255
211 230 255
211 230 255
211 230 255
211 230 255
211 230 255
212 230 255
212 230 255
212 230 255
212 230 255
212 230 255
212 230 255
212 230 255
212 230 255
212 230 255
212 230 255
212 230 255
212 230 255
212 230 255
212 230 255
212 230 255
212 231 255
212 231 255
212 231 255
212 231 255
212 231 255
212 231 255
212 231 255
213 231 255
213 231 255
213 231 255
213 231 255
213 231 255
213 231 255
213 231 255
213 231 255
213 231 255
213 231 255
213 231 255
213 231 255
213 231 255
213 231 255
213 231 255
213 231 255
213 231 255
213 231 255
213 231 255
213 231 255
213 231 255
213 231 255
213 231 255
213 231 255
213 231 255
213 231 255
213 231 255
213 231 255
213 231 255
213 231 255
213 231 255
213 231 255
213 231 255
213 231 255
213 231 255
213 231 255
213 231 255
213 231 255
213 231 255
213 231 255
213 231 255
213 231 255
213 231 255
213 231 255
213 231 255
212 231 255
212 231 255
212 231 255
212 231 255
212 231 255
212 231 255
212 231 255
212 230 255
212 230 255
212 230 255
212 230 255
212 230 255
212 230 255
212 230 255
212 230 255
212 230 255
212 230 255
212 230 255
212 230 255
212 230 255
212 230 255
211 230 255
211 230 255
211 230 255
211 230 255
211 230 255
211 230 255
211 230 255
211 230 255
211 230 255
211 230 255
211 230 255
211 230 255
211 230 255
211 230 255
211 230 255
211 230 255
211 230 255
211 230 255
211 230 255
210 230 255
210 230 255
210 229 255
210 229 255
210 229 255
210 229 255
210 229 255
210 229 255
210 229 255
210 229 255
210 229 255
210 229 255
210 229 255
210 229 255
210 229 255
210 229 255
210 229 255
210 229 255
209 229 255
209 229 255
209 229 255
209 229 255
209 229 255
209 229 255
209 229 255
209 229 255
209 229 255
209 229 255
209 229 255
209 229 255
209 229 255
209 229 255
209 229 255
209 228 255
208 228 255
208 228 255
208 228 255
208 228 255
208 228 255
208 228 255
208 228 255
208 228 255
208 228 255
208 228 255
208 228 255
208 228 255
208 228 255
208 228 255
208 228 255
208 228 255
208 228 255
207 228 255
207 228 255
207 228 255
207 228 255
207 228 255
207 228 255
207 228 255
207 228 255
207 228 255
207 228 255
207 228 255
207 228 255
207 228 255
207 228 255
207 228 255
207 228 255
207 227 255
207 227 255
207 227 255
207 227 255
207 227 255
207 227 255
207 227 255
207 227 255
206 227 255
206 227 255
206 227 255
206 227 255
206 227 255
206 227 255
206 227 255
206 227 255
206 227 255
206 227 255
206 227 255
206 227 255
206 227 255
206 227 255
206 227 255
206 227 255
206 227 255
206 227 255
206 227 255
206 227 255
206 227 255
206 227 255
206 227 255
206 227 255
206 227 255
206 227 255
206 227 255
206 227 255
206 227 255
206 227 255
206 227 255
206 227 255
206 227 255
206 227 255
206 227 255
206 227 255
206 227 255
206 227 255
206 227 255
206 227 255
206 227 255
207 227 255
207 227 255
207 227 255
207 227 255
207 227 255
207 227 255
207 228 255
207 228 255
207 228 255
207 228 255
207 228 255
207 228 255
207 228 255
207 228 255
207 228 255
207 228 255
207 228 255
207 228 255
207 228 255
207 228 255
207 228 255
207 228 255
208 228 255
208 228 255
208 228 255
208 228 255
208 228 255
208 228 255
208 228 255
208 228 255
208 228 255
208 228 255
208 228 255
208 228 255
208 228 255
208 228 255
208 228 255
208 228 255
208 228 255
208 228 255
209 228 255
209 229 255
209 229 255
209 229 255
209 229 255
209 229 255
209 229 255
209 229 255
209 229 255
209 229 255
209 229 255
209 229 255
209 229 255
209 229 255
209 229 255
209 229 255
209 229 255
210 229 255
210 229 255
210 229 255
210 229 255
210 229 255
210 229 255
210 229 255
210 229 255
210 229 255
210 229 255
210 229 255
210 229 255
210 229 255
210 229 255
210 229 255
210 230 255
210 230 255
211 230 255
211 230 255
211 230 255
211 230 255
211 230 255
211 230 255
211 230 255
211 230 255
211 230 255
211 230 255
211 230 255
211 230 255
211 230 255
211 230 255
211 230 255
211 230 255
211 230 255
211 230 255
211 230 255
212 230 255
212 230 255
212 230 255
212 230 255
212 230 255
212 230 255
212 230 255
212 230 255
212 230 255
212 230 255
212 230 255
212 230 255
212 230 255
212 230 255
212 231 255
212 231 255
212 231 255
212 231 255
212 231 255
212 231 255
212 231 255
213 231 255
213 231 255
213 231 255
213 231 255
213 231 255
213 231 255
213 231 255
213 231 255
213 231 255
213 231 255
213 231 255
213 231 255
213 231 255
213 231 255
213 231 255
213 231 255
213 231 255
213 231 255
213 231 255
213 231 255
213 231 255
213 231 255
213 231 255
213 231 255
213 231 255
214 231 255
214 231 255
214 231 255
214 231 255
214 231 255
213 231 255
213 231 255
213 231 255
213 231 255
213 231 255
213 231 255
213 231 255
213 231 255
213 231 255
213 231 255
213 231 255
213 231 255
213 231 255
213 231 255
213 231 255
213 231 255
213 231 255
213 231 255
213 231 255
213 231 255
213 231 255
213 231 255
213 231 255
213 231 255
213 231 255
212 231 255
212 231 255
212 231 255
212 231 255
212 231 255
212 231 255
212 231 255
212 230 255
212 230 255
212 230 255
212 230 255
212 230 255
212 230 255
212 230 255
212 230 255
212 230 255
212 230 255
212 230 255
212 230 255
212 230 255
212 230 255
211 230 255
211 230 255
211 230 255
211 230 255
211 230 255
211 230 255
211 230 255
211 230 255
211 230 255
211 230 255
211 230 255
211 230 255
211 230 255
211 230 255
211 230 255
210 228 254
208 223 248
200 205 229
200 203 227
201 205 229
196 194 216
190 175 196
190 177 198
195 192 214
185 160 179
190 175 196
187 169 189
197 192 214
199 203 227
200 203 227
204 214 239
207 222 248
210 229 255
210 229 255
210 229 255
210 229 255
209 229 255
209 229 255
209 229 255
209 229 255
209 229 255
209 229 255
209 229 255
209 229 255
209 229 255
209 229 255
209 229 255
209 229 255
209 229 255
209 229 255
209 229 255
209 229 255
209 228 255
208 228 255
208 228 255
208 228 255
208 228 255
208 228 255
208 228 255
208 228 255
208 228 255
208 228 255
208 228 255
208 228 255
208 228 255
208 228 255
208 228 255
208 228 255
208 228 255
208 228 255
208 228 255
208 228 255
207 228 255
207 228 255
207 228 255
207 228 255
207 228 255
207 228 255
207 228 255
207 228 255
207 228 255
207 228 255
207 228 255
207 228 255
207 228 255
207 228 255
207 228 255
207 228 255
207 228 255
207 228 255
207 228 255
207 227 255
207 227 255
207 227 255
207 227 255
207 227 255
207 227 255
207 227 255
207 227 255
207 227 255
207 227 255
207 227 255
207 227 255
199 221 253
202 224 254
161 190 241
163 192 241
165 194 242
156 186 238
171 198 243
155 185 239
165 193 242
181 206 247
176 202 245
193 215 250
207 227 255
207 227 255
207 227 255
207 227 255
207 227 255
207 227 255
207 227 255
207 227 255
207 227 255
207 227 255
207 227 255
207 227 255
207 228 255
207 228 255
207 228 255
207 228 255
207 228 255
207 228 255
207 228 255
207 228 255
207 228 255
207 228 255
207 228 255
207 228 255
207 228 255
207 228 255
207 228 255
207 228 255
207 228 255
207 228 255
207 228 255
208 228 255
208 228 255
208 228 255
208 228 255
208 228 255
208 228 255
208 228 255
208 228 255
208 228 255
208 228 255
208 228 255
208 228 255
208 228 255
208 228 255
208 228 255
208 228 255
208 228 255
208 228 255
208 228 255
209 228 255
209 229 255
209 229 255
209 229 255
209 229 255
209 229 255
209 229 255
209 229 255
209 229 255
209 229 255
209 229 255
209 229 255
209 229 255
209 229 255
209 229 255
209 229 255
209 229 255
210 229 255
210 229 255
210 229 255
210 229 255
207 227 252
192 221 237
187 218 232
182 216 227
175 213 219
160 207 204
150 202 193
164 209 208
168 209 212
153 203 198
156 205 200
168 209 212
183 217 227
172 212 215
195 223 239
196 223 241
211 230 255
211 230 255
211 230 255
211 230 255
211 230 255
211 230 255
211 230 255
211 230 255
211 230 255
211 230 255
211 230 255
211 230 255
211 230 255
211 230 255
211 230 255
211 230 255
212 230 255
212 230 255
212 230 255
212 230 255
212 230 255
212 230 255
212 230 255
212 230 255
212 230 255
212 230 255
212 230 255
212 230 255
212 230 255
212 230 255
212 231 255
212 231 255
212 231 255
212 231 255
212 231 255
212 231 255
212 231 255
213 231 255
213 231 255
213 231 255
213 231 255
213 231 255
213 231 255
213 231 255
213 231 255
213 231 255
213 231 255
213 231 255
213 231 255
213 231 255
213 231 255
213 231 255
213 231 255
213 231 255
213 231 255
213 231 255
213 231 255
213 231 255
213 231 255
213 231 255
213 231 255
213 231 255
214 231 255
214 231 255
214 231 255
214 231 255
214 231 255
214 231 255
214 231 255
214 231 255
214 231 255
214 231 255
214 231 255
214 231 255
214 231 255
214 231 255
214 231 255
214 231 255
213 231 255
213 231 255
213 231 255
213 231 255
213 231 255
213 231 255
213 231 255
213 231 255
213 231 255
213 231 255
213 231 255
213 231 255
213 231 255
213 231 255
213 231 255
213 231 255
213 231 255
213 231 255
213 231 255
213 231 255
213 231 255
213 231 255
213 231 255
213 231 255
212 231 255
212 231 255
212 231 255
212 231 255
212 231 255
212 231 255
212 230 255
212 230 255
212 230 255
212 230 255
212 230 255
212 230 255
212 230 255
212 230 255
212 230 255
212 230 255
212 230 255
212 230 255
212 230 255
212 230 255
212 230 255
211 230 255
211 230 255
211 230 255
211 230 255
210 227 252
204 211 235
194 182 203
187 162 181
181 150 168
172 122 137
162 89 102
169 87 99
162 85 97
161 84 97
164 85 97
166 86 99
163 85 97
165 86 98
163 85 98
166 86 98
165 85 98
166 86 99
164 85 98
164 85 98
167 86 98
163 85 98
165 85 98
165 97 111
174 125 141
181 154 173
189 175 196
199 205 229
208 226 252
210 229 255
210 229 255
210 229 255
209 229 255
209 229 255
209 229 255
209 229 255
209 229 255
209 229 255
209 229 255
209 229 255
209 229 255
209 229 255
209 229 255
209 229 255
209 229 255
209 229 255
209 229 255
209 229 255
209 229 255
209 228 255
208 228 255
208 228 255
208 228 255
208 228 255
208 228 255
208 228 255
208 228 255
208 228 255
208 228 255
208 228 255
208 228 255
208 228 255
208 228 255
208 228 255
208 228 255
208 228 255
208 228 255
208 228 255
208 228 255
208 228 255
208 228 255
207 228 255
207 228 255
207 228 255
207 228 255
207 228 255
207 228 255
207 228 255
207 228 255
207 228 255
207 228 255
207 228 255
207 228 255
207 228 255
207 228 255
207 228 255
207 228 255
207 228 255
207 228 255
205 226 255
186 210 248
156 186 238
120 158 227
91 140 222
75 130 220
76 131 220
76 131 219
76 131 221
75 130 219
76 130 219
76 131 221
75 130 220
77 131 218
76 130 219
74 129 217
75 130 219
85 137 222
123 161 229
162 190 239
161 190 240
202 224 254
207 228 255
207 228 255
207 228 255
207 228 255
207 228 255
207 228 255
207 228 255
207 228 255
207 228 255
207 228 255
207 228 255
207 228 255
207 228 255
207 228 255
207 228 255
207 228 255
207 228 255
207 228 255
207 228 255
208 228 255
208 228 255
208 228 255
208 228 255
208 228 255
208 228 255
208 228 255
208 228 255
208 228 255
208 228 255
208 228 255
208 228 255
208 228 255
208 228 255
208 228 255
208 228 255
208 228 255
208 228 255
208 228 255
208 228 255
209 228 255
209 229 255
209 229 255
209 229 255
209 229 255
209 229 255
209 229 255
209 229 255
209 229 255
209 229 255
209 229 255
209 229 255
209 229 255
209 229 255
209 229 255
209 229 255
209 229 255
209 229 255
210 229 255
210 229 255
210 229 255
205 227 251
189 219 234
161 207 206
126 192 170
115 189 161
83 180 133
80 180 130
77 179 127
75 178 127
75 178 127
75 177 125
76 178 127
76 179 127
74 176 126
76 179 127
76 178 127
75 178 127
76 180 128
75 177 126
77 179 126
76 179 127
75 177 127
80 180 130
104 186 150
139 198 182
152 202 195
169 210 211
190 220 234
210 229 254
211 230 255
211 230 255
211 230 255
211 230 255
212 230 255
212 230 255
212 230 255
212 230 255
212 230 255
212 230 255
212 230 255
212 230 255
212 230 255
212 230 255
212 230 255
212 230 255
212 230 255
212 230 255
212 230 255
212 231 255
212 231 255
212 231 255
212 231 255
212 231 255
212 231 255
213 231 255
213 231 255
213 231 255
213 231 255
213 231 255
213 231 255
213 231 255
213 231 255
213 231 255
213 231 255
213 231 255
213 231 255
213 231 255
213 231 255
213 231 255
213 231 255
213 231 255
213 231 255
213 231 255
213 231 255
213 231 255
213 231 255
213 231 255
213 231 255
214 231 255
214 231 255
214 231 255
214 231 255
214 231 255
214 231 255
214 231 255
214 231 255
214 231 255
214 231 255
214 231 255
214 232 255
214 231 255
214 231 255
214 231 255
214 231 255
214 231 255
214 231 255
214 231 255
214 231 255
214 231 255
214 231 255
214 231 255
214 231 255
214 231 255
214 231 255
214 231 255
213 231 255
213 231 255
213 231 255
213 231 255
213 231 255
213 231 255
213 231 255
213 231 255
213 231 255
213 231 255
213 231 255
213 231 255
213 231 255
213 231 255
213 231 255
213 231 255
213 231 255
213 231 255
213 231 255
213 231 255
213 231 255
213 231 255
213 231 255
213 231 255
213 231 255
212 231 255
212 231 255
212 231 255
212 231 255
212 231 255
212 231 255
212 230 255
212 230 255
212 230 255
212 230 255
212 230 255
212 230 255
212 230 255
212 230 255
212 230 255
211 229 254
204 211 235
196 192 214
183 155 173
169 102 116
163 85 97
163 84 97
165 85 98
165 86 98
164 85 98
167 86 98
164 85 97
163 85 98
164 85 97
166 86 97
164 85 97
164 85 98
164 85 98
162 84 97
162 85 98
167 86 98
166 86 98
162 84 96
163 85 97
164 85 97
165 85 98
165 86 98
164 85 98
161 84 97
162 85 98
160 84 97
163 85 98
166 90 103
175 128 144
180 152 171
196 194 216
209 226 252
210 229 255
210 229 255
210 229 255
210 229 255
209 229 255
209 229 255
209 229 255
209 229 255
209 229 255
209 229 255
209 229 255
209 229 255
209 229 255
209 229 255
209 229 255
209 229 255
209 229 255
209 229 255
209 229 255
209 229 255
209 229 255
209 228 255
208 228 255
208 228 255
208 228 255
208 228 255
208 228 255
208 228 255
208 228 255
208 228 255
208 228 255
208 228 255
208 228 255
208 228 255
208 228 255
208 228 255
208 228 255
208 228 255
208 228 255
208 228 255
208 228 255
208 228 255
208 228 255
208 228 255
208 228 255
208 228 255
208 228 255
207 228 255
207 228 255
207 228 255
207 228 255
207 228 255
207 228 255
201 222 252
171 198 243
130 165 229
80 134 221
75 129 217
76 131 219
76 131 221
76 130 217
75 129 217
74 128 215
76 130 219
76 130 217
77 131 220
76 130 219
76 130 217
76 130 218
76 130 216
75 130 219
76 131 220
75 129 218
76 131 219
76 130 219
76 131 220
75 130 219
76 131 220
133 168 233
175 201 245
203 224 254
207 228 255
207 228 255
207 228 255
207 228 255
207 228 255
207 228 255
207 228 255
208 228 255
208 228 255
208 228 255
208 228 255
208 228 255
208 228 255
208 228 255
208 228 255
208 228 255
208 228 255
208 228 255
208 228 255
208 228 255
208 228 255
208 228 255
208 228 255
208 228 255
208 228 255
208 228 255
208 228 255
208 228 255
208 228 255
208 228 255
209 228 255
209 229 255
209 229 255
209 229 255
209 229 255
209 229 255
209 229 255
209 229 255
209 229 255
209 229 255
209 229 255
209 229 255
209 229 255
209 229 255
209 229 255
209 229 255
209 229 255
209 229 255
210 229 255
210 229 255
210 229 255
210 229 255
210 229 255
208 228 254
182 216 227
145 200 189
104 186 151
78 177 130
75 177 126
75 176 126
76 178 127
74 176 126
75 177 126
76 178 127
75 177 126
76 178 126
76 178 126
75 177 126
75 176 125
75 177 126
75 176 125
76 178 127
76 178 126
76 178 126
75 177 126
75 177 126
75 176 126
76 178 126
76 178 126
76 178 126
76 178 126
75 177 125
74 175 125
78 181 127
76 179 126
88 182 136
130 196 173
174 212 217
191 221 234
210 229 254
212 230 255
212 230 255
212 230 255
212 230 255
212 230 255
212 230 255
212 230 255
212 230 255
212 230 255
212 231 255
212 231 255
212 231 255
212 231 255
212 231 255
212 231 255
213 231 255
213 231 255
213 231 255
213 231 255
213 231 255
213 231 255
213 231 255
213 231 255
213 231 255
213 231 255
213 231 255
213 231 255
213 231 255
213 231 255
213 231 255
213 231 255
213 231 255
213 231 255
213 231 255
213 231 255
213 231 255
213 231 255
213 231 255
213 231 255
213 231 255
214 231 255
214 231 255
214 231 255
214 231 255
214 231 255
214 231 255
214 231 255
214 231 255
214 231 255
214 231 255
214 231 255
214 231 255
214 231 255
214 231 255
214 232 255
214 232 255
214 232 255
214 232 255
214 232 255
214 232 255
214 232 255
214 232 255
214 232 255
214 232 255
214 231 255
214 231 255
214 231 255
214 231 255
214 231 255
214 231 255
214 231 255
214 231 255
214 231 255
214 231 255
214 231 255
214 231 255
214 231 255
214 231 255
213 231 255
213 231 255
213 231 255
213 231 255
213 231 255
213 231 255
213 231 255
213 231 255
213 231 255
213 231 255
213 231 255
213 231 255
213 231 255
213 231 255
213 231 255
213 231 255
213 231 255
213 231 255
213 231 255
213 231 255
213 231 255
213 231 255
213 231 255
213 231 255
212 231 255
212 231 255
212 231 255
212 231 255
212 231 255
212 231 255
212 230 255
211 229 254
197 192 214
187 163 181
172 122 137
166 86 98
165 85 96
166 86 98
161 84 97
166 85 97
164 85 97
162 85 97
165 85 97
165 85 97
162 84 96
164 85 97
164 85 98
162 84 96
163 85 97
165 85 97
161 84 97
167 86 98
161 84 96
163 85 98
164 85 98
165 86 98
163 85 98
165 85 98
161 84 97
163 85 98
163 84 97
165 86 99
163 85 97
161 84 98
164 85 98
162 84 97
163 85 97
165 85 98
164 85 98
166 86 99
164 89 103
178 142 160
190 179 201
208 224 250
210 229 255
210 229 255
210 229 255
210 229 255
210 229 255
210 229 255
210 229 255
209 229 255
209 229 255
209 229 255
209 229 255
209 229 255
209 229 255
209 229 255
209 229 255
209 229 255
209 229 255
209 229 255
209 229 255
209 229 255
209 229 255
209 229 255
209 229 255
209 229 255
209 229 255
209 228 255
209 228 255
208 228 255
208 228 255
208 228 255
208 228 255
208 228 255
208 228 255
208 228 255
208 228 255
208 228 255
208 228 255
208 228 255
208 228 255
208 228 255
208 228 255
208 228 255
208 228 255
208 228 255
208 228 255
208 228 255
208 228 255
208 228 255
192 214 249
139 171 230
90 138 220
75 129 217
77 131 218
76 129 217
76 130 218
77 131 219
75 129 218
77 131 219
76 130 217
77 131 219
76 131 219
76 130 219
76 131 219
77 132 221
75 129 217
75 130 219
77 131 220
75 128 215
74 129 218
74 128 214
76 131 219
76 130 217
75 129 217
76 131 219
76 130 219
76 131 218
76 131 218
83 135 220
148 180 236
191 214 250
208 228 255
208 228 255
208 228 255
208 228 255
208 228 255
208 228 255
208 228 255
208 228 255
208 228 255
208 228 255
208 228 255
208 228 255
208 228 255
208 228 255
208 228 255
208 228 255
208 228 255
208 228 255
208 228 255
208 228 255
208 228 255
209 228 255
209 228 255
209 229 255
209 229 255
209 229 255
209 229 255
209 229 255
209 229 255
209 229 255
209 229 255
209 229 255
209 229 255
209 229 255
209 229 255
209 229 255
209 229 255
209 229 255
209 229 255
209 229 255
209 229 255
210 229 255
210 229 255
210 229 255
210 229 255
210 229 255
210 229 255
210 229 255
204 226 249
173 211 217
117 187 162
83 179 133
75 177 127
75 177 126
75 177 126
75 178 127
75 177 126
76 178 126
77 180 127
76 178 126
73 173 123
74 175 125
74 176 126
75 177 126
75 178 127
75 177 126
76 177 126
76 179 126
76 177 126
76 179 126
77 180 126
75 175 124
76 178 127
76 176 124
76 178 126
75 176 124
76 178 126
76 178 125
75 175 124
75 177 126
75 176 124
76 178 126
75 176 125
77 179 126
77 178 126
77 179 126
76 178 126
79 177 128
149 201 191
184 218 227
211 230 254
212 230 255
212 231 255
212 231 255
212 231 255
212 231 255
212 231 255
212 231 255
213 231 255
213 231 255
213 231 255
213 231 255
213 231 255
213 231 255
213 231 255
213 231 255
213 231 255
213 231 255
213 231 255
213 231 255
213 231 255
213 231 255
213 231 255
213 231 255
213 231 255
213 231 255
213 231 255
213 231 255
213 231 255
213 231 255
213 231 255
213 231 255
214 231 255
214 231 255
214 231 255
214 231 255
214 231 255
214 231 255
214 231 255
214 231 255
214 231 255
214 231 255
214 231 255
214 231 255
214 231 255
214 231 255
214 232 255
214 232 255
214 232 255
214 232 255
214 232 255
214 232 255
214 232 255
214 232 255
214 232 255
214 232 255
214 232 255
214 232 255
214 232 255
214 232 255
214 232 255
214 232 255
214 232 255
214 232 255
214 232 255
214 232 255
214 232 255
214 232 255
214 231 255
214 231 255
214 231 255
214 231 255
214 231 255
214 231 255
214 231 255
214 231 255
214 231 255
214 231 255
214 231 255
214 231 255
214 231 255
213 231 255
213 231 255
213 231 255
213 231 255
213 231 255
213 231 255
213 231 255
213 231 255
213 231 255
213 231 255
213 231 255
213 231 255
213 231 255
213 231 255
213 231 255
213 231 255
213 231 255
213 231 255
213 231 255
213 231 255
213 231 255
213 231 255
213 231 255
213 231 255
201 202 224
182 155 173
168 105 118
167 86 98
163 84 96
163 85 97
163 85 97
166 85 97
163 85 97
166 85 97
166 86 98
167 86 97
159 83 95
163 84 96
165 86 98
161 83 96
164 85 97
157 82 95
164 85 97
165 86 98
162 84 97
165 85 97
162 85 97
163 85 98
164 85 97
167 86 98
165 85 98
162 84 97
160 83 96
162 84 97
165 85 97
157 82 96
163 84 96
164 85 97
166 86 98
160 83 97
160 83 96
166 86 98
160 84 97
163 85 98
166 86 98
163 85 98
161 84 98
164 85 98
164 85 98
175 131 147
194 186 207
210 229 255
210 229 255
210 229 255
210 229 255
210 229 255
210 229 255
210 229 255
210 229 255
210 229 255
210 229 255
210 229 255
209 229 255
209 229 255
209 229 255
209 229 255
209 229 255
209 229 255
209 229 255
209 229 255
209 229 255
209 229 255
209 229 255
209 229 255
209 229 255
209 229 255
209 229 255
209 229 255
209 229 255
209 229 255
209 229 255
209 229 255
209 228 255
209 228 255
209 228 255
208 228 255
208 228 255
208 228 255
208 228 255
208 228 255
208 228 255
208 228 255
208 228 255
208 228 255
208 228 255
181 205 246
133 167 230
76 130 217
75 128 216
76 130 219
77 132 220
76 131 220
75 128 215
76 131 219
76 130 217
76 131 219
75 130 218
75 129 216
76 130 217
76 130 216
73 127 215
76 129 216
75 129 217
76 130 217
76 130 217
75 129 215
75 129 215
77 131 219
75 130 217
76 129 216
76 131 219
74 129 219
74 128 215
77 131 219
75 131 219
74 128 213
75 130 216
75 131 219
75 129 216
140 174 234
191 214 249
208 228 255
208 228 255
208 228 255
208 228 255
208 228 255
208 228 255
208 228 255
208 228 255
208 228 255
208 228 255
208 228 255
209 228 255
209 229 255
209 229 255
209 229 255
209 229 255
209 229 255
209 229 255
209 229 255
209 229 255
209 229 255
209 229 255
209 229 255
209 229 255
209 229 255
209 229 255
209 229 255
209 229 255
209 229 255
209 229 255
209 229 255
209 229 255
209 229 255
210 229 255
210 229 255
210 229 255
210 229 255
210 229 255
210 229 255
210 229 255
210 229 255
210 229 255
210 229 255
205 227 251
184 216 228
121 190 166
74 176 127
76 178 127
74 176 126
75 176 126
76 179 127
78 181 127
76 179 127
75 178 127
72 172 125
75 177 126
75 176 125
76 177 125
75 176 125
76 179 126
77 180 127
76 178 126
76 178 126
75 176 125
76 179 127
75 176 125
75 177 125
76 178 126
75 175 124
76 178 126
76 179 126
77 179 125
75 177 126
74 174 124
75 176 125
76 179 126
76 177 125
77 179 126
75 175 124
76 178 126
75 176 125
78 180 127
77 179 126
76 177 125
74 174 124
76 178 126
75 177 125
77 180 126
88 180 135
147 200 188
188 218 230
213 231 255
213 231 255
213 231 255
213 231 255
213 231 255
213 231 255
213 231 255
213 231 255
213 231 255
213 231 255
213 231 255
213 231 255
213 231 255
213 231 255
213 231 255
213 231 255
213 231 255
213 231 255
213 231 255
213 231 255
213 231 255
213 231 255
213 231 255
214 231 255
214 231 255
214 231 255
214 231 255
214 231 255
214 231 255
214 231 255
214 231 255
214 231 255
214 231 255
214 231 255
214 231 255
214 231 255
214 231 255
214 231 255
214 232 255
214 232 255
214 232 255
214 232 255
214 232 255
214 232 255
214 232 255
214 232 255
214 232 255
214 232 255
214 232 255
214 232 255
214 232 255
215 232 255
215 232 255
215 232 255
215 232 255
215 232 255
214 232 255
214 232 255
214 232 255
214 232 255
214 232 255
214 232 255
214 232 255
214 232 255
214 232 255
214 232 255
214 232 255
214 232 255
214 232 255
214 232 255
214 231 255
214 231 255
214 231 255
214 231 255
214 231 255
214 231 255
214 231 255
214 231 255
214 231 255
214 231 255
214 231 255
214 231 255
214 231 255
214 231 255
213 231 255
213 231 255
213 231 255
213 231 255
213 231 255
213 231 255
213 231 255
213 231 255
213 231 255
213 231 255
213 231 255
213 231 255
213 231 255
213 231 255
213 231 255
213 231 255
198 193 214
172 115 129
167 85 97
163 85 97
164 85 97
168 86 97
161 84 96
166 86 98
164 85 96
161 84 96
165 85 98
161 84 96
163 84 96
164 85 97
165 85 98
165 85 97
164 84 96
160 83 95
165 85 98
164 85 97
162 85 98
162 84 97
166 86 98
164 85 97
164 85 97
161 84 96
167 86 98
159 83 96
166 86 97
161 84 97
164 85 97
163 84 96
165 85 97
162 84 96
162 84 97
167 86 98
164 85 98
161 84 97
157 83 96
159 83 97
164 85 97
163 85 98
161 84 96
162 85 98
164 85 98
162 85 98
161 84 97
162 84 97
163 85 98
168 105 119
186 168 189
206 219 244
210 229 255
210 229 255
210 229 255
210 229 255
210 229 255
210 229 255
210 229 255
210 229 255
210 229 255
210 229 255
210 229 255
210 229 255
210 229 255
210 229 255
209 229 255
209 229 255
209 229 255
209 229 255
209 229 255
209 229 255
209 229 255
209 229 255
209 229 255
209 229 255
209 229 255
209 229 255
209 229 255
209 229 255
209 229 255
209 229 255
209 229 255
209 229 255
209 229 255
209 229 255
209 229 255
209 229 255
209 229 255
209 228 255
209 229 255
201 221 251
144 175 231
76 130 217
75 130 217
76 129 217
76 131 219
76 129 217
75 128 214
77 131 220
76 131 220
75 130 219
76 130 217
76 130 216
77 131 219
75 129 218
76 130 217
75 129 217
76 129 216
76 129 216
75 129 216
77 130 217
76 129 214
75 128 215
74 128 215
76 130 217
76 129 215
76 130 217
75 129 217
77 131 218
75 129 217
75 129 215
74 128 216
75 130 218
75 129 217
75 129 214
77 132 221
76 130 217
73 127 211
146 178 234
196 218 251
209 228 255
209 229 255
209 229 255
209 229 255
209 229 255
209 229 255
209 229 255
209 229 255
209 229 255
209 229 255
209 229 255
209 229 255
209 229 255
209 229 255
209 229 255
209 229 255
209 229 255
209 229 255
209 229 255
209 229 255
209 229 255
209 229 255
209 229 255
209 229 255
210 229 255
210 229 255
210 229 255
210 229 255
210 229 255
210 229 255
210 229 255
210 229 255
210 229 255
210 229 255
210 229 255
210 229 255
210 229 255
210 229 255
210 229 255
197 223 242
152 203 196
91 181 139
74 176 126
76 179 127
74 177 127
72 172 125
74 175 125
74 175 125
75 176 125
73 173 125
74 175 125
74 175 125
75 176 125
74 175 125
74 174 125
74 175 124
76 178 127
74 176 126
73 174 125
73 173 124
74 175 125
75 177 125
75 177 126
75 176 125
75 176 125
76 178 126
77 180 127
75 176 125
75 176 124
75 175 124
77 179 127
75 176 125
74 174 124
75 175 124
74 175 125
75 175 123
76 178 125
76 178 127
75 175 123
74 174 124
76 177 126
75 175 124
75 177 126
75 175 123
76 178 125
76 178 126
76 178 126
76 177 125
77 179 126
128 194 171
170 211 212
211 230 254
213 231 255
213 231 255
213 231 255
213 231 255
213 231 255
213 231 255
213 231 255
213 231 255
213 231 255
213 231 255
213 231 255
213 231 255
213 231 255
213 231 255
213 231 255
214 231 255
214 231 255
214 231 255
214 231 255
214 231 255
214 231 255
214 231 255
214 231 255
214 231 255
214 231 255
214 231 255
214 231 255
214 231 255
214 232 255
214 232 255
214 232 255
214 232 255
214 232 255
214 232 255
214 232 255
214 232 255
214 232 255
214 232 255
214 232 255
214 232 255
214 232 255
214 232 255
214 232 255
215 232 255
215 232 255
215 232 255
215 232 255
215 232 255
215 232 255
215 232 255
215 232 255
215 232 255
215 232 255
215 232 255
215 232 255
215 232 255
215 232 255
215 232 255
215 232 255
214 232 255
214 232 255
214 232 255
214 232 255
214 232 255
214 232 255
214 232 255
214 232 255
214 232 255
214 232 255
214 232 255
214 232 255
214 232 255
214 232 255
214 232 255
214 231 255
214 231 255
214 231 255
214 231 255
214 231 255
214 231 255
214 231 255
214 231 255
214 231 255
214 231 255
214 231 255
214 231 255
214 231 255
214 231 255
213 231 255
213 231 255
213 231 255
213 231 255
213 231 255
213 231 255
211 226 250
192 182 203
171 115 130
163 84 96
164 85 96
163 85 97
166 85 97
170 87 97
165 85 97
165 85 97
166 86 97
163 85 97
164 84 95
162 84 96
165 84 96
164 85 97
165 85 97
166 85 97
166 86 98
161 83 95
163 84 97
165 85 97
163 84 96
161 84 96
164 85 97
164 85 96
164 84 96
166 86 97
165 85 97
164 85 97
165 85 97
162 84 97
157 82 94
162 84 97
165 85 97
161 84 96
161 84 96
165 85 98
159 83 96
162 84 97
162 84 97
161 84 96
158 83 96
163 84 97
161 83 96
155 81 95
165 85 97
162 85 98
162 84 97
160 84 97
160 84 97
156 82 95
159 84 98
161 84 98
159 87 101
186 170 191
207 223 248
210 230 255
210 229 255
210 229 255
210 229 255
210 229 255
210 229 255
210 229 255
210 229 255
210 229 255
210 229 255
210 229 255
210 229 255
210 229 255
210 229 255
210 229 255
210 229 255
210 229 255
210 229 255
210 229 255
210 229 255
209 229 255
209 229 255
209 229 255
209 229 255
209 229 255
209 229 255
209 229 255
209 229 255
209 229 255
209 229 255
209 229 255
209 229 255
209 229 255
209 229 255
209 229 255
209 229 255
176 201 244
90 137 219
76 130 219
76 129 217
76 130 219
74 127 213
75 127 212
76 131 220
76 129 216
75 128 214
75 129 216
77 131 218
75 129 215
75 128 215
73 126 214
75 129 217
75 129 215
74 127 212
76 130 217
76 130 218
76 130 217
75 129 216
75 129 215
76 129 216
76 130 219
74 127 213
76 130 217
75 128 214
75 129 215
75 128 215
72 126 212
74 129 216
75 129 215
75 128 215
76 130 217
75 129 215
75 129 217
75 129 217
75 130 216
74 128 215
94 140 220
183 207 246
209 229 255
209 229 255
209 229 255
209 229 255
209 229 255
209 229 255
209 229 255
209 229 255
209 229 255
209 229 255
209 229 255
209 229 255
209 229 255
209 229 255
209 229 255
210 229 255
210 229 255
210 229 255
210 229 255
210 229 255
210 229 255
210 229 255
210 229 255
210 229 255
210 229 255
210 229 255
210 229 255
210 229 255
210 229 255
210 229 255
210 229 255
210 229 255
210 229 255
210 229 255
210 229 255
210 230 255
193 220 237
141 198 184
86 178 136
74 176 126
74 174 125
73 173 125
74 176 125
76 178 125
74 175 125
76 178 126
76 178 126
74 176 126
74 174 123
73 174 126
75 175 124
77 178 126
76 178 127
76 177 126
74 175 125
73 173 123
74 175 125
74 176 125
75 176 124
76 177 125
76 178 126
75 177 126
75 175 123
76 177 125
75 175 124
76 178 125
76 177 125
73 171 122
76 178 126
76 178 125
74 173 123
76 176 124
77 179 126
76 178 126
76 178 126
76 178 126
74 175 125
73 172 123
75 175 124
76 177 125
77 178 125
75 176 124
75 175 124
75 176 124
76 178 126
74 173 123
76 178 125
74 172 121
75 175 124
76 177 125
95 181 140
157 204 199
212 230 254
213 231 255
213 231 255
213 231 255
213 231 255
213 231 255
213 231 255
214 231 255
214 231 255
214 231 255
214 231 255
214 231 255
214 231 255
214 231 255
214 231 255
214 231 255
214 231 255
214 231 255
214 231 255
214 231 255
214 231 255
214 232 255
214 232 255
214 232 255
214 232 255
214 232 255
214 232 255
214 232 255
214 232 255
214 232 255
214 232 255
214 232 255
214 232 255
214 232 255
214 232 255
215 232 255
215 232 255
215 232 255
215 232 255
215 232 255
215 232 255
215 232 255
215 232 255
215 232 255
215 232 255
215 232 255
215 232 255
215 232 255
215 232 255
215 232 255
215 232 255
215 232 255
215 232 255
215 232 255
215 232 255
215 232 255
215 232 255
215 232 255
215 232 255
215 232 255
215 232 255
215 232 255
215 232 255
215 232 255
215 232 255
214 232 255
214 232 255
214 232 255
214 232 255
214 232 255
214 232 255
214 232 255
214 232 255
214 232 255
214 232 255
214 232 255
214 232 255
214 232 255
214 232 255
214 231 255
214 231 255
214 231 255
214 231 255
214 231 255
214 231 255
214 231 255
214 231 255
214 231 255
214 231 255
214 231 255
214 231 255
214 231 255
191 174 193
169 108 122
164 84 96
163 84 95
162 84 96
162 84 96
160 83 95
164 85 97
164 85 97
165 85 97
161 83 95
162 83 95
165 85 96
162 83 95
164 84 95
164 85 97
164 84 96
162 84 96
162 84 96
160 83 95
163 85 97
166 85 96
161 83 96
164 84 96
164 85 97
166 85 97
164 85 97
162 83 95
163 84 96
163 84 97
165 85 98
162 84 96
159 83 96
163 84 97
164 85 97
162 84 96
162 84 96
169 86 98
160 83 96
164 85 97
159 83 96
156 81 95
162 84 96
162 84 96
161 84 97
158 83 97
159 83 95
160 83 97
164 85 98
162 84 98
155 82 96
160 84 97
161 84 97
161 84 97
160 84 98
161 84 97
157 82 96
160 92 106
178 154 173
208 223 248
211 230 255
211 230 255
211 230 255
211 230 255
210 230 255
210 230 255
210 229 255
210 229 255
210 229 255
210 229 255
210 229 255
210 229 255
210 229 255
210 229 255
210 229 255
210 229 255
210 229 255
210 229 255
210 229 255
210 229 255
210 229 255
210 229 255
210 229 255
210 229 255
210 229 255
210 229 255
210 229 255
209 229 255
209 229 255
209 229 255
209 229 255
209 229 255
200 221 252
142 173 229
75 128 215
74 128 216
75 129 216
75 129 216
76 129 216
75 129 216
76 130 217
75 129 217
74 127 213
77 131 218
76 130 217
75 129 216
77 130 218
75 128 214
76 130 216
76 130 217
76 130 218
76 130 216
77 132 219
76 131 218
76 129 216
75 129 216
77 131 217
76 129 216
77 132 219
76 130 218
76 130 217
76 130 217
75 129 216
75 129 216
75 129 215
75 129 215
76 130 216
76 130 216
76 130 217
75 129 216
74 128 216
74 128 216
76 130 216
75 130 219
72 126 208
74 129 215
149 179 234
201 222 252
209 229 255
209 229 255
209 229 255
209 229 255
210 229 255
210 229 255
210 229 255
210 229 255
210 229 255
210 229 255
210 229 255
210 229 255
210 229 255
210 229 255
210 229 255
210 229 255
210 229 255
210 229 255
210 229 255
210 229 255
210 229 255
210 229 255
210 229 255
210 229 255
210 229 255
210 229 255
210 230 255
210 230 255
210 230 255
211 230 255
211 230 255
211 230 255
204 227 249
138 197 182
75 177 126
73 175 126
77 180 127
72 171 123
75 177 126
73 173 124
74 176 126
74 174 125
72 172 124
74 174 125
75 175 125
73 173 126
73 174 125
75 177 126
74 175 125
77 179 127
75 177 126
74 173 123
75 177 125
73 173 124
76 177 125
74 173 124
76 177 126
74 173 123
75 175 124
75 176 125
76 177 125
75 175 123
74 174 124
73 171 122
77 178 125
76 178 126
74 175 124
76 176 123
74 173 123
76 178 126
74 173 122
75 177 125
77 178 125
75 177 125
76 176 124
75 175 124
77 179 126
75 175 124
77 179 126
76 177 126
73 172 122
75 175 124
76 178 125
78 180 126
76 177 125
75 175 124
75 176 124
76 177 124
76 178 126
76 178 126
98 183 144
178 215 219
214 231 255
214 231 255
214 231 255
214 231 255
214 231 255
214 231 255
214 231 255
214 231 255
214 231 255
214 231 255
214 231 255
214 231 255
214 231 255
214 232 255
214 232 255
214 232 255
214 232 255
214 232 255
214 232 255
214 232 255
214 232 255
214 232 255
214 232 255
214 232 255
214 232 255
214 232 255
214 232 255
215 232 255
215 232 255
215 232 255
215 232 255
215 232 255
215 232 255
215 232 255
215 232 255
215 232 255
215 232 255
215 232 255
215 232 255
215 232 255
215 232 255
215 232 255
215 232 255
215 232 255
215 232 255
215 232 255
215 232 255
215 232 255
215 232 255
215 232 255
215 232 255
215 232 255
215 232 255
215 232 255
215 232 255
215 232 255
215 232 255
215 232 255
215 232 255
215 232 255
215 232 255
215 232 255
215 232 255
215 232 255
215 232 255
215 232 255
215 232 255
215 232 255
215 232 255
215 232 255
214 232 255
214 232 255
214 232 255
214 232 255
214 232 255
214 232 255
214 232 255
214 232 255
214 232 255
214 232 255
214 232 255
214 232 255
214 232 255
214 232 255
214 231 255
214 231 255
214 231 255
214 231 255
198 193 214
175 122 136
167 86 97
163 84 96
161 83 95
161 83 95
162 84 96
164 84 95
164 85 97
163 84 96
161 84 96
162 84 96
160 83 96
161 83 94
165 85 96
163 84 97
164 84 96
163 84 96
164 84 96
166 85 97
165 85 96
164 85 97
163 84 96
164 84 96
163 84 96
165 85 97
161 83 95
166 86 98
168 86 98
164 84 96
162 84 96
161 83 96
163 84 97
161 84 96
163 85 97
162 83 96
162 84 96
164 85 98
165 84 96
161 84 96
164 85 96
163 84 97
166 85 97
162 84 96
163 85 97
158 82 95
162 84 97
159 83 96
161 84 97
162 84 97
157 82 96
161 84 97
156 82 96
163 84 97
158 82 95
156 82 96
160 83 97
160 83 96
159 83 97
157 82 96
160 84 98
157 87 101
188 171 191
209 225 250
211 230 255
211 230 255
211 230 255
211 230 255
211 230 255
211 230 255
211 230 255
211 230 255
211 230 255
210 230 255
210 230 255
210 230 255
210 229 255
210 229 255
210 229 255
210 229 255
210 229 255
210 229 255
210 229 255
210 229 255
210 229 255
210 229 255
210 229 255
210 229 255
210 229 255
210 229 255
210 229 255
210 229 255
210 229 255
190 213 248
96 137 211
76 129 217
76 127 211
76 130 218
74 127 213
76 129 215
77 131 219
74 128 215
76 129 214
74 127 214
75 128 215
77 130 217
77 131 219
76 129 215
76 129 216
74 127 213
74 128 215
76 130 219
76 130 218
77 130 217
76 129 216
75 129 216
77 131 217
75 127 212
75 128 214
77 130 217
76 130 215
75 128 214
74 127 211
74 127 213
76 130 216
76 130 217
76 130 218
75 127 213
74 126 212
76 130 215
76 130 217
76 129 212
76 130 217
73 127 211
74 128 214
76 131 218
75 129 214
76 130 216
73 129 213
96 142 218
180 205 246
210 229 255
210 229 255
210 229 255
210 229 255
210 229 255
210 229 255
210 229 255
210 229 255
210 229 255
210 229 255
210 229 255
210 229 255
210 229 255
210 229 255
210 229 255
210 229 255
210 229 255
210 230 255
210 230 255
210 230 255
211 230 255
211 230 255
211 230 255
211 230 255
211 230 255
211 230 255
211 230 255
211 230 255
211 230 255
209 229 254
162 206 206
93 179 141
74 175 125
73 173 126
74 175 125
75 175 124
72 171 123
72 171 124
72 171 124
74 175 125
74 175 125
73 173 124
74 174 125
75 175 125
71 170 123
74 174 125
76 178 126
75 176 124
76 177 125
75 176 125
75 177 125
75 176 126
74 175 125
75 176 125
74 173 123
74 173 124
75 175 124
73 171 122
75 175 124
75 175 124
75 175 124
73 171 121
75 176 125
75 175 124
76 177 124
76 176 124
76 177 124
75 175 125
74 175 124
74 173 123
76 177 125
76 178 125
77 178 126
77 178 126
76 176 123
74 174 123
76 176 124
75 175 123
73 172 122
74 174 124
74 174 124
75 175 124
76 177 124
73 172 122
76 176 124
76 178 126
75 174 123
77 179 126
75 176 125
76 177 125
75 175 124
123 191 165
191 220 232
214 231 255
214 231 255
214 231 255
214 231 255
214 231 255
214 232 255
214 232 255
214 232 255
214 232 255
214 232 255
214 232 255
214 232 255
214 232 255
214 232 255
214 232 255
214 232 255
214 232 255
214 232 255
215 232 255
215 232 255
215 232 255
215 232 255
215 232 255
215 232 255
215 232 255
215 232 255
215 232 255
215 232 255
215 232 255
215 232 255
215 232 255
215 232 255
215 232 255
215 232 255
215 232 255
215 232 255
215 232 255
215 232 255
215 232 255
215 232 255
215 232 255
215 232 255
215 232 255
215 232 255
215 232 255
215 232 255
215 232 255
215 232 255
215 232 255
215 232 255
215 232 255
215 232 255
215 232 255
215 232 255
215 232 255
215 232 255
215 232 255
215 232 255
215 232 255
215 232 255
215 232 255
215 232 255
215 232 255
215 232 255
215 232 255
215 232 255
215 232 255
215 232 255
215 232 255
215 232 255
215 232 255
215 232 255
215 232 255
215 232 255
215 232 255
214 232 255
214 232 255
214 232 255
214 232 255
214 232 255
214 232 255
214 232 255
214 232 255
214 232 255
213 230 254
185 156 173
161 83 95
160 83 95
163 84 95
161 83 95
159 82 94
164 84 96
167 86 97
162 84 96
163 84 96
164 84 96
163 84 96
165 85 97
161 83 94
164 84 95
164 84 95
162 83 95
165 85 96
167 86 97
160 83 95
164 85 97
160 83 95
163 84 97
165 85 96
165 85 96
164 85 97
163 84 96
162 84 95
165 85 97
160 83 96
164 84 96
166 85 97
163 84 96
163 84 95
165 85 97
162 84 96
160 83 96
160 83 96
165 85 97
161 83 96
163 85 97
161 84 96
158 82 95
162 84 96
159 82 95
164 85 98
156 81 95
164 85 97
160 83 95
150 79 94
155 81 94
152 81 96
159 83 96
160 83 96
160 83 97
151 80 94
160 83 96
158 83 96
160 83 95
153 81 97
161 84 97
159 83 96
160 83 96
155 81 96
167 120 137
203 211 235
211 230 255
211 230 255
211 230 255
211 230 255
211 230 255
211 230 255
211 230 255
211 230 255
211 230 255
211 230 255
211 230 255
211 230 255
211 230 255
211 230 255
211 230 255
211 230 255
210 230 255
210 230 255
210 230 255
210 229 255
210 229 255
210 229 255
210 229 255
210 229 255
210 229 255
210 229 255
210 229 255
166 192 238
80 131 217
75 126 210
75 129 216
76 131 221
75 129 217
75 129 216
76 130 217
75 128 215
75 127 212
74 127 213
74 127 213
73 125 211
76 130 217
76 130 217
76 129 215
76 130 217
76 130 217
75 128 216
76 129 215
75 128 214
76 129 215
75 128 213
75 128 214
76 129 215
77 131 217
76 129 215
75 129 213
77 131 219
75 128 215
75 129 215
75 129 215
75 128 215
75 128 214
76 129 214
75 129 215
73 127 215
76 130 218
77 131 217
75 130 216
76 130 216
74 128 216
76 130 217
76 129 214
74 127 211
74 128 212
75 129 214
73 127 211
85 135 214
184 208 247
210 229 255
210 229 255
210 229 255
210 229 255
210 229 255
210 229 255
210 229 255
210 229 255
210 230 255
210 230 255
211 230 255
211 230 255
211 230 255
211 230 255
211 230 255
211 230 255
211 230 255
211 230 255
211 230 255
211 230 255
211 230 255
211 230 255
211 230 255
211 230 255
211 230 255
211 230 255
211 230 255
188 217 231
97 182 145
75 177 126
72 172 125
76 176 124
73 174 125
71 169 124
74 174 125
71 169 123
73 172 124
71 169 122
73 173 125
71 169 124
75 175 124
72 171 123
72 170 123
73 172 123
73 172 124
73 172 122
74 175 125
74 174 123
73 173 124
72 170 121
76 177 125
75 176 125
74 173 123
75 176 123
74 173 124
74 173 123
76 178 126
76 178 125
73 172 123
74 174 124
75 175 125
75 176 125
72 171 122
73 172 122
74 174 123
74 172 120
76 177 125
76 178 126
74 173 122
75 174 123
76 177 124
76 176 124
76 178 125
75 175 124
76 176 124
76 177 124
76 177 125
75 176 124
75 175 123
76 176 124
75 176 125
74 173 123
76 177 125
75 176 124
74 174 123
76 177 125
76 177 124
76 177 125
76 178 126
74 175 125
76 176 124
74 173 123
141 198 182
205 227 246
214 232 255
214 232 255
214 232 255
214 232 255
214 232 255
214 232 255
214 232 255
214 232 255
214 232 255
215 232 255
215 232 255
215 232 255
215 232 255
215 232 255
215 232 255
215 232 255
215 232 255
215 232 255
215 232 255
215 232 255
215 232 255
215 232 255
215 232 255
215 232 255
215 232 255
215 232 255
215 232 255
215 232 255
215 232 255
215 232 255
215 232 255
215 232 255
215 232 255
215 232 255
215 232 255
215 232 255
215 232 255
215 232 255
215 232 255
215 232 255
215 232 255
216 232 255
216 232 255
216 232 255
216 232 255
216 232 255
216 232 255
215 232 255
215 232 255
215 232 255
215 232 255
215 232 255
215 232 255
215 232 255
215 232 255
215 232 255
215 232 255
215 232 255
215 232 255
215 232 255
215 232 255
215 232 255
215 232 255
215 232 255
215 232 255
215 232 255
215 232 255
215 232 255
215 232 255
215 232 255
215 232 255
215 232 255
215 232 255
215 232 255
215 232 255
215 232 255
215 232 255
215 232 255
215 232 255
214 232 255
214 232 255
200 199 220
174 113 126
164 85 97
161 83 95
163 84 96
162 83 95
162 84 96
162 84 96
160 83 95
165 85 96
161 83 95
162 83 94
166 85 96
164 84 96
163 84 95
158 82 93
164 84 96
163 84 96
166 85 96
164 84 96
161 84 96
163 84 96
161 84 96
163 85 97
164 84 96
163 84 96
160 83 95
161 83 95
160 83 95
163 84 95
164 85 97
162 84 96
167 85 96
159 82 94
165 85 97
159 82 94
161 83 96
155 81 95
164 84 96
165 85 98
167 86 97
160 82 94
159 83 95
161 84 96
158 82 95
164 85 97
164 85 97
166 86 98
160 83 96
161 83 96
159 82 95
157 82 94
159 82 94
158 82 96
160 83 95
157 82 95
156 82 95
158 82 95
160 83 96
156 81 95
161 84 97
160 83 96
153 80 95
160 84 97
154 81 96
155 81 95
156 82 96
158 87 101
189 173 194
209 223 248
211 230 255
211 230 255
211 230 255
211 230 255
211 230 255
211 230 255
211 230 255
211 230 255
211 230 255
211 230 255
211 230 255
211 230 255
211 230 255
211 230 255
211 230 255
211 230 255
211 230 255
211 230 255
211 230 255
211 230 255
211 230 255
211 230 255
211 230 255
211 230 255
174 199 242
74 125 211
75 128 214
75 128 213
74 124 207
75 128 214
75 128 215
75 129 216
76 128 214
75 127 212
75 128 213
77 131 218
74 127 211
74 126 212
75 128 213
74 128 213
74 126 212
74 127 212
75 128 213
75 129 215
72 125 211
75 128 214
76 127 211
75 128 213
72 124 208
75 128 214
76 130 218
75 127 212
77 131 218
73 126 211
77 131 217
74 128 215
75 129 215
76 129 216
73 126 212
75 128 213
75 128 213
75 128 215
76 129 215
75 128 214
74 128 215
75 128 213
74 127 212
74 127 211
76 129 214
73 127 213
75 128 213
73 126 210
74 128 211
74 128 215
72 127 209
153 183 233
211 230 255
211 230 255
211 230 255
211 230 255
211 230 255
211 230 255
211 230 255
211 230 255
211 230 255
211 230 255
211 230 255
211 230 255
211 230 255
211 230 255
211 230 255
211 230 255
211 230 255
211 230 255
211 230 255
211 230 255
211 230 255
211 230 255
211 230 255
211 230 255
211 230 255
155 205 198
80 178 129
72 171 124
73 173 125
70 168 123
72 172 125
75 176 125
73 172 124
71 169 123
72 171 123
72 171 123
74 176 126
72 171 123
71 169 122
72 170 122
73 172 123
71 169 122
75 175 124
73 172 124
74 175 125
74 175 125
75 175 124
74 174 124
75 175 124
73 172 123
74 174 124
75 175 124
75 174 123
73 172 124
74 173 124
76 176 123
75 174 123
73 172 122
73 173 123
73 172 122
74 173 124
75 175 124
74 174 123
76 177 124
76 177 125
73 172 122
76 178 125
73 172 122
75 176 124
74 175 125
75 175 124
74 173 122
75 175 123
76 178 125
73 172 121
75 174 123
76 177 125
75 175 124
77 178 125
76 177 124
74 173 123
76 178 126
76 177 124
76 176 124
75 175 124
74 173 122
76 176 124
75 175 123
75 175 123
76 176 124
74 175 124
73 172 122
98 181 142
186 218 226
214 232 255
214 232 255
215 232 255
215 232 255
215 232 255
215 232 255
215 232 255
215 232 255
215 232 255
215 232 255
215 232 255
215 232 255
215 232 255
215 232 255
215 232 255
215 232 255
215 232 255
215 232 255
215 232 255
215 232 255
215 232 255
215 232 255
215 232 255
215 232 255
215 232 255
215 232 255
215 232 255
215 232 255
215 232 255
215 232 255
215 232 255
215 232 255
215 232 255
215 232 255
216 232 255
216 232 255
216 232 255
216 232 255
216 232 255
216 232 255
216 233 255
216 233 255
216 232 255
216 232 255
216 232 255
216 232 255
216 232 255
216 232 255
216 232 255
216 232 255
216 232 255
216 232 255
216 232 255
216 232 255
215 232 255
215 232 255
215 232 255
215 232 255
215 232 255
215 232 255
215 232 255
215 232 255
215 232 255
215 232 255
215 232 255
215 232 255
215 232 255
215 232 255
215 232 255
215 232 255
215 232 255
215 232 255
215 232 255
215 232 255
215 232 255
215 232 255
215 232 255
215 232 255
214 230 254
189 170 188
162 84 95
160 83 95
166 85 97
161 83 94
159 82 94
161 83 95
164 85 97
164 85 96
163 84 95
163 84 95
166 85 97
161 84 97
162 84 96
166 85 96
165 85 97
167 86 97
166 85 96
162 84 95
165 84 96
159 82 94
164 85 98
160 83 95
160 83 96
166 85 97
169 87 98
163 84 96
164 84 96
164 84 96
165 84 95
161 83 96
163 84 95
164 85 97
157 81 93
163 84 96
164 84 96
160 83 95
164 84 95
159 82 95
162 84 96
163 84 96
157 82 95
160 82 94
156 81 94
160 83 95
160 83 95
160 83 96
159 82 94
158 82 96
160 83 95
154 81 93
153 80 93
160 83 95
156 81 94
159 83 96
160 83 95
158 83 96
152 80 94
165 85 97
157 83 97
158 82 95
157 82 95
156 81 94
159 83 97
156 82 96
161 84 97
158 83 96
159 82 95
157 82 95
159 83 97
175 131 147
206 217 240
212 230 255
212 230 255
212 230 255
212 230 255
212 230 255
212 230 255
212 230 255
211 230 255
211 230 255
211 230 255
211 230 255
211 230 255
211 230 255
211 230 255
211 230 255
211 230 255
211 230 255
211 230 255
211 230 255
211 230 255
211 230 255
209 229 255
156 183 233
75 126 210
76 127 213
74 125 209
74 126 210
75 127 212
75 126 210
75 128 215
75 128 214
75 128 214
76 127 212
73 123 205
76 130 216
75 128 214
74 126 212
75 128 214
74 127 213
74 126 210
76 129 213
76 130 216
73 125 210
76 128 213
74 127 212
77 130 216
76 129 215
75 128 214
75 129 215
74 127 212
76 130 215
75 128 213
76 128 213
75 128 214
77 130 216
77 131 219
74 127 212
73 125 209
75 129 215
76 130 217
75 128 213
76 129 214
72 125 208
75 128 213
74 127 211
74 128 214
73 126 212
73 128 210
74 128 213
74 126 212
74 127 212
72 127 209
74 129 214
73 128 212
68 122 196
151 181 230
211 230 255
211 230 255
211 230 255
211 230 255
211 230 255
211 230 255
211 230 255
211 230 255
211 230 255
211 230 255
211 230 255
211 230 255
211 230 255
211 230 255
211 230 255
211 230 255
212 230 255
212 230 255
212 230 255
212 230 255
212 230 255
212 230 255
201 225 244
120 187 165
72 172 125
70 167 122
73 173 124
68 163 119
74 175 124
70 167 122
72 171 123
73 173 124
72 170 122
72 171 122
71 169 122
74 174 125
72 171 124
72 170 122
73 172 123
73 172 123
75 176 124
72 170 122
76 178 126
73 171 122
75 175 124
75 176 125
74 173 123
75 175 124
74 175 124
74 173 122
74 173 124
75 175 124
73 172 122
73 170 121
75 176 125
75 175 124
74 173 123
74 172 122
73 171 122
73 173 124
74 174 123
75 174 123
73 171 121
75 173 122
73 173 123
74 174 123
75 173 122
73 171 121
74 173 123
74 173 122
75 174 123
77 177 124
74 172 122
75 172 121
75 176 124
74 173 123
76 176 123
75 175 123
74 173 123
74 173 122
75 174 123
75 175 124
74 173 122
74 174 123
75 176 124
74 172 121
76 177 125
76 176 123
73 172 122
74 172 121
75 173 122
76 177 125
74 174 124
146 199 186
213 231 254
215 232 255
215 232 255
215 232 255
215 232 255
215 232 255
215 232 255
215 232 255
215 232 255
215 232 255
215 232 255
215 232 255
215 232 255
215 232 255
215 232 255
215 232 255
215 232 255
215 232 255
215 232 255
215 232 255
215 232 255
215 232 255
215 232 255
215 232 255
215 232 255
216 232 255
216 232 255
216 232 255
216 232 255
216 232 255
216 232 255
216 232 255
216 232 255
216 232 255
216 232 255
216 232 255
216 232 255
216 233 255
216 233 255
216 233 255
216 233 255
216 233 255
216 233 255
216 233 255
216 233 255
216 233 255
216 233 255
216 233 255
216 233 255
216 232 255
216 232 255
216 232 255
216 232 255
216 232 255
216 232 255
216 232 255
216 232 255
216 232 255
216 232 255
216 232 255
215 232 255
215 232 255
215 232 255
215 232 255
215 232 255
215 232 255
215 232 255
215 232 255
215 232 255
215 232 255
215 232 255
215 232 255
215 232 255
215 232 255
215 232 255
215 232 255
208 218 240
178 137 152
161 83 94
158 82 94
160 82 94
162 84 96
164 85 97
162 83 95
158 83 96
161 83 95
165 84 95
165 85 97
162 83 95
159 82 94
163 84 96
161 83 95
165 85 97
163 84 95
162 83 94
164 84 95
163 83 95
160 83 95
164 85 97
162 83 94
163 84 96
160 83 95
164 84 96
164 84 95
163 83 94
157 82 94
164 84 96
160 83 95
160 83 95
159 82 94
164 84 96
158 82 94
162 83 96
163 83 95
160 83 95
160 82 94
161 83 95
165 85 97
163 84 95
159 83 96
162 84 96
160 83 95
160 83 96
158 82 95
163 84 96
163 84 96
155 81 93
160 83 95
160 83 97
156 81 93
158 82 94
159 83 96
160 82 95
157 82 95
153 80 95
157 82 96
165 85 98
160 83 97
159 83 96
154 81 95
157 82 96
154 80 94
153 80 94
154 81 96
160 83 97
156 81 95
159 83 97
153 81 96
154 81 96
163 96 110
207 220 244
212 230 255
212 230 255
212 230 255
212 230 255
212 230 255
212 230 255
212 230 255
212 230 255
212 230 255
212 230 255
212 230 255
212 230 255
212 230 255
212 230 255
212 230 255
211 230 255
211 230 255
211 230 255
211 230 255
211 230 255
158 182 227
74 124 206
75 129 216
74 125 209
74 126 212
73 125 210
74 128 214
75 128 214
74 124 208
74 124 207
75 126 209
74 126 210
74 127 212
73 126 213
74 127 211
75 127 211
74 126 210
76 130 217
75 128 213
75 128 215
75 127 212
74 127 213
74 127 212
74 127 213
73 125 210
74 127 213
75 128 215
76 129 214
74 126 210
74 127 213
75 127 210
75 128 213
76 128 212
77 130 215
77 130 216
73 126 210
74 126 211
76 130 214
74 126 210
75 127 211
75 128 214
75 128 213
74 127 213
74 127 212
73 126 208
73 126 211
72 125 210
75 128 213
74 127 210
74 127 213
73 127 210
72 126 209
76 130 217
73 128 210
74 129 211
161 189 239
211 230 255
211 230 255
211 230 255
211 230 255
211 230 255
212 230 255
212 230 255
212 230 255
212 230 255
212 230 255
212 230 255
212 230 255
212 230 255
212 230 255
212 230 255
212 230 255
212 230 255
212 230 255
212 230 255
212 230 255
184 217 227
91 174 139
72 171 124
71 169 122
71 169 122
70 168 123
73 173 124
71 169 123
74 174 125
71 168 122
73 173 125
74 174 125
73 171 122
69 166 122
72 170 122
74 175 125
73 172 122
72 170 122
72 170 122
72 169 121
73 173 124
73 171 123
73 172 122
73 171 123
72 171 123
76 176 124
72 170 123
76 177 125
73 171 120
72 170 121
74 174 123
74 173 123
72 171 124
75 175 124
70 165 118
73 172 123
71 168 120
74 171 121
76 177 125
74 174 123
73 170 121
75 175 123
77 177 124
75 175 123
76 176 124
75 175 124
75 173 122
74 173 122
72 169 120
75 175 124
75 175 123
75 174 123
74 173 122
76 176 123
74 173 123
76 178 125
77 178 124
76 176 123
76 176 123
74 173 123
76 176 124
76 176 124
76 176 124
74 173 122
76 176 124
74 172 122
75 175 123
75 174 123
77 179 125
75 174 123
72 170 121
74 174 123
75 176 124
138 196 179
210 229 250
215 232 255
215 232 255
215 232 255
215 232 255
215 232 255
215 232 255
215 232 255
215 232 255
215 232 255
215 232 255
215 232 255
215 232 255
215 232 255
215 232 255
215 232 255
215 232 255
216 232 255
216 232 255
216 232 255
216 232 255
216 232 255
216 232 255
216 232 255
216 232 255
216 232 255
216 232 255
216 232 255
216 233 255
216 233 255
216 233 255
216 233 255
216 233 255
216 233 255
216 233 255
216 233 255
216 233 255
216 233 255
216 233 255
216 233 255
216 233 255
216 233 255
216 233 255
216 233 255
216 233 255
216 233 255
216 233 255
216 233 255
216 233 255
216 233 255
216 233 255
216 233 255
216 233 255
216 233 255
216 233 255
216 232 255
216 232 255
216 232 255
216 232 255
216 232 255
216 232 255
216 232 255
216 232 255
216 232 255
216 232 255
216 232 255
216 232 255
215 232 255
215 232 255
215 232 255
215 232 255
215 232 255
215 232 255
215 232 255
209 218 241
168 115 128
160 83 95
161 82 94
162 84 95
163 83 95
166 85 96
163 84 95
163 84 95
163 84 96
160 82 94
167 85 96
161 83 94
162 84 95
168 86 97
160 82 93
161 83 95
163 84 95
161 83 95
160 82 94
165 84 95
159 83 95
164 84 96
163 84 96
165 85 96
166 85 96
161 83 94
160 82 93
162 84 95
164 84 95
164 84 96
158 82 93
161 83 96
155 81 94
159 82 94
162 84 96
164 84 96
163 84 96
160 83 95
162 84 96
160 83 95
161 83 96
161 83 95
161 83 95
159 82 94
160 83 94
156 81 93
159 82 95
156 81 95
163 84 97
162 83 95
151 80 94
162 84 96
160 82 95
163 84 96
155 81 93
160 83 96
159 83 96
157 81 94
156 81 95
157 82 95
156 81 94
161 83 95
149 78 92
155 80 92
156 82 96
152 80 95
150 78 91
155 81 95
152 80 95
141 75 90
148 78 92
153 80 94
153 80 94
152 80 93
155 81 96
199 200 222
212 231 255
212 231 255
212 231 255
212 231 255
212 230 255
212 230 255
212 230 255
212 230 255
212 230 255
212 230 255
212 230 255
212 230 255
212 230 255
212 230 255
212 230 255
212 230 255
212 230 255
212 230 255
173 197 239
73 122 206
77 129 213
75 127 211
74 127 213
74 127 213
76 128 210
73 124 208
75 126 211
75 127 212
75 128 215
76 130 217
75 128 213
74 126 210
75 128 214
75 129 217
75 129 215
72 125 210
74 127 213
77 131 218
75 128 213
73 125 209
74 127 213
76 130 215
76 129 216
75 126 210
75 129 215
75 127 212
75 128 213
74 128 214
75 128 213
75 129 214
76 130 217
75 127 212
73 124 207
77 130 216
76 129 215
75 129 216
74 126 212
74 127 212
77 130 215
73 125 210
74 127 214
74 127 211
75 128 212
74 127 213
75 129 214
74 127 211
74 128 213
75 128 215
74 129 214
76 129 214
75 129 212
75 129 215
73 127 210
71 125 205
78 130 210
168 194 237
212 230 255
212 230 255
212 230 255
212 230 255
212 230 255
212 230 255
212 230 255
212 230 255
212 230 255
212 230 255
212 230 255
212 230 255
212 230 255
212 230 255
212 231 255
212 231 255
212 231 255
212 231 255
173 211 215
75 170 128
74 175 126
68 165 121
66 160 118
69 165 121
70 168 123
68 164 121
68 164 121
72 171 123
69 165 120
70 167 123
72 172 124
74 174 125
70 167 122
73 172 123
74 173 123
74 173 123
70 166 120
70 168 122
73 173 124
70 167 121
76 177 126
76 176 123
74 174 124
73 171 123
73 172 123
74 173 124
74 173 123
74 174 123
75 175 123
71 168 120
74 174 122
71 168 120
74 174 123
75 176 124
75 176 124
74 173 121
74 175 125
73 171 122
75 175 123
77 177 124
74 172 120
75 176 124
73 172 122
74 173 122
76 176 123
75 175 123
74 174 123
74 171 121
76 177 124
75 176 123
74 171 120
74 173 122
77 178 125
73 170 120
75 173 121
74 173 123
77 179 125
75 175 123
75 174 123
75 175 122
76 177 125
76 176 124
73 172 123
75 174 122
76 176 123
77 179 126
75 174 123
72 169 119
75 175 123
74 174 124
76 177 124
75 175 124
79 181 126
117 188 159
199 223 239
215 232 255
215 232 255
215 232 255
215 232 255
215 232 255
215 232 255
215 232 255
216 232 255
216 232 255
216 232 255
216 232 255
216 232 255
216 232 255
216 232 255
216 232 255
216 232 255
216 232 255
216 232 255
216 233 255
216 233 255
216 233 255
216 233 255
216 233 255
216 233 255
216 233 255
216 233 255
216 233 255
216 233 255
216 233 255
216 233 255
216 233 255
216 233 255
216 233 255
216 233 255
216 233 255
216 233 255
216 233 255
216 233 255
216 233 255
216 233 255
216 233 255
216 233 255
216 233 255
216 233 255
216 233 255
216 233 255
216 233 255
216 233 255
216 233 255
216 233 255
216 233 255
216 233 255
216 233 255
216 233 255
216 233 255
216 233 255
216 233 255
216 233 255
216 233 255
216 233 255
216 233 255
216 233 255
216 232 255
216 232 255
216 232 255
216 232 255
216 232 255
216 232 255
216 232 255
216 232 255
216 232 255
204 204 225
167 104 117
165 85 96
161 83 96
157 81 92
159 82 94
160 82 93
158 81 93
164 84 96
160 82 94
163 83 94
162 83 95
164 85 97
162 84 95
161 82 94
165 85 97
162 83 95
162 83 95
164 84 96
161 84 96
163 84 96
166 85 96
162 83 95
163 84 95
159 82 94
165 85 97
159 82 93
162 84 96
167 85 96
158 81 92
155 81 92
163 84 96
164 84 96
158 82 93
157 82 94
163 84 96
163 84 95
159 82 94
157 82 94
164 85 97
161 83 94
165 85 96
161 83 94
158 82 94
164 84 96
158 82 94
161 83 96
165 85 97
157 81 94
159 82 95
160 83 95
152 80 93
159 82 95
158 82 95
159 82 95
161 83 95
155 81 94
159 83 95
161 83 95
158 82 94
154 80 94
158 82 96
157 81 94
162 84 97
152 80 94
152 80 93
153 80 94
153 80 94
158 82 95
156 82 96
153 80 94
149 78 92
150 79 93
150 79 93
149 79 95
151 80 95
154 81 95
147 78 93
179 161 180
213 231 255
213 231 255
213 231 255
213 231 255
213 231 255
212 231 255
212 231 255
212 231 255
212 231 255
212 231 255
212 231 255
212 231 255
212 231 255
212 231 255
212 230 255
212 230 255
180 202 240
76 123 204
73 124 209
72 119 199
74 124 208
73 125 209
76 126 211
76 128 213
75 124 207
74 126 210
73 122 204
72 124 208
75 127 212
76 129 216
73 123 207
76 130 216
76 129 213
73 124 207
74 127 213
72 123 208
75 127 212
75 127 211
75 128 213
73 125 208
76 129 214
77 131 218
75 128 213
76 128 212
76 129 216
75 128 214
74 126 210
74 126 210
76 130 216
75 128 211
77 130 215
73 126 211
73 126 212
74 126 210
75 129 215
74 127 211
76 129 213
74 127 213
74 127 212
75 127 211
75 128 213
75 129 214
74 126 209
74 127 211
73 126 210
75 128 213
76 128 212
69 122 202
74 127 213
76 129 214
74 127 211
73 126 209
72 126 208
74 128 208
79 129 204
185 207 244
212 230 255
212 230 255
212 230 255
212 231 255
212 231 255
212 231 255
212 231 255
212 231 255
212 231 255
212 231 255
212 231 255
213 231 255
213 231 255
213 231 255
213 231 255
213 231 255
160 201 203
71 170 125
68 165 120
70 167 122
64 156 118
72 171 123
70 169 121
71 170 124
66 160 118
70 168 123
71 170 122
71 168 122
70 167 122
72 171 123
71 168 122
72 170 122
72 170 122
72 170 121
73 173 124
69 164 118
73 171 122
73 170 122
72 170 122
73 170 121
71 169 120
71 168 122
72 170 121
73 171 121
74 174 123
73 171 122
74 173 122
75 174 123
75 176 125
74 172 122
73 171 122
72 170 122
73 171 121
74 174 123
73 173 123
76 176 124
75 176 124
74 171 121
73 171 122
74 173 122
75 175 123
74 173 122
72 169 120
76 176 123
75 174 123
74 172 122
75 175 123
75 176 124
76 175 123
75 175 124
74 174 123
75 174 123
73 171 121
76 176 123
75 175 123
74 173 121
73 171 121
73 172 122
75 175 123
75 173 122
74 173 122
75 175 124
75 174 123
76 177 124
74 172 121
75 175 123
75 173 121
75 174 122
75 174 123
76 176 124
75 175 124
75 175 123
77 177 124
101 180 144
189 218 228
216 232 255
216 232 255
216 232 255
216 232 255
216 232 255
216 232 255
216 232 255
216 232 255
216 232 255
216 233 255
216 233 255
216 233 255
216 233 255
216 233 255
216 233 255
216 233 255
216 233 255
216 233 255
216 233 255
216 233 255
216 233 255
216 233 255
216 233 255
216 233 255
216 233 255
216 233 255
216 233 255
216 233 255
216 233 255
216 233 255
216 233 255
216 233 255
216 233 255
216 233 255
216 233 255
217 233 255
217 233 255
217 233 255
217 233 255
217 233 255
217 233 255
217 233 255
216 233 255
216 233 255
216 233 255
216 233 255
216 233 255
216 233 255
216 233 255
216 233 255
216 233 255
216 233 255
216 233 255
216 233 255
216 233 255
216 233 255
216 233 255
216 233 255
216 233 255
216 233 255
216 233 255
216 233 255
216 233 255
216 233 255
216 233 255
216 233 255
216 233 255
216 233 255
216 233 255
204 204 225
164 92 104
160 83 95
159 82 94
165 85 96
162 84 96
163 83 95
161 83 94
162 83 94
163 84 95
163 83 95
157 82 94
158 81 93
166 85 96
163 84 95
161 82 93
161 83 95
167 86 97
155 80 91
160 82 94
161 83 95
162 83 94
158 81 93
161 83 95
162 84 95
165 84 96
160 83 94
163 83 94
157 81 93
157 81 92
159 82 94
160 82 94
164 84 96
163 84 95
159 82 94
158 81 93
162 83 94
158 82 93
165 85 96
163 84 95
160 83 95
159 82 94
157 82 94
163 84 96
159 82 93
160 83 95
157 81 94
164 84 95
152 79 91
157 81 93
157 81 94
156 81 94
164 84 95
156 81 93
158 82 94
159 82 95
156 81 94
155 81 93
162 83 95
152 79 93
155 81 94
158 82 94
147 78 92
163 84 95
155 80 94
152 80 94
153 79 93
150 79 94
153 80 94
147 78 92
152 80 94
156 81 94
151 80 94
143 76 92
152 80 94
149 79 94
148 78 93
147 78 93
151 80 95
141 76 92
182 164 183
213 231 255
213 231 255
213 231 255
213 231 255
213 231 255
213 231 255
213 231 255
213 231 255
213 231 255
213 231 255
213 231 255
213 231 255
213 231 255
213 231 255
205 224 253
103 139 207
71 118 197
76 129 214
73 124 208
75 126 210
75 126 211
73 124 208
73 122 205
74 124 207
75 128 213
75 127 211
74 127 214
74 126 209
73 124 208
74 127 213
74 127 212
72 124 206
74 126 211
75 128 214
74 126 210
75 128 213
72 124 208
72 124 209
74 126 210
74 127 211
75 127 211
77 130 214
75 128 212
75 127 212
75 127 211
75 129 215
74 127 212
75 127 212
73 125 209
75 128 213
77 130 215
73 126 211
76 129 216
75 128 213
72 124 209
74 126 210
74 127 212
75 128 213
76 129 213
75 128 212
72 125 207
75 128 212
73 125 209
74 127 208
72 126 209
75 129 214
75 129 216
72 124 205
73 126 209
72 125 206
74 128 213
72 126 206
71 124 200
72 127 210
96 141 216
201 221 252
213 231 255
213 231 255
213 231 255
213 231 255
213 231 255
213 231 255
213 231 255
213 231 255
213 231 255
213 231 255
213 231 255
213 231 255
213 231 255
213 231 255
145 193 187
68 164 121
67 162 121
71 168 121
68 164 120
68 163 120
68 163 119
69 164 120
69 164 119
69 165 120
68 163 119
70 167 121
69 165 121
70 165 119
71 169 122
70 168 123
72 169 121
71 169 122
70 166 120
74 174 124
69 165 119
72 170 122
72 169 120
71 167 120
74 173 122
71 168 121
72 170 121
73 170 121
72 171 123
71 168 120
76 176 124
74 172 122
70 166 120
74 173 122
73 171 121
73 172 122
72 170 121
73 170 121
73 172 122
74 173 122
76 175 123
75 174 123
72 169 120
73 172 122
73 171 120
74 172 122
73 171 121
74 173 122
73 170 121
74 173 122
75 175 124
73 171 120
76 177 124
74 173 122
75 175 123
76 176 124
76 177 123
74 171 120
75 174 122
74 172 121
76 176 123
75 175 123
75 174 122
74 174 123
75 175 122
72 169 120
76 175 123
74 172 121
74 173 121
76 176 123
75 174 122
75 173 121
76 177 124
75 175 124
75 173 122
75 176 124
73 171 120
72 168 119
74 172 121
98 179 140
191 220 230
216 233 255
216 233 255
216 233 255
216 233 255
216 233 255
216 233 255
216 233 255
216 233 255
216 233 255
216 233 255
216 233 255
216 233 255
216 233 255
216 233 255
216 233 255
216 233 255
216 233 255
216 233 255
216 233 255
216 233 255
216 233 255
216 233 255
216 233 255
216 233 255
216 233 255
216 233 255
216 233 255
217 233 255
217 233 255
217 233 255
217 233 255
217 233 255
217 233 255
217 233 255
217 233 255
217 233 255
217 233 255
217 233 255
217 233 255
217 233 255
217 233 255
217 233 255
217 233 255
217 233 255
217 233 255
217 233 255
217 233 255
217 233 255
217 233 255
217 233 255
217 233 255
216 233 255
216 233 255
216 233 255
216 233 255
216 233 255
216 233 255
216 233 255
216 233 255
216 233 255
216 233 255
216 233 255
216 233 255
216 233 255
216 233 255
216 233 255
216 233 255
205 209 230
165 93 105
164 84 95
162 84 95
167 85 96
162 83 95
157 82 94
157 81 93
165 85 96
159 82 93
164 84 94
165 85 96
161 83 94
163 84 96
163 83 94
158 81 92
163 83 95
165 84 95
159 82 94
161 83 94
156 81 92
160 82 94
159 82 93
164 84 95
166 85 96
161 83 94
159 82 94
159 82 93
155 80 91
161 83 94
164 84 95
159 81 92
156 81 93
161 83 94
159 81 93
161 83 95
156 81 93
163 84 95
158 81 92
157 81 93
157 81 93
156 80 92
159 82 94
158 82 95
160 82 94
163 83 94
161 83 95
156 81 93
158 81 94
157 82 94
154 81 93
158 81 93
158 82 94
154 80 93
150 79 93
155 81 95
152 79 92
159 82 93
153 80 93
163 84 95
152 79 92
156 80 93
158 82 95
156 81 93
158 82 95
155 81 94
155 81 94
152 80 94
154 81 94
152 80 93
155 80 94
150 79 94
155 81 94
149 78 94
143 77 94
141 75 90
148 78 92
144 77 93
147 78 93
150 79 94
151 80 94
152 80 95
182 170 190
213 231 255
213 231 255
213 231 255
213 231 255
213 231 255
213 231 255
213 231 255
213 231 255
213 231 255
213 231 255
213 231 255
213 231 255
211 230 255
139 169 225
74 122 203
72 122 205
72 122 205
72 122 203
75 125 209
73 123 205
73 124 207
73 124 208
74 125 208
75 128 213
74 126 210
74 124 207
73 125 210
74 126 212
74 125 209
75 125 207
73 126 211
76 128 213
73 125 210
74 127 212
75 127 211
75 127 212
76 128 213
74 126 209
76 129 214
71 122 204
73 125 209
75 127 212
76 128 213
75 127 212
75 127 211
74 126 211
74 126 209
74 126 210
73 126 213
75 128 214
75 127 211
72 123 207
74 127 211
74 126 210
75 128 212
76 129 213
75 128 214
73 125 209
74 126 212
73 125 209
73 125 207
74 126 207
74 125 208
73 126 210
74 126 209
72 125 205
75 129 211
76 129 213
73 124 207
76 130 214
76 130 215
72 125 208
70 124 205
70 123 203
125 160 220
210 228 254
213 231 255
213 231 255
213 231 255
213 231 255
213 231 255
213 231 255
213 231 255
213 231 255
213 231 255
213 231 255
213 231 255
213 231 255
160 201 202
68 164 121
70 167 123
69 164 119
71 169 123
67 162 119
69 163 119
68 163 118
69 166 122
66 158 116
69 165 119
70 168 121
73 173 124
69 165 121
68 163 120
69 166 121
71 168 123
71 168 120
72 171 122
69 164 120
73 173 124
71 168 121
72 169 121
69 164 118
69 163 117
73 172 122
74 172 122
75 176 124
73 170 121
74 175 124
75 173 122
73 171 122
74 173 122
74 172 121
74 174 124
71 169 121
73 170 122
72 171 121
73 171 122
74 172 121
74 173 123
72 169 120
73 169 120
74 172 121
76 176 123
75 173 121
73 170 121
74 173 123
74 174 123
73 170 121
73 171 120
77 177 123
74 172 121
75 174 123
72 170 121
73 171 121
75 174 122
76 176 124
74 174 123
74 172 120
76 176 124
76 176 123
74 173 121
74 173 122
75 174 123
74 172 121
75 175 123
73 172 121
73 171 121
75 173 122
74 171 119
75 175 124
73 170 120
76 176 123
74 172 121
74 172 122
73 171 121
74 173 123
74 173 122
74 173 122
73 172 121
84 179 131
196 222 235
216 233 255
216 233 255
216 233 255
216 233 255
216 233 255
216 233 255
216 233 255
216 233 255
216 233 255
216 233 255
216 233 255
216 233 255
216 233 255
216 233 255
216 233 255
216 233 255
216 233 255
217 233 255
217 233 255
217 233 255
217 233 255
217 233 255
217 233 255
217 233 255
217 233 255
217 233 255
217 233 255
217 233 255
217 233 255
217 233 255
217 233 255
217 233 255
217 233 255
217 233 255
217 233 255
217 233 255
217 233 255
217 233 255
217 233 255
217 233 255
217 233 255
217 233 255
217 233 255
217 233 255
217 233 255
217 233 255
217 233 255
217 233 255
217 233 255
217 233 255
217 233 255
217 233 255
217 233 255
217 233 255
217 233 255
217 233 255
217 233 255
217 233 255
217 233 255
216 233 255
216 233 255
216 233 255
216 233 255
216 233 255
216 233 255
211 222 244
171 109 122
161 83 94
156 81 92
168 86 97
158 81 91
161 83 94
159 81 92
160 82 93
159 82 93
163 83 95
167 85 97
161 83 95
165 84 96
161 83 95
163 84 95
160 82 94
161 83 94
157 81 92
161 82 93
163 84 95
159 82 94
159 82 94
162 83 95
159 81 93
161 83 94
153 79 91
160 82 94
161 83 94
161 83 94
156 81 94
166 85 96
164 83 95
157 82 94
162 83 95
160 82 94
162 83 95
161 83 95
158 81 92
162 83 94
163 84 96
165 84 95
161 83 96
159 82 93
158 82 95
160 82 94
157 81 94
157 81 93
160 83 95
159 82 93
158 82 94
163 84 95
155 81 93
157 81 93
157 82 94
154 80 94
156 81 94
149 78 90
151 79 92
155 80 93
160 83 95
154 81 94
152 80 95
148 78 92
153 81 95
152 79 92
152 79 92
151 79 92
148 77 91
151 80 94
151 79 93
144 76 90
143 76 92
147 77 92
151 80 95
143 77 92
148 78 92
147 78 93
153 80 94
128 69 85
140 75 91
141 75 91
154 81 96
144 77 93
192 186 207
214 231 255
214 231 255
214 231 255
214 231 255
214 231 255
213 231 255
213 231 255
213 231 255
213 231 255
213 231 255
213 231 255
183 206 246
73 123 206
73 122 204
74 126 211
76 126 209
74 124 207
74 126 210
74 125 207
71 121 203
75 128 212
72 123 205
74 126 211
73 125 208
74 125 210
73 125 210
75 127 211
74 127 211
75 127 210
74 126 210
75 128 213
75 129 216
74 126 208
71 123 207
75 127 211
74 126 210
71 122 204
75 128 212
72 124 206
74 126 210
74 126 211
75 128 214
74 126 209
76 129 215
74 126 211
75 127 210
74 127 211
74 126 211
75 127 210
73 125 209
74 127 211
75 128 214
76 130 217
75 128 213
74 127 212
75 128 211
74 127 210
72 125 207
74 126 210
75 126 210
75 128 213
72 124 207
75 128 212
76 129 215
74 126 209
72 124 206
76 129 212
72 124 208
71 124 203
73 126 209
70 123 203
71 124 204
74 128 211
69 121 198
163 189 230
213 231 255
213 231 255
213 231 255
213 231 255
213 231 255
213 231 255
214 231 255
214 231 255
214 231 255
214 231 255
214 231 255
175 208 216
71 162 123
67 163 120
60 149 112
65 159 119
65 158 118
67 163 120
65 159 118
68 164 120
64 155 116
66 158 115
67 160 117
71 168 122
71 167 121
69 164 118
71 168 122
69 163 119
69 164 118
70 166 120
71 170 123
71 167 121
72 169 121
71 168 121
70 165 119
70 166 120
73 170 121
70 165 119
70 167 121
74 173 123
73 172 123
75 175 123
73 172 123
72 168 120
71 168 120
73 172 123
71 167 120
72 168 119
72 169 119
75 175 123
71 167 118
74 173 123
72 169 120
75 174 123
74 172 121
74 172 122
76 176 124
74 173 123
75 174 123
75 176 125
74 173 123
74 173 122
72 168 119
74 172 121
75 176 123
74 172 121
72 171 122
73 172 121
75 173 122
75 174 122
72 169 119
71 168 118
74 171 120
76 176 124
76 176 124
74 172 121
73 171 121
75 174 123
76 176 124
74 172 121
75 174 122
74 173 122
75 173 122
75 173 120
74 172 121
75 175 123
74 172 121
74 173 122
75 176 124
74 172 121
74 173 122
75 174 122
73 169 119
74 173 122
87 176 132
198 223 237
216 233 255
216 233 255
216 233 255
216 233 255
216 233 255
216 233 255
217 233 255
217 233 255
217 233 255
217 233 255
217 233 255
217 233 255
217 233 255
217 233 255
217 233 255
217 233 255
217 233 255
217 233 255
217 233 255
217 233 255
217 233 255
217 233 255
217 233 255
217 233 255
217 233 255
217 233 255
217 233 255
217 233 255
217 233 255
217 233 255
217 233 255
217 233 255
217 233 255
217 233 255
217 233 255
217 233 255
217 233 255
217 233 255
217 233 255
217 233 255
217 233 255
217 233 255
217 233 255
217 233 255
217 233 255
217 233 255
217 233 255
217 233 255
217 233 255
217 233 255
217 233 255
217 233 255
217 233 255
217 233 255
217 233 255
217 233 255
217 233 255
217 233 255
217 233 255
217 233 255
217 233 255
217 233 255
217 233 255
217 233 255
172 121 135
164 84 95
164 84 95
162 83 94
163 83 94
163 84 96
161 83 94
159 82 94
159 82 93
163 84 95
162 83 94
159 82 93
158 82 94
159 82 94
156 81 93
164 84 95
163 83 93
165 85 97
163 83 95
160 82 94
161 81 92
160 82 93
161 82 93
160 82 94
163 83 95
160 82 92
159 81 93
157 81 92
161 83 95
156 81 93
160 82 93
160 82 92
163 83 94
163 84 95
155 80 92
159 82 93
160 82 94
158 81 92
158 81 93
158 81 93
159 82 94
162 83 95
161 83 96
155 80 92
159 82 94
162 83 94
157 82 94
160 82 94
158 82 94
158 81 94
156 81 93
154 80 94
159 82 94
157 81 93
155 80 93
152 79 92
160 83 94
152 80 92
155 81 93
151 79 92
153 79 92
151 79 93
156 80 93
153 80 92
155 81 95
150 79 92
153 80 93
153 80 94
157 82 95
154 80 93
151 79 92
139 74 88
146 77 92
141 75 91
140 74 90
142 75 90
149 79 93
144 76 92
142 75 91
143 76 92
145 78 94
142 76 92
141 75 90
144 77 94
142 76 92
194 192 213
214 231 255
214 231 255
214 231 255
214 231 255
214 231 255
214 231 255
214 231 255
214 231 255
214 231 255
206 224 251
106 141 207
70 115 192
73 122 203
73 119 198
74 123 206
73 124 207
72 121 203
73 122 203
75 128 214
75 125 208
74 126 208
74 126 210
74 125 210
73 123 206
74 125 209
73 125 210
75 128 213
74 126 211
75 127 212
74 126 211
74 127 212
75 127 210
72 124 209
71 120 201
76 129 213
74 127 213
72 123 205
73 125 209
74 126 211
74 127 213
74 126 211
75 128 214
76 129 214
75 128 213
73 125 210
73 126 209
73 126 210
75 129 214
75 127 211
72 125 209
74 126 210
72 124 207
75 129 215
75 128 212
73 125 207
77 131 217
75 128 212
74 126 208
72 123 207
74 127 211
73 126 208
74 127 210
75 128 211
74 127 211
72 125 208
76 130 214
73 125 205
75 127 211
72 125 205
72 125 209
74 126 209
71 125 204
69 124 203
82 130 200
204 223 251
214 231 255
214 231 255
214 231 255
214 231 255
214 231 255
214 231 255
214 231 255
214 231 255
214 231 255
185 216 226
83 171 132
70 167 120
65 159 119
67 162 120
64 157 117
63 156 118
66 159 117
66 161 119
63 153 114
66 159 117
66 162 120
65 157 116
70 166 120
69 164 120
69 165 121
68 161 117
69 165 119
68 162 119
67 162 118
70 166 120
71 168 122
73 171 123
68 159 115
72 169 121
73 171 122
71 165 119
69 164 118
72 167 119
71 166 120
71 167 119
71 168 120
70 167 120
75 175 124
72 170 121
70 166 118
75 174 122
73 170 120
73 171 122
75 175 123
73 171 121
69 165 119
73 171 121
73 169 120
72 168 121
74 172 121
73 169 120
73 171 122
73 170 120
73 172 121
76 175 123
73 171 120
71 167 118
76 177 124
74 172 121
74 172 121
74 172 122
76 175 123
74 172 120
75 175 123
74 172 122
76 176 123
73 171 120
75 176 124
73 171 120
74 173 123
74 173 122
77 178 125
73 171 120
73 171 120
74 172 121
75 174 122
76 176 123
73 171 120
74 173 122
74 172 121
75 174 123
74 173 122
74 172 120
74 174 123
73 173 123
75 174 122
75 174 123
75 174 123
74 173 122
118 188 159
212 230 250
217 233 255
217 233 255
217 233 255
217 233 255
217 233 255
217 233 255
217 233 255
217 233 255
217 233 255
217 233 255
217 233 255
217 233 255
217 233 255
217 233 255
217 233 255
217 233 255
217 233 255
217 233 255
217 233 255
217 233 255
217 233 255
217 233 255
217 233 255
217 233 255
217 233 255
217 233 255
217 233 255
217 233 255
217 233 255
217 233 255
217 233 255
217 233 255
217 233 255
217 233 255
217 233 255
217 233 255
217 233 255
217 233 255
217 233 255
217 233 255
217 233 255
217 233 255
217 233 255
217 233 255
217 233 255
217 233 255
217 233 255
217 233 255
217 233 255
217 233 255
217 233 255
217 233 255
217 233 255
217 233 255
217 233 255
217 233 255
217 233 255
217 233 255
217 233 255
217 233 255
217 233 255
217 233 255
180 148 163
163 84 95
163 84 95
160 82 94
159 82 93
160 82 94
159 82 94
159 82 93
161 83 94
157 81 92
162 83 94
157 81 93
165 84 95
157 81 92
164 84 95
159 82 94
160 82 94
163 84 95
161 82 93
162 83 95
163 84 95
157 80 91
160 82 92
160 82 93
161 83 95
162 83 95
157 81 93
159 82 93
162 83 95
159 82 93
159 82 93
159 82 94
164 84 95
161 82 93
156 80 92
160 83 96
165 84 95
160 83 95
158 81 93
161 83 94
156 80 92
157 81 92
156 81 92
154 81 93
155 80 92
154 80 91
162 83 95
160 82 94
161 83 95
159 82 94
156 81 93
158 82 95
152 78 89
155 80 91
149 78 91
159 82 95
159 82 94
160 83 95
159 82 93
156 81 93
154 80 93
159 82 94
153 80 92
150 79 92
149 78 91
154 80 93
152 80 94
154 80 93
157 81 94
152 79 92
154 80 94
150 78 91
148 78 91
144 76 91
140 74 88
144 76 91
136 72 89
146 76 90
136 72 87
145 77 92
132 72 90
135 72 89
137 74 92
148 79 95
145 77 92
145 76 90
163 103 117
206 217 240
214 232 255
214 232 255
214 232 255
214 232 255
214 232 255
214 232 255
214 232 255
214 232 255
146 172 220
71 116 195
72 118 198
72 120 199
74 123 205
75 128 214
71 121 202
74 124 206
74 125 209
72 122 204
74 126 209
75 127 210
74 126 209
74 125 207
74 126 211
75 126 210
74 125 208
74 126 210
74 127 212
75 128 213
73 124 209
74 126 210
72 124 206
75 127 211
75 127 213
74 125 210
75 128 213
74 127 213
72 124 208
75 127 212
72 124 208
74 127 212
72 124 206
73 125 209
74 126 209
76 129 213
73 125 208
74 127 213
75 128 213
76 129 214
74 126 209
74 127 212
74 125 208
72 123 204
72 124 208
74 128 213
75 127 212
72 124 207
73 126 209
76 129 213
73 125 209
74 126 207
75 127 212
74 127 210
73 126 208
73 125 204
73 125 207
73 125 205
71 124 206
73 127 209
72 124 207
72 125 205
72 123 205
70 124 200
69 125 202
148 177 228
214 232 255
214 232 255
214 232 255
214 232 255
214 232 255
214 232 255
214 232 255
214 232 255
206 226 247
91 166 138
62 153 115
57 144 111
65 159 118
67 161 118
63 154 115
63 154 115
65 159 119
64 155 115
69 165 119
68 162 119
68 163 118
65 156 115
68 162 118
70 165 118
66 158 116
69 163 119
68 161 117
68 163 118
72 170 122
69 164 119
69 164 116
73 172 123
70 166 119
70 165 120
71 168 121
71 167 120
71 168 121
72 168 120
72 169 122
73 171 122
73 170 121
71 167 120
71 168 119
73 171 121
74 172 121
71 168 119
70 165 118
75 174 123
74 173 122
75 175 124
71 167 119
73 171 122
74 174 123
75 174 123
73 171 121
72 168 119
71 167 119
73 170 120
74 172 122
76 176 124
72 167 118
74 172 121
74 173 123
74 172 121
74 171 120
73 171 120
73 171 120
74 172 121
73 169 119
74 174 122
74 172 122
76 176 123
74 173 121
73 170 120
72 168 119
74 172 121
74 173 122
72 170 120
73 171 120
75 174 122
75 173 121
74 173 122
75 174 122
74 172 120
75 172 120
75 174 122
72 167 118
74 172 121
73 171 120
76 175 122
74 172 122
73 171 120
75 175 123
72 169 119
72 168 118
116 183 155
217 233 255
217 233 255
217 233 255
217 233 255
217 233 255
217 233 255
217 233 255
217 233 255
217 233 255
217 233 255
217 233 255
217 233 255
217 233 255
217 233 255
217 233 255
217 233 255
217 233 255
217 233 255
217 233 255
217 233 255
217 233 255
217 233 255
217 233 255
217 233 255
217 233 255
217 233 255
217 233 255
217 233 255
217 233 255
217 233 255
217 233 255
218 234 255
218 234 255
218 234 255
218 234 255
218 233 255
218 233 255
218 233 255
218 233 255
218 233 255
218 233 255
217 233 255
217 233 255
217 233 255
217 233 255
217 233 255
217 233 255
217 233 255
217 233 255
217 233 255
217 233 255
217 233 255
217 233 255
217 233 255
217 233 255
217 233 255
217 233 255
217 233 255
217 233 255
217 233 255
217 233 255
202 197 216
159 81 93
166 85 96
159 82 94
158 82 93
162 83 95
160 83 94
159 82 93
163 84 95
165 84 95
159 82 93
162 83 94
160 83 94
159 81 92
161 83 94
161 83 94
163 83 93
160 82 94
161 83 95
163 83 95
160 81 92
161 82 93
155 80 90
159 82 93
158 82 94
168 86 96
161 83 94
160 81 92
157 81 92
161 83 95
159 82 94
163 83 94
159 82 93
158 81 93
161 83 94
166 85 96
159 82 94
162 83 95
160 82 93
161 83 95
160 82 94
155 80 91
156 81 93
162 84 96
158 82 94
156 81 93
155 81 93
159 82 93
159 82 95
156 81 92
159 82 94
157 81 93
156 81 93
156 81 92
157 81 92
156 81 93
161 83 94
153 80 92
162 83 94
148 77 90
154 80 94
151 79 92
148 77 91
152 80 95
154 80 93
155 81 94
153 80 92
154 80 94
152 79 93
160 83 96
138 73 88
146 77 91
149 77 90
146 76 90
137 73 89
138 73 87
133 72 89
144 75 89
145 76 89
144 76 90
138 73 87
135 73 90
134 72 88
138 73 88
134 72 88
139 72 86
136 73 89
139 74 90
164 141 159
215 232 255
215 232 255
215 232 255
215 232 255
215 232 255
215 232 255
215 232 255
187 208 241
73 119 198
71 119 200
73 119 198
72 123 207
72 121 202
72 120 200
72 122 204
74 124 207
72 121 202
75 125 207
74 125 209
74 125 209
75 127 211
74 126 210
75 128 212
74 125 208
73 124 208
74 126 210
73 125 209
75 128 211
74 125 208
74 126 210
71 123 207
72 124 207
72 123 207
74 126 211
73 124 207
74 126 210
75 128 211
73 125 208
75 128 213
74 125 207
74 126 210
75 128 212
75 127 211
73 125 208
71 122 205
74 126 209
72 123 206
72 124 207
73 126 209
74 126 208
73 125 211
74 126 210
73 126 210
75 128 212
72 124 207
71 122 203
71 121 201
75 129 215
77 129 213
73 125 207
71 123 203
73 125 206
73 126 209
75 128 213
72 124 207
71 124 204
70 122 202
73 127 207
74 126 208
72 125 206
68 122 196
71 125 203
68 122 200
76 125 196
190 211 240
214 232 255
215 232 255
215 232 255
215 232 255
215 232 255
215 232 255
215 232 255
120 177 162
63 153 113
64 156 116
60 148 114
63 155 116
63 155 116
61 150 115
64 156 116
65 158 116
64 155 115
67 161 120
67 161 117
69 165 119
65 156 114
68 163 118
69 164 120
68 163 120
65 157 116
65 157 116
71 168 121
70 164 117
70 165 119
71 167 118
69 164 120
69 163 119
71 168 121
71 168 121
71 167 120
70 165 120
71 167 120
73 170 122
70 166 120
71 168 121
73 170 121
73 171 122
67 160 117
74 172 121
71 166 118
71 167 119
72 168 119
72 170 121
75 174 123
74 173 121
74 173 123
72 169 120
76 175 123
73 171 122
72 168 119
75 174 123
75 173 122
74 171 120
72 168 119
74 174 123
74 173 122
74 174 123
74 173 122
72 168 119
74 171 120
75 173 122
74 172 120
73 169 120
72 168 119
74 171 120
75 173 120
75 174 123
74 173 122
74 172 121
75 174 121
73 171 121
74 173 122
74 172 120
74 174 122
74 171 120
74 171 120
74 171 120
74 173 122
74 172 121
73 172 121
73 170 120
74 173 123
73 170 119
72 169 119
74 171 121
73 171 120
73 171 121
74 171 121
74 172 121
74 173 121
168 207 206
217 233 255
217 233 255
217 233 255
217 233 255
217 233 255
217 233 255
217 233 255
217 233 255
217 233 255
217 233 255
217 233 255
217 233 255
217 233 255
217 233 255
217 233 255
217 233 255
217 233 255
217 233 255
217 233 255
217 233 255
218 233 255
218 233 255
218 233 255
218 233 255
218 233 255
218 233 255
218 234 255
218 234 255
218 234 255
218 234 255
218 234 255
218 234 255
218 234 255
218 234 255
218 234 255
218 234 255
218 234 255
218 234 255
218 234 255
218 234 255
218 234 255
218 234 255
218 234 255
218 234 255
218 234 255
218 234 255
218 233 255
218 233 255
218 233 255
218 233 255
218 233 255
217 233 255
217 233 255
217 233 255
217 233 255
217 233 255
217 233 255
217 233 255
217 233 255
212 218 239
164 96 108
164 84 95
162 83 95
163 83 93
161 83 95
160 82 93
162 84 95
163 83 94
154 79 91
160 82 93
159 82 93
157 81 92
156 80 90
161 83 94
159 82 93
160 82 94
161 83 95
161 83 94
161 83 94
161 82 93
166 85 97
162 83 94
162 83 93
157 81 92
160 82 93
155 81 92
158 81 92
160 82 93
158 82 93
157 81 92
159 82 93
163 83 95
160 82 92
160 82 93
163 83 95
153 79 91
160 82 94
160 82 94
158 82 93
162 83 94
162 83 95
159 82 93
160 83 94
160 82 93
159 81 92
155 80 93
155 80 92
159 82 95
157 81 93
150 78 90
158 82 94
156 80 91
154 80 91
160 82 94
157 82 95
154 80 92
156 81 92
157 81 93
153 79 91
154 79 92
153 80 94
150 78 92
150 78 91
154 80 93
148 77 91
149 77 90
155 81 94
139 73 87
156 81 93
150 78 91
148 77 90
145 77 92
137 73 89
137 73 88
150 79 93
150 79 93
144 76 90
143 75 90
143 76 91
136 73 88
136 72 88
135 72 89
129 69 86
137 72 87
134 72 88
131 71 87
138 73 89
130 70 86
134 72 88
187 178 197
215 232 255
215 232 255
215 232 255
215 232 255
215 232 255
215 232 255
144 171 223
72 118 199
73 122 203
73 122 205
73 121 202
71 119 198
75 126 209
75 127 211
72 121 201
75 128 214
75 124 205
73 124 207
74 125 208
74 124 206
70 119 201
74 124 206
74 125 208
73 124 207
74 126 210
75 126 208
74 125 207
73 125 208
75 128 212
74 126 209
74 126 211
75 127 212
75 126 209
76 128 212
74 127 212
73 125 208
72 124 208
72 124 207
73 125 209
73 125 210
74 126 211
75 128 213
73 125 210
74 127 212
75 128 212
75 128 211
74 126 209
71 121 203
73 124 208
74 126 208
74 125 207
74 127 210
73 124 206
74 126 211
73 124 205
74 126 210
71 123 205
74 126 209
71 122 204
73 125 206
75 127 212
74 126 209
75 128 211
71 124 201
72 125 206
70 122 203
70 124 201
72 125 207
70 124 202
71 124 203
69 122 200
70 123 203
67 120 193
127 159 211
215 232 255
215 232 255
215 232 255
215 232 255
215 232 255
215 232 255
171 206 212
65 157 116
61 151 115
58 146 112
58 146 111
67 162 120
60 149 114
59 146 114
63 154 117
62 152 116
64 156 116
66 159 118
67 160 117
65 158 118
68 164 120
64 155 116
66 159 117
69 165 119
66 158 115
69 164 120
68 162 119
68 163 119
71 167 119
70 165 119
67 159 116
68 162 117
70 165 118
69 164 120
73 170 122
69 164 118
67 160 116
71 165 118
70 166 118
67 160 116
71 166 118
68 159 115
72 169 120
72 166 118
70 166 119
73 171 121
72 168 119
74 172 121
74 172 120
74 173 122
70 165 118
73 171 122
72 167 118
74 171 121
71 167 118
74 172 121
73 170 120
71 167 119
73 171 121
75 174 122
74 170 119
72 169 120
75 174 122
73 168 118
72 168 118
74 171 120
72 170 121
71 167 118
73 170 120
74 172 121
72 167 118
73 171 119
72 167 118
75 173 122
74 171 121
73 171 120
74 173 122
75 174 122
73 169 119
72 168 118
71 167 118
73 171 121
73 171 120
72 169 119
73 170 120
74 172 121
73 169 119
76 175 122
75 173 121
75 173 121
74 171 120
72 168 118
75 174 122
74 171 120
74 172 121
94 177 136
214 231 252
217 233 255
217 233 255
217 233 255
217 233 255
217 233 255
217 233 255
217 233 255
217 233 255
218 233 255
218 233 255
218 233 255
218 233 255
218 233 255
218 234 255
218 234 255
218 234 255
218 234 255
218 234 255
218 234 255
218 234 255
218 234 255
218 234 255
218 234 255
218 234 255
218 234 255
218 234 255
218 234 255
218 234 255
218 234 255
218 234 255
218 234 255
218 234 255
218 234 255
218 234 255
218 234 255
218 234 255
218 234 255
218 234 255
218 234 255
218 234 255
218 234 255
218 234 255
218 234 255
218 234 255
218 234 255
218 234 255
218 234 255
218 234 255
218 234 255
218 234 255
218 234 255
218 234 255
218 234 255
218 234 255
218 234 255
218 234 255
218 234 255
218 233 255
178 135 149
162 83 94
163 83 94
159 82 93
157 81 92
159 82 93
157 81 92
159 82 93
163 83 95
157 80 92
155 80 91
158 82 93
159 82 93
158 81 92
162 83 93
162 83 93
157 80 91
158 81 91
160 82 93
158 81 93
155 80 92
159 82 93
155 80 90
162 83 94
162 83 94
158 81 92
159 82 93
157 82 94
163 83 94
158 81 91
160 82 93
162 83 94
156 80 92
160 82 92
162 83 95
161 82 93
158 82 93
160 83 94
158 81 93
160 82 94
159 81 92
159 82 93
153 79 91
159 82 93
158 81 92
160 82 92
155 81 93
160 82 94
157 81 93
158 81 93
156 80 93
156 81 94
158 81 93
156 81 93
156 81 93
157 81 92
146 77 89
155 80 92
157 81 93
156 81 93
159 82 95
149 78 91
152 79 92
157 81 94
152 79 92
157 81 93
144 75 89
150 78 92
148 78 91
146 76 90
152 79 92
153 80 92
151 79 93
141 74 87
144 75 89
141 75 90
140 74 88
149 77 91
151 80 94
150 78 92
125 67 84
142 74 88
134 71 86
139 74 88
134 71 86
133 71 87
130 70 87
129 68 83
131 71 87
131 71 89
138 90 106
213 227 250
215 232 255
215 232 255
215 232 255
215 232 255
202 219 245
70 108 180
69 116 195
72 120 201
71 117 195
73 122 203
70 118 198
75 125 207
74 125 208
74 126 209
72 124 206
72 121 201
76 129 213
74 127 213
72 122 204
70 120 200
75 127 210
72 123 207
74 126 209
74 126 212
74 126 209
75 127 210
74 126 210
73 123 206
72 123 205
72 124 207
75 127 211
73 125 209
74 127 211
76 129 213
72 124 207
75 127 211
74 126 211
76 130 214
73 124 208
73 123 205
74 126 209
72 124 207
73 124 206
72 123 206
73 125 208
75 128 212
74 126 211
74 127 210
73 125 208
73 124 206
71 121 202
73 126 209
75 129 215
73 125 209
75 127 212
74 127 211
73 125 207
73 125 205
73 125 206
72 124 206
72 123 204
71 122 202
73 125 206
73 126 211
75 127 209
71 122 202
70 123 201
73 126 211
71 126 204
68 121 197
71 124 205
68 122 197
65 118 191
208 226 250
215 232 255
215 232 255
215 232 255
215 232 255
210 228 250
82 160 130
59 147 109
53 138 111
57 142 110
63 154 115
54 140 110
61 151 112
62 151 111
59 147 112
60 148 112
62 152 114
65 159 119
63 154 115
69 164 120
66 159 116
63 155 116
69 164 118
65 159 119
68 162 118
70 167 122
61 149 111
69 163 119
69 164 118
68 163 118
71 167 121
68 162 118
71 167 120
72 169 121
68 162 117
71 168 120
71 167 119
70 165 118
70 166 118
70 165 119
74 171 120
69 162 117
68 161 115
70 165 118
72 168 119
71 167 119
72 168 118
74 171 120
74 172 120
74 173 123
73 169 120
76 176 124
73 171 121
73 171 120
72 169 120
72 169 119
71 165 117
74 172 121
74 172 121
77 177 123
74 171 120
75 174 122
73 170 120
75 174 122
74 172 120
74 172 120
74 171 120
73 171 121
74 173 121
73 171 120
74 170 119
74 173 121
75 174 123
73 171 120
74 172 121
73 169 118
76 174 122
74 172 121
73 171 120
72 168 118
73 171 120
73 169 118
73 169 118
76 176 123
75 173 120
72 168 118
73 171 120
75 174 121
76 175 123
75 173 121
72 168 119
73 171 121
76 175 122
74 171 120
76 174 121
75 174 122
123 185 161
218 233 255
218 234 255
218 234 255
218 234 255
218 234 255
218 234 255
218 234 255
218 234 255
218 234 255
218 234 255
218 234 255
218 234 255
218 234 255
218 234 255
218 234 255
218 234 255
218 234 255
218 234 255
218 234 255
218 234 255
218 234 255
218 234 255
218 234 255
218 234 255
218 234 255
218 234 255
218 234 255
218 234 255
218 234 255
218 234 255
218 234 255
218 234 255
218 234 255
218 234 255
218 234 255
218 234 255
218 234 255
218 234 255
218 234 255
218 234 255
218 234 255
218 234 255
218 234 255
218 234 255
218 234 255
218 234 255
218 234 255
218 234 255
218 234 255
218 234 255
218 234 255
218 234 255
218 234 255
218 234 255
218 234 255
218 234 255
218 234 255
204 204 224
157 81 92
157 81 93
157 81 92
161 82 93
160 82 93
162 83 94
160 82 93
161 83 93
161 82 94
157 81 92
160 82 93
161 83 94
156 80 91
163 84 95
159 81 91
162 83 93
163 83 95
162 83 94
161 82 93
161 83 94
151 77 88
159 82 93
162 83 94
162 83 94
158 81 92
159 82 94
160 82 93
157 81 92
157 80 91
157 81 92
160 82 94
166 84 95
160 82 93
160 82 93
160 82 93
162 83 94
162 82 92
158 81 92
158 81 92
163 83 94
159 82 93
154 80 92
158 82 95
159 82 93
153 79 90
154 79 91
156 80 91
155 80 93
159 82 95
158 81 92
153 79 90
151 78 91
158 81 93
160 82 93
154 80 92
156 80 91
153 79 90
153 79 91
156 81 93
148 77 91
157 80 92
154 79 91
149 77 89
152 79 92
148 78 91
154 80 93
153 80 92
152 79 92
150 77 89
147 76 90
142 74 87
139 73 87
146 77 90
143 75 90
146 76 90
141 74 87
145 76 90
141 74 90
140 73 88
126 68 83
136 71 86
135 72 88
136 71 86
126 68 84
129 70 88
133 71 86
126 67 83
125 67 83
120 65 82
124 67 84
115 64 84
162 148 166
216 232 255
216 232 255
216 232 255
216 232 255
149 171 214
71 118 198
70 112 187
73 121 202
71 118 196
71 120 201
73 123 204
73 123 206
74 123 203
73 123 205
73 121 201
73 123 205
73 123 204
72 123 206
72 121 202
71 119 198
73 124 205
72 123 205
74 126 210
72 123 207
73 125 208
74 126 209
73 124 206
75 127 210
76 129 214
73 125 209
76 128 212
73 124 206
73 125 210
73 125 208
74 125 209
74 125 207
75 127 212
73 124 207
74 126 209
74 127 210
73 125 207
74 126 209
74 126 211
73 125 209
74 125 206
72 123 204
74 126 210
73 125 208
72 123 205
73 125 209
74 126 207
74 126 209
74 126 208
73 124 205
71 121 201
72 123 204
73 124 206
72 124 208
71 123 202
74 126 207
72 124 206
71 122 203
73 126 208
71 122 202
74 125 207
72 125 205
70 122 198
68 120 195
71 124 203
69 120 198
69 123 199
68 120 193
65 119 189
161 186 224
216 232 255
216 232 255
216 232 255
216 232 255
144 187 184
62 152 113
58 146 111
61 152 116
57 144 111
57 143 110
53 135 105
60 149 112
58 144 108
69 166 121
61 149 112
62 152 112
65 156 114
61 149 113
68 162 118
66 159 118
67 160 117
65 157 115
66 160 116
68 162 117
66 158 115
69 163 119
66 156 112
68 162 117
68 161 118
65 156 114
68 162 117
68 161 116
70 164 118
71 167 121
70 166 119
72 169 120
73 170 121
72 168 120
70 165 119
72 169 120
72 169 120
72 167 117
70 165 118
73 170 120
73 170 120
71 167 119
72 169 120
73 170 120
73 171 121
73 171 121
71 167 119
72 166 117
72 168 120
75 173 121
73 170 120
73 170 121
73 170 119
73 169 120
73 169 120
71 166 117
75 174 122
73 170 120
71 166 118
72 168 118
74 171 119
73 169 119
73 171 120
76 176 123
72 168 118
73 170 120
74 172 120
74 173 123
74 172 121
75 174 122
74 171 121
75 173 121
73 171 120
74 171 120
75 174 122
74 172 120
70 166 118
75 173 122
75 174 122
74 173 122
74 173 122
72 168 118
72 168 119
74 172 121
73 171 120
72 168 118
76 175 122
74 171 120
75 172 121
74 171 120
75 174 122
74 171 120
188 216 225
218 234 255
218 234 255
218 234 255
218 234 255
218 234 255
218 234 255
218 234 255
218 234 255
218 234 255
218 234 255
218 234 255
218 234 255
218 234 255
218 234 255
218 234 255
218 234 255
218 234 255
218 234 255
218 234 255
218 234 255
218 234 255
218 234 255
218 234 255
218 234 255
218 234 255
218 234 255
218 234 255
218 234 255
218 234 255
218 234 255
218 234 255
218 234 255
218 234 255
218 234 255
218 234 255
218 234 255
218 234 255
218 234 255
218 234 255
218 234 255
218 234 255
218 234 255
218 234 255
218 234 255
218 234 255
218 234 255
218 234 255
218 234 255
218 234 255
218 234 255
218 234 255
218 234 255
218 234 255
218 234 255
218 234 255
218 234 255
170 124 137
159 82 93
157 81 92
158 81 92
156 80 91
161 82 93
160 82 93
159 81 92
159 82 93
158 81 93
156 81 92
164 83 94
160 82 93
156 80 91
160 81 92
159 81 92
163 83 94
157 81 92
159 81 92
159 82 93
161 83 95
162 83 94
151 78 89
159 82 93
161 82 93
159 82 93
160 81 92
156 80 90
158 80 91
163 84 95
164 84 95
160 81 92
164 84 96
160 82 93
159 82 93
161 82 93
161 82 93
158 81 92
161 83 95
158 82 93
152 79 91
156 80 91
153 79 91
160 82 93
154 79 91
152 78 89
159 81 93
160 82 93
152 79 90
155 80 92
154 80 91
153 79 90
150 78 90
160 82 94
148 77 89
153 79 91
149 78 89
160 82 94
149 78 90
157 80 92
151 79 92
159 82 94
154 80 93
153 79 92
148 77 90
146 75 88
148 77 90
150 78 92
149 78 92
148 77 90
150 78 91
146 77 91
147 77 91
145 75 88
145 77 91
139 74 90
141 74 89
140 74 89
139 73 88
131 70 85
130 69 85
137 73 87
135 71 85
127 70 88
128 70 87
126 67 81
127 69 87
131 69 84
123 67 85
136 72 87
128 69 86
121 66 84
128 69 87
204 216 237
216 233 255
216 233 255
213 229 253
80 123 199
70 112 187
72 120 200
71 120 201
74 125 208
72 120 199
74 126 211
74 126 209
72 123 205
73 124 208
72 120 199
74 125 208
75 126 208
75 127 210
73 122 203
72 122 205
73 124 206
73 125 209
75 128 212
75 128 212
75 127 211
73 125 209
72 123 205
72 123 207
73 124 206
73 125 208
71 122 204
75 127 212
73 125 208
72 123 206
72 124 206
74 126 209
73 125 207
74 126 209
74 125 206
72 122 205
73 125 208
72 123 205
73 125 207
73 125 207
74 126 209
72 123 203
73 124 205
72 123 206
72 124 206
71 121 201
74 126 210
75 128 213
74 127 211
72 124 208
74 125 208
75 127 209
70 120 199
72 124 205
73 125 207
73 124 204
68 118 201
70 123 201
72 124 203
70 122 200
71 123 207
70 122 198
70 122 200
70 122 201
69 121 200
68 122 198
72 124 204
71 123 201
68 120 194
96 137 197
213 230 254
216 233 255
216 233 255
206 224 245
58 146 111
56 142 108
52 135 105
57 142 107
63 155 115
58 145 109
57 142 106
53 138 110
61 147 110
55 139 107
58 144 110
66 157 115
63 153 113
60 148 112
61 148 110
60 147 111
64 154 114
63 154 116
69 163 118
69 164 119
65 155 116
63 151 110
69 164 118
69 164 118
69 162 118
69 163 117
72 168 119
69 163 117
69 162 117
68 162 117
72 169 120
71 167 119
69 163 118
67 159 114
75 174 123
74 172 121
70 164 117
74 171 121
71 167 119
70 165 119
70 165 118
73 172 123
73 170 120
72 170 121
73 171 121
72 169 119
73 171 120
73 171 121
73 170 121
75 174 122
73 170 121
73 170 119
71 167 117
73 170 120
73 170 120
74 172 121
72 168 118
72 166 116
75 172 120
73 171 120
73 169 118
75 173 121
73 170 119
74 173 122
74 171 121
72 168 118
76 176 124
72 167 118
74 170 119
74 171 120
73 169 119
72 170 120
74 172 120
75 174 122
72 167 118
71 167 118
72 167 118
72 170 120
75 173 122
75 172 121
73 171 119
75 173 121
73 171 121
74 172 121
72 170 121
74 173 122
72 168 118
76 176 122
76 175 122
72 168 118
74 171 120
75 175 122
126 187 164
218 234 255
218 234 255
218 234 255
218 234 255
218 234 255
218 234 255
218 234 255
218 234 255
218 234 255
218 234 255
218 234 255
218 234 255
218 234 255
218 234 255
218 234 255
218 234 255
218 234 255
218 234 255
218 234 255
218 234 255
218 234 255
218 234 255
218 234 255
218 234 255
218 234 255
218 234 255
218 234 255
218 234 255
219 234 255
219 234 255
219 234 255
219 234 255
219 234 255
219 234 255
219 234 255
219 234 255
219 234 255
219 234 255
219 234 255
219 234 255
219 234 255
219 234 255
219 234 255
218 234 255
218 234 255
218 234 255
218 234 255
218 234 255
218 234 255
218 234 255
218 234 255
218 234 255
218 234 255
218 234 255
218 234 255
209 212 232
164 84 95
162 83 93
159 81 92
154 79 91
155 80 91
154 79 90
157 81 92
152 79 91
156 81 92
158 80 91
159 82 93
157 81 92
154 79 91
156 80 91
159 81 92
156 80 92
162 83 93
156 81 92
157 80 91
158 81 93
158 81 91
158 81 92
159 82 93
156 80 91
158 81 92
157 80 91
158 82 93
156 80 91
162 83 93
151 78 89
162 83 95
159 82 93
160 82 93
156 80 92
160 82 93
156 80 92
152 78 89
154 80 91
157 80 91
157 81 91
154 79 90
156 81 92
153 79 91
157 81 93
151 78 90
155 80 92
155 80 92
156 80 91
160 82 93
151 78 91
157 81 91
154 80 93
159 82 93
150 78 91
156 80 92
151 78 91
151 78 91
154 80 92
157 81 94
156 81 92
149 78 90
151 78 90
146 77 91
156 81 94
155 80 94
147 77 91
150 78 89
152 79 93
154 80 93
144 76 90
148 77 90
154 80 92
141 75 90
138 73 87
142 74 88
141 73 86
142 74 89
138 72 87
149 78 93
125 67 84
141 74 90
138 73 88
137 73 89
133 70 85
127 68 84
112 62 80
127 68 84
125 67 83
111 61 80
118 64 81
117 65 82
109 60 77
113 61 78
170 152 170
216 233 255
216 233 255
179 198 231
71 114 189
71 117 196
70 116 194
71 116 193
71 117 194
71 120 202
71 121 203
73 124 205
70 114 192
76 129 214
73 122 203
73 123 204
72 121 202
74 123 206
72 122 204
71 120 202
72 122 204
74 126 207
73 124 208
76 127 210
75 126 209
72 123 207
73 124 207
73 124 206
74 126 211
73 124 207
75 127 210
72 124 209
74 127 211
74 126 209
74 126 209
72 122 204
72 122 205
72 124 205
74 125 208
73 125 209
72 123 205
70 119 198
74 127 211
74 126 210
74 126 209
74 126 209
74 125 207
74 126 211
72 124 205
74 126 210
75 128 213
74 126 211
71 122 203
74 126 210
72 124 206
75 127 210
76 129 214
71 121 201
72 124 205
71 121 201
75 128 213
73 125 209
70 122 201
69 119 198
73 126 209
72 124 205
69 121 198
67 119 194
71 124 203
71 124 202
70 122 200
70 123 201
69 122 196
69 123 200
185 206 239
216 233 255
216 233 255
135 176 173
54 138 107
56 141 111
51 132 105
55 139 108
54 140 111
59 145 109
56 141 109
57 143 107
51 134 107
52 133 105
59 144 108
63 153 113
60 147 110
62 150 113
61 149 110
62 151 111
61 151 111
62 151 112
68 161 117
61 149 111
68 162 118
67 160 116
64 153 112
68 162 117
69 164 118
66 157 113
72 168 120
64 153 111
71 166 119
67 158 112
69 162 116
70 165 118
72 169 120
74 173 123
70 166 119
71 167 120
71 166 118
71 168 120
72 167 118
70 165 119
69 164 117
74 172 122
71 165 117
70 165 118
71 165 117
70 164 117
71 166 118
72 168 118
71 165 117
72 168 118
73 169 119
74 173 121
72 167 118
73 170 120
73 171 121
71 167 117
73 170 120
74 172 122
73 169 119
71 166 118
73 169 119
74 171 120
71 166 118
74 171 119
73 170 119
73 170 120
73 171 120
74 170 119
73 170 120
72 168 119
73 169 119
71 167 118
75 173 121
74 172 121
75 173 121
74 171 119
72 168 118
73 171 120
74 170 119
73 169 119
72 168 118
75 174 121
75 173 121
73 169 120
72 168 118
75 173 121
74 171 120
75 173 121
73 169 119
74 172 121
73 170 119
74 173 122
74 172 121
193 220 229
218 234 255
218 234 255
218 234 255
218 234 255
218 234 255
218 234 255
218 234 255
218 234 255
218 234 255
218 234 255
218 234 255
218 234 255
218 234 255
219 234 255
219 234 255
219 234 255
219 234 255
219 234 255
219 234 255
219 234 255
219 234 255
219 234 255
219 234 255
219 234 255
219 234 255
219 234 255
219 234 255
219 234 255
219 234 255
219 234 255
219 234 255
219 234 255
219 234 255
219 234 255
219 234 255
219 234 255
219 234 255
219 234 255
219 234 255
219 234 255
219 234 255
219 234 255
219 234 255
219 234 255
219 234 255
219 234 255
219 234 255
219 234 255
219 234 255
219 234 255
219 234 255
219 234 255
219 234 255
219 234 255
177 139 154
162 83 94
164 83 94
159 81 93
155 80 91
163 83 94
161 82 92
155 80 91
154 79 91
160 82 93
165 85 96
155 80 92
154 79 90
158 81 92
158 81 92
154 79 90
164 84 95
156 81 92
153 79 91
157 80 91
158 81 92
153 78 89
158 81 92
157 80 91
157 80 91
155 80 91
161 83 94
159 82 94
163 83 94
160 82 93
157 80 91
158 81 92
161 82 93
158 81 92
159 81 92
157 80 91
158 81 91
161 81 92
153 78 89
156 81 92
154 79 90
157 80 92
157 81 92
159 82 94
154 80 92
149 77 89
157 80 91
153 80 91
164 84 95
162 83 94
161 82 93
156 80 91
155 80 92
151 78 90
157 81 92
146 76 89
148 77 91
153 79 91
149 77 91
156 80 92
153 79 90
148 77 90
149 77 89
147 77 90
154 80 92
152 78 90
148 77 89
149 78 91
151 79 91
152 79 92
142 75 90
143 74 88
146 76 88
144 76 91
141 74 86
145 76 90
146 77 92
146 77 91
134 70 84
131 70 87
137 72 83
127 68 82
118 64 81
127 68 85
128 69 85
118 65 83
129 68 83
122 67 83
118 65 83
116 63 80
115 63 80
122 66 84
114 63 82
113 62 80
129 79 95
211 222 244
217 233 255
128 155 209
70 113 190
72 119 197
70 115 191
74 124 206
72 121 202
70 116 195
72 122 204
70 118 195
71 121 203
72 123 207
72 123 206
73 123 204
71 121 202
73 124 206
74 124 205
71 121 202
72 121 202
74 125 208
73 125 210
71 120 202
71 122 205
73 124 206
73 124 207
75 126 209
72 122 203
72 124 207
73 125 209
72 122 203
73 124 205
74 126 210
72 123 204
73 124 207
74 126 209
73 125 207
72 123 204
73 125 209
72 123 205
74 125 208
72 123 207
74 125 206
74 125 207
74 125 208
74 127 211
70 119 199
72 124 207
71 121 201
74 127 211
76 129 213
72 125 207
75 128 212
73 124 207
74 127 211
73 125 205
76 128 209
72 122 204
75 128 212
71 123 203
71 121 201
74 127 210
74 126 210
69 120 201
72 124 205
70 122 202
71 122 203
72 125 202
71 123 202
71 125 205
68 120 196
66 120 190
64 119 186
140 168 213
217 233 255
206 224 244
55 140 109
49 128 102
51 132 101
54 138 106
51 131 102
50 130 103
54 138 106
59 144 107
57 143 110
59 146 110
54 136 103
62 152 114
57 144 111
64 153 111
60 146 111
63 152 112
65 156 115
62 152 115
61 147 108
62 150 111
65 156 115
61 147 110
67 160 115
69 164 118
73 171 122
67 160 115
70 165 119
67 158 114
66 158 115
69 164 118
71 166 119
71 166 119
67 158 114
70 164 118
71 168 118
71 167 119
72 169 120
71 167 118
69 163 117
70 163 116
71 167 118
72 169 121
71 166 118
72 169 120
72 169 120
71 168 121
72 169 119
72 170 120
70 164 116
70 166 119
70 165 117
72 168 119
73 170 121
71 166 117
75 173 121
69 164 118
72 168 119
70 163 115
73 170 121
72 169 118
71 167 118
72 169 119
74 172 121
73 171 120
72 167 118
73 171 121
72 168 118
72 167 117
72 168 116
73 172 122
73 169 119
74 171 120
71 166 117
70 164 116
75 174 122
75 174 122
71 165 117
70 166 117
71 166 115
72 168 118
74 170 120
73 171 121
74 170 118
74 171 120
72 169 119
75 173 121
73 168 118
74 172 121
73 170 120
72 169 119
74 172 119
74 172 120
76 175 123
74 173 121
124 188 162
219 234 255
219 234 255
219 234 255
219 234 255
219 234 255
219 234 255
219 234 255
219 234 255
219 234 255
219 234 255
219 234 255
219 234 255
219 234 255
219 234 255
219 234 255
219 234 255
219 234 255
219 234 255
219 234 255
219 234 255
219 234 255
219 234 255
219 234 255
219 234 255
219 234 255
219 234 255
219 234 255
219 234 255
219 234 255
219 234 255
219 234 255
219 234 255
219 234 255
219 234 255
219 234 255
219 234 255
219 234 255
219 234 255
219 234 255
219 234 255
219 234 255
219 234 255
219 234 255
219 234 255
219 234 255
219 234 255
219 234 255
219 234 255
219 234 255
219 234 255
219 234 255
219 234 255
219 234 255
211 218 238
161 82 93
160 82 93
154 80 91
153 79 89
152 78 90
160 82 92
152 79 90
158 81 92
152 78 89
158 81 91
160 82 92
159 81 92
158 81 92
158 81 92
155 80 92
158 81 91
161 82 92
154 79 90
151 78 89
157 80 92
157 80 91
158 82 93
156 80 90
158 80 91
155 80 91
155 80 91
156 80 92
159 82 92
163 83 93
159 81 92
163 83 93
151 78 89
156 80 91
157 80 92
156 80 91
156 80 92
159 82 93
160 83 94
157 81 93
163 83 94
153 79 91
154 79 91
159 82 93
156 80 91
158 81 92
158 81 91
156 80 92
153 79 92
158 81 93
150 78 90
155 81 92
151 79 91
157 81 93
153 79 91
159 82 94
152 78 89
149 77 89
159 82 94
154 80 92
156 80 91
152 79 92
151 78 91
150 78 89
153 78 90
145 75 87
140 73 88
148 77 90
147 77 88
146 76 89
152 78 91
152 79 93
142 75 88
139 74 89
145 75 87
144 75 89
137 73 87
144 76 91
138 73 87
133 71 87
145 75 89
137 72 86
137 73 89
133 71 88
133 70 86
124 66 81
124 67 84
126 67 82
129 69 86
109 59 76
112 60 76
119 65 82
119 64 79
101 56 73
104 56 72
103 56 73
171 168 186
209 225 250
73 114 188
68 110 186
68 114 191
72 120 200
73 122 202
74 124 206
70 116 193
73 123 205
73 124 208
70 116 193
72 121 202
74 125 206
72 121 201
69 117 197
72 122 202
75 125 207
72 121 202
72 123 205
72 124 206
71 121 202
75 126 208
71 120 201
72 123 204
71 121 202
75 126 208
72 124 207
70 121 204
75 126 209
73 124 204
72 123 205
75 125 206
72 123 205
72 122 201
72 124 207
74 125 207
72 122 205
73 124 206
73 124 207
74 126 209
74 125 207
73 124 208
69 119 198
70 120 199
72 123 206
74 126 209
74 126 208
75 128 212
74 125 209
74 125 208
73 124 205
71 122 204
75 127 211
72 123 204
72 123 207
71 123 202
70 121 199
74 125 207
72 124 204
74 126 207
72 123 203
73 126 206
69 122 200
73 125 208
71 122 201
74 127 208
71 123 205
67 118 194
69 121 196
67 120 194
70 122 203
70 123 201
69 119 185
216 232 255
165 195 201
49 130 104
51 131 102
50 130 103
49 128 100
57 143 107
54 137 105
44 121 99
53 136 106
49 129 104
58 143 108
58 145 110
54 138 109
66 157 115
63 152 113
64 154 114
59 144 108
61 149 111
64 154 113
65 156 115
60 147 110
63 152 110
66 158 116
68 161 117
69 164 117
67 158 114
67 159 114
66 157 114
68 161 116
65 155 112
66 156 113
64 152 112
66 158 113
70 165 118
68 162 115
71 167 118
73 169 120
72 169 121
71 165 116
71 165 117
70 164 116
72 167 119
71 165 116
71 167 118
72 168 119
73 169 120
68 161 115
73 171 121
72 168 119
73 170 119
69 161 114
73 169 119
69 163 116
68 160 113
73 170 119
70 164 116
71 166 118
70 165 117
73 170 121
72 169 119
71 166 116
72 167 118
73 170 120
72 167 117
73 170 120
73 170 119
74 172 120
71 166 117
72 169 119
74 172 121
72 168 119
72 167 118
71 166 117
71 166 117
71 166 116
74 171 120
72 168 118
74 171 119
71 166 117
76 176 122
72 168 119
73 171 120
75 174 122
72 169 119
73 172 120
71 166 117
74 172 120
74 172 121
73 170 119
71 166 116
74 172 121
72 167 117
73 171 120
71 166 116
74 172 121
79 174 124
207 227 243
219 234 255
219 234 255
219 234 255
219 234 255
219 234 255
219 234 255
219 234 255
219 234 255
219 234 255
219 234 255
219 234 255
219 234 255
219 234 255
219 234 255
219 234 255
219 234 255
219 234 255
219 234 255
219 234 255
219 234 255
219 234 255
219 234 255
219 234 255
219 234 255
219 234 255
219 234 255
219 234 255
219 234 255
219 234 255
219 234 255
219 234 255
219 234 255
219 234 255
219 234 255
219 234 255
219 234 255
219 234 255
219 234 255
219 234 255
219 234 255
219 234 255
219 234 255
219 234 255
219 234 255
219 234 255
219 234 255
219 234 255
219 234 255
219 234 255
219 234 255
219 234 255
219 234 255
187 166 182
157 81 92
162 82 93
160 82 94
159 82 93
150 77 89
158 81 91
162 83 94
162 83 93
152 78 90
156 80 92
160 82 92
160 82 93
162 83 93
158 81 92
158 80 91
154 79 90
160 82 93
160 82 93
156 80 91
157 81 92
162 83 94
162 83 94
160 82 92
155 80 90
158 81 91
159 81 93
165 84 94
158 81 92
161 82 93
151 78 89
161 83 95
156 81 92
163 83 95
157 80 92
161 82 92
154 79 91
160 82 93
154 79 90
154 79 90
157 81 92
155 80 91
156 80 91
157 81 92
158 81 92
154 79 91
155 80 92
157 80 92
157 81 92
151 78 89
146 75 87
154 80 91
154 79 91
154 80 93
156 80 91
157 81 93
150 78 91
158 81 91
157 81 92
153 80 92
149 77 89
151 79 91
151 79 92
153 78 89
142 73 86
149 78 90
148 78 92
150 78 90
142 75 89
151 79 91
146 76 89
147 77 90
146 77 91
135 72 86
135 71 85
131 70 85
141 74 88
144 76 92
144 75 89
125 67 82
140 73 86
127 68 83
130 69 83
120 65 82
135 72 87
116 64 83
134 71 85
118 64 80
113 62 79
112 61 78
101 56 73
100 56 74
119 63 78
101 54 70
97 55 73
122 66 84
138 114 129
195 212 240
67 108 181
68 111 185
69 116 194
74 123 203
73 119 198
71 117 195
72 121 202
70 116 194
74 124 207
72 121 201
72 119 198
74 125 209
70 119 199
73 123 205
72 121 201
75 126 208
72 120 200
75 126 209
72 124 206
73 124 205
73 124 204
73 124 206
75 127 210
73 124 208
73 124 206
72 122 203
73 124 207
72 123 204
75 126 209
73 124 206
70 120 200
73 125 207
72 123 205
72 123 206
74 126 209
72 122 203
69 120 201
73 125 207
73 125 208
72 123 205
73 124 206
73 124 205
73 124 207
74 125 207
73 124 205
73 125 208
68 118 198
71 124 206
74 125 207
70 120 202
72 123 206
72 123 205
75 127 211
72 124 207
74 125 208
74 125 209
71 122 203
73 126 209
72 124 207
71 122 202
73 125 206
72 124 204
72 125 206
69 121 197
70 121 198
72 125 203
71 123 203
68 120 195
70 123 200
68 120 196
68 120 193
65 118 186
183 203 234
86 148 126
54 137 103
49 128 100
50 128 98
43 117 96
46 123 100
55 137 102
53 136 105
52 132 99
53 134 101
53 134 103
55 138 109
58 145 106
55 139 109
59 145 110
56 140 106
67 160 114
64 153 112
59 146 111
60 146 110
67 159 116
67 160 117
68 161 116
68 161 115
66 159 116
64 154 113
72 167 119
69 163 115
68 160 115
68 160 115
66 159 115
69 162 116
68 161 115
69 162 116
69 162 117
70 164 116
71 168 119
72 167 119
68 162 117
75 174 123
72 169 121
70 164 114
69 162 116
69 163 117
69 160 112
71 167 118
71 166 117
71 167 118
71 166 117
71 167 118
70 164 117
71 165 116
72 168 118
74 171 120
70 165 118
72 169 120
70 163 115
75 175 123
73 169 118
70 165 116
72 168 119
73 170 120
73 170 120
74 171 120
71 167 118
75 174 122
77 176 123
72 169 119
72 168 119
72 168 119
74 171 120
72 168 118
69 162 114
75 173 121
73 171 120
76 174 122
72 168 118
75 173 121
74 171 120
74 172 120
73 169 118
72 167 116
72 166 116
73 169 119
73 171 120
74 171 120
74 171 119
73 170 119
73 170 119
73 170 120
72 168 119
74 173 121
73 170 120
72 168 118
74 171 119
72 169 119
173 208 209
219 234 255
219 234 255
219 234 255
219 234 255
219 234 255
219 234 255
219 234 255
219 234 255
219 234 255
219 234 255
219 234 255
219 234 255
219 234 255
219 234 255
219 234 255
219 234 255
219 234 255
219 234 255
219 234 255
219 234 255
219 234 255
219 234 255
219 234 255
219 234 255
219 234 255
219 234 255
219 235 255
219 235 255
219 235 255
219 235 255
219 235 255
219 235 255
219 235 255
219 235 255
219 235 255
219 235 255
219 235 255
219 235 255
219 234 255
219 234 255
219 234 255
219 234 255
219 234 255
219 234 255
219 234 255
219 234 255
219 234 255
219 234 255
219 234 255
219 234 255
219 234 255
219 234 255
169 111 123
158 81 92
162 83 94
159 81 93
156 81 92
160 81 92
157 81 92
158 81 91
156 80 91
159 82 93
158 81 92
151 78 89
157 81 92
153 79 90
164 84 95
159 81 92
159 82 93
157 80 90
152 79 90
157 81 92
157 80 90
159 82 92
159 81 91
158 81 92
157 81 92
159 81 92
158 81 92
156 80 90
148 77 88
154 79 91
151 78 89
157 81 92
152 78 88
159 82 93
156 80 91
155 80 90
163 83 93
151 78 89
152 79 91
155 80 91
157 81 92
160 82 93
156 80 91
157 81 93
147 76 88
154 80 91
156 80 90
164 84 95
149 78 90
155 80 90
151 78 90
153 79 91
149 78 90
154 79 91
158 81 93
152 79 91
154 79 91
159 81 91
152 79 91
144 75 87
151 78 91
147 77 89
147 77 90
157 81 92
148 77 89
150 78 90
140 74 87
146 77 90
139 73 86
149 78 91
146 75 87
145 75 87
138 73 85
145 76 89
137 72 87
142 74 85
139 72 86
140 73 85
137 71 85
145 76 89
116 62 79
134 71 84
126 67 83
127 67 81
132 69 82
130 70 85
117 63 78
119 64 81
123 65 81
108 58 72
110 60 76
102 58 78
108 60 78
104 57 74
99 55 73
104 58 76
97 53 70
126 146 191
70 112 187
70 115 193
73 121 199
71 114 190
72 122 204
71 113 188
72 122 203
68 113 187
70 117 195
72 119 199
72 122 203
73 122 204
72 122 203
72 123 206
72 123 205
70 120 198
71 120 201
70 120 200
70 121 203
70 119 199
71 122 204
70 121 202
72 122 204
71 121 202
71 121 202
72 123 205
72 122 202
72 123 204
74 125 207
74 124 206
74 125 207
75 128 211
72 124 207
73 124 207
72 123 204
71 122 204
71 122 203
71 122 202
74 125 207
72 123 205
74 125 206
70 120 201
70 120 200
73 125 207
73 124 207
73 124 208
74 126 208
75 128 211
73 125 206
73 124 205
73 125 208
71 123 201
72 123 205
74 125 208
72 123 205
74 125 208
73 125 206
74 127 208
73 124 206
72 123 202
71 122 201
72 123 202
72 124 204
70 121 200
69 120 199
69 120 198
68 120 195
68 120 196
65 117 188
70 123 199
68 121 195
62 112 181
125 156 189
46 122 95
44 116 89
40 113 93
42 116 93
49 126 97
48 125 98
51 130 100
49 125 98
50 131 102
50 129 99
55 137 105
56 141 106
53 134 104
62 152 114
53 136 108
62 151 112
62 151 112
57 142 107
61 148 111
68 162 117
69 162 117
66 158 116
65 154 111
62 150 111
70 165 118
67 158 114
69 163 118
65 155 112
68 161 115
67 159 114
69 162 116
64 154 111
68 161 118
68 159 113
72 170 120
71 165 117
69 163 117
65 154 112
72 170 121
72 168 118
70 163 116
71 166 118
74 172 121
71 166 119
68 160 114
72 167 118
72 169 119
69 162 114
72 168 119
71 167 118
69 163 116
69 163 117
71 166 118
73 170 121
74 171 120
72 170 120
73 170 120
72 168 118
73 170 120
71 166 118
74 171 121
70 165 117
72 167 117
74 172 120
69 163 114
72 167 117
74 172 120
74 171 119
73 168 118
74 171 120
74 171 120
74 171 119
72 168 118
74 171 119
73 170 119
74 171 120
71 166 117
73 168 117
72 166 116
72 168 118
74 171 120
72 168 118
72 168 118
75 174 121
69 162 115
72 169 120
74 172 121
69 162 115
74 171 120
72 167 118
74 171 120
72 167 117
72 167 117
72 168 118
73 170 120
73 168 117
117 183 156
219 234 255
219 234 255
219 234 255
219 234 255
219 234 255
219 234 255
219 234 255
219 234 255
219 234 255
219 234 255
219 234 255
219 234 255
219 234 255
219 234 255
219 235 255
219 235 255
219 235 255
219 235 255
219 235 255
219 235 255
219 235 255
219 235 255
219 235 255
219 235 255
219 235 255
219 235 255
220 235 255
220 235 255
220 235 255
220 235 255
220 235 255
220 235 255
220 235 255
220 235 255
220 235 255
220 235 255
220 235 255
220 235 255
220 235 255
220 235 255
220 235 255
220 235 255
220 235 255
220 235 255
220 235 255
220 235 255
220 235 255
220 235 255
220 235 255
220 235 255
220 235 255
212 219 238
161 82 93
162 83 94
156 80 91
165 84 95
159 82 93
150 77 89
156 80 91
153 79 90
154 78 89
159 81 92
158 80 91
162 83 93
159 81 92
154 80 91
153 78 89
158 81 92
160 82 93
155 80 91
158 81 92
154 79 90
154 79 89
156 80 91
155 79 90
156 80 91
156 80 91
157 81 92
157 80 91
155 80 91
155 80 92
154 79 90
159 81 92
150 78 89
155 79 90
147 76 87
149 76 86
151 78 89
153 78 89
156 79 90
149 78 90
157 81 92
158 81 92
159 81 92
149 77 89
160 82 94
159 81 92
150 77 89
156 80 91
156 81 93
153 79 90
153 78 90
155 79 90
158 81 92
148 76 89
153 79 91
150 77 89
152 78 90
152 79 90
149 76 89
151 78 90
149 77 89
153 79 91
149 77 90
148 77 90
152 78 91
148 77 90
137 73 87
148 77 89
146 76 89
141 73 87
134 70 84
141 74 88
150 77 90
146 76 87
143 75 88
135 72 86
149 78 91
141 74 88
145 76 90
138 72 86
132 69 82
124 66 81
129 68 82
136 72 85
120 65 82
129 68 83
127 67 82
108 58 75
123 65 79
103 55 70
112 61 78
108 59 77
108 59 77
99 53 68
112 61 77
99 54 70
93 51 68
107 58 73
85 98 160
65 101 168
67 110 185
71 115 193
73 122 204
72 121 201
68 113 189
70 119 199
71 118 196
73 123 205
72 121 200
71 120 201
69 116 193
73 123 204
73 123 205
72 123 205
71 120 199
73 124 206
74 126 208
73 123 203
73 123 205
70 119 200
72 122 204
70 119 199
72 122 202
73 125 208
70 119 200
72 122 204
73 125 207
72 122 203
71 120 200
72 122 202
74 125 207
74 125 207
69 119 200
72 124 207
73 124 206
73 123 204
70 121 201
72 123 202
73 124 205
74 126 209
73 125 206
72 123 204
69 119 198
73 123 204
73 125 209
73 124 205
70 120 198
72 123 205
73 124 206
73 124 206
72 123 202
73 125 206
73 125 207
70 120 201
74 126 209
74 126 206
73 125 207
71 122 202
73 125 209
70 120 200
70 121 201
66 116 192
72 125 206
70 121 201
67 117 192
71 122 202
68 120 196
70 122 199
64 115 187
60 109 174
58 110 172
51 104 148
45 119 94
46 121 96
41 113 90
42 111 90
43 114 92
47 123 95
51 130 99
53 135 103
53 132 98
56 139 105
57 140 107
61 147 109
48 122 94
53 135 104
57 141 103
62 150 111
60 145 107
55 138 105
59 146 110
62 148 106
67 158 114
63 152 112
69 163 118
66 156 114
64 153 111
62 150 111
66 159 116
65 153 110
66 158 115
67 160 116
67 157 113
69 161 115
68 162 117
71 166 118
69 161 114
67 160 115
72 167 118
70 165 117
69 163 116
69 162 115
69 163 116
71 167 118
70 164 117
67 157 113
74 171 121
75 172 120
66 156 110
72 167 118
72 169 119
72 169 120
69 163 115
71 166 118
72 167 117
72 169 119
70 162 114
75 174 123
70 164 117
72 168 118
74 171 119
72 168 119
70 162 114
71 165 116
71 166 117
70 165 117
72 167 117
72 168 118
71 165 115
72 168 118
72 167 118
72 170 120
71 165 116
73 169 119
71 166 116
71 167 117
73 171 119
74 171 120
71 166 116
74 170 119
73 168 118
68 160 112
71 167 117
73 168 118
72 168 117
72 168 117
72 168 118
73 168 118
71 165 115
75 174 122
73 169 119
75 173 121
73 169 118
70 163 115
73 171 120
72 168 118
73 169 119
72 168 118
74 172 120
206 226 242
219 235 255
219 235 255
220 235 255
220 235 255
220 235 255
220 235 255
220 235 255
220 235 255
220 235 255
220 235 255
220 235 255
220 235 255
220 235 255
220 235 255
220 235 255
220 235 255
220 235 255
220 235 255
220 235 255
220 235 255
220 235 255
220 235 255
220 235 255
220 235 255
220 235 255
220 235 255
220 235 255
220 235 255
220 235 255
220 235 255
220 235 255
220 235 255
220 235 255
220 235 255
220 235 255
220 235 255
220 235 255
220 235 255
220 235 255
220 235 255
220 235 255
220 235 255
220 235 255
220 235 255
220 235 255
220 235 255
220 235 255
220 235 255
220 235 255
220 235 255
202 197 215
159 81 92
157 81 91
159 82 92
162 82 92
160 82 93
159 82 93
157 80 91
157 81 92
153 78 89
160 82 92
158 81 91
161 82 92
159 81 91
156 80 91
157 81 92
157 80 90
156 80 90
157 80 91
159 82 93
157 80 92
156 80 91
157 80 90
156 80 90
160 81 91
158 81 92
161 82 92
157 80 91
153 78 89
150 77 88
160 82 93
159 82 92
158 81 93
157 80 91
157 80 90
148 77 88
154 79 90
156 80 91
155 80 91
155 80 91
155 79 90
155 80 91
152 79 91
147 77 89
150 77 88
159 81 92
153 78 90
162 82 93
153 79 91
154 79 91
154 80 91
151 78 90
154 80 91
152 78 90
152 78 90
159 82 93
148 77 88
152 79 91
145 75 89
149 77 88
151 78 91
146 76 87
151 78 89
149 77 89
144 74 86
139 73 87
142 74 87
150 77 89
150 78 91
140 73 87
139 73 86
149 77 91
131 69 82
150 77 90
132 70 85
139 73 87
123 66 81
144 75 88
139 73 87
137 72 86
138 72 86
125 68 84
122 65 78
127 68 83
121 65 80
137 72 84
126 66 80
125 66 80
119 63 79
99 55 74
92 50 65
90 51 69
109 59 74
105 57 74
75 43 61
75 41 58
82 46 63
105 57 74
64 87 144
71 117 195
69 113 189
70 117 196
72 121 201
70 115 192
70 119 198
70 116 192
71 116 194
69 117 198
72 122 203
74 125 208
67 113 190
73 123 205
69 117 197
71 120 200
69 117 198
70 118 196
71 122 204
71 122 203
70 120 200
70 120 201
72 122 203
72 122 204
70 120 202
72 123 204
74 124 206
76 128 211
73 125 209
73 123 205
71 122 202
71 122 203
72 122 203
70 119 197
71 121 203
73 124 205
72 123 206
71 121 200
71 121 203
72 124 205
74 125 208
73 124 204
74 125 207
71 123 204
72 122 203
70 121 202
72 122 203
74 125 207
74 125 208
73 124 205
72 122 204
72 123 203
71 122 203
70 122 202
70 120 199
70 120 200
73 123 204
70 121 198
70 121 198
72 124 207
70 121 198
70 122 201
74 126 208
69 119 196
74 127 208
70 120 199
71 123 202
68 117 193
66 117 188
69 120 196
65 117 187
64 112 182
62 113 179
53 107 157
49 126 96
45 118 94
42 112 90
44 115 87
54 136 104
36 105 88
50 128 98
53 133 99
53 134 104
46 121 94
55 137 103
54 135 103
54 135 105
60 146 108
54 134 102
59 144 108
58 142 106
64 155 114
59 144 109
58 142 106
63 153 114
63 152 110
62 150 111
67 159 115
65 156 114
68 161 118
69 162 116
70 164 118
69 161 114
67 161 118
66 156 113
66 157 113
71 167 119
65 157 114
71 166 117
66 157 113
70 164 116
73 169 118
68 160 115
69 163 117
65 155 113
68 161 115
66 156 113
72 167 118
72 167 118
70 165 118
68 159 112
72 166 115
69 161 114
74 172 121
68 161 115
70 164 116
72 167 117
70 165 117
72 167 119
73 170 119
71 164 115
72 168 119
70 164 116
68 161 114
71 166 116
72 167 118
73 170 118
72 167 117
74 171 119
74 172 121
73 169 118
71 165 116
72 166 116
73 170 118
71 166 116
75 172 120
71 167 116
72 167 117
71 167 116
73 170 119
71 165 116
72 167 118
70 164 114
73 168 117
75 174 122
71 166 117
72 167 118
71 166 117
73 170 120
70 164 114
73 169 119
75 173 121
74 169 118
74 171 119
71 166 117
73 170 120
73 170 119
71 166 116
75 174 121
75 174 121
72 168 118
172 208 207
220 235 255
220 235 255
220 235 255
220 235 255
220 235 255
220 235 255
220 235 255
220 235 255
220 235 255
220 235 255
220 235 255
220 235 255
220 235 255
220 235 255
220 235 255
220 235 255
220 235 255
220 235 255
220 235 255
220 235 255
220 235 255
220 235 255
220 235 255
220 235 255
220 235 255
220 235 255
220 235 255
220 235 255
220 235 255
220 235 255
220 235 255
220 235 255
220 235 255
220 235 255
220 235 255
220 235 255
220 235 255
220 235 255
220 235 255
220 235 255
220 235 255
220 235 255
220 235 255
220 235 255
220 235 255
220 235 255
220 235 255
220 235 255
220 235 255
220 235 255
183 151 166
162 82 93
145 75 86
158 81 92
157 80 91
157 80 91
159 80 90
161 81 91
158 81 92
160 82 94
157 80 90
160 82 93
159 81 92
157 79 89
160 81 92
155 80 91
150 78 89
160 82 93
150 78 89
154 80 91
154 79 90
157 81 92
156 80 91
153 79 90
155 79 90
159 81 91
155 79 90
156 80 91
161 82 92
155 80 92
157 81 92
153 78 89
160 82 93
157 80 91
154 79 90
152 78 89
155 79 91
162 83 93
153 78 89
158 81 91
149 76 87
156 80 90
159 82 92
155 80 91
150 78 90
154 79 90
156 79 90
155 80 91
154 79 90
153 79 90
155 80 91
150 77 89
160 82 93
147 76 87
159 82 93
151 78 89
149 76 87
150 78 89
147 76 89
148 76 87
143 74 87
147 76 89
150 78 89
146 76 88
152 79 92
150 78 91
158 81 92
151 78 91
148 76 88
147 77 90
138 73 86
138 72 86
135 71 86
134 71 84
139 72 86
138 72 85
140 73 86
138 72 84
146 76 88
138 72 85
135 71 86
132 69 83
127 66 80
138 72 85
128 68 84
108 58 73
117 62 76
111 61 78
130 69 85
104 57 74
100 54 68
96 52 66
105 57 74
92 50 64
100 54 70
91 52 72
91 48 62
93 52 68
67 106 176
68 108 181
70 115 191
70 116 193
71 119 197
69 116 194
70 117 195
69 112 188
69 115 193
72 123 204
71 119 199
72 120 200
72 121 202
74 124 207
71 119 198
68 114 192
72 122 204
70 119 199
71 121 203
72 123 204
70 120 201
72 123 205
74 127 211
68 118 197
72 123 203
72 121 201
73 123 204
75 126 208
73 124 205
72 123 204
72 121 200
72 124 206
71 122 201
71 123 206
72 122 204
74 125 207
71 120 200
69 118 197
71 121 201
73 124 206
70 120 199
69 119 196
72 122 202
72 123 203
70 120 201
72 122 202
72 122 203
74 126 209
73 124 204
75 127 210
73 124 206
74 125 206
69 118 195
73 124 206
70 120 201
70 121 199
71 122 204
70 121 202
70 121 199
72 122 202
68 118 196
70 121 200
71 122 202
68 119 196
71 122 200
68 120 194
71 123 201
69 121 196
68 119 196
69 120 196
68 122 194
64 114 184
66 118 190
59 110 174
45 118 96
37 102 80
39 108 85
40 111 90
47 121 92
43 114 91
47 121 92
41 113 93
52 132 102
44 119 94
57 141 105
47 124 98
50 129 99
58 143 108
56 137 101
56 139 105
59 143 110
60 146 110
57 142 107
59 145 110
60 145 109
62 150 110
66 157 114
65 157 115
64 154 112
65 155 112
66 156 114
68 161 115
65 156 113
71 166 120
71 166 117
65 156 113
69 163 117
67 157 112
70 163 117
68 159 112
70 164 117
71 166 116
71 164 115
66 156 113
69 164 118
69 163 117
69 162 115
69 161 114
69 163 116
73 170 120
70 163 115
72 168 117
68 162 115
71 167 117
70 164 116
72 168 119
74 171 119
69 163 117
72 167 118
73 168 118
72 167 117
71 165 116
72 167 117
73 170 119
72 167 117
72 168 118
69 162 115
73 170 119
73 171 120
72 168 118
73 169 117
68 161 114
71 167 118
72 168 118
73 169 119
72 167 117
72 167 117
70 165 116
71 166 117
70 163 115
71 167 117
72 167 117
73 170 119
69 162 114
74 170 119
75 175 123
71 165 116
71 166 116
74 171 119
73 170 120
71 166 116
74 171 120
72 168 118
75 173 121
72 168 118
72 169 119
72 168 118
73 170 119
72 166 116
74 171 120
73 170 119
148 198 184
220 235 255
220 235 255
220 235 255
220 235 255
220 235 255
220 235 255
220 235 255
220 235 255
220 235 255
220 235 255
220 235 255
220 235 255
220 235 255
220 235 255
220 235 255
220 235 255
220 235 255
220 235 255
220 235 255
220 235 255
220 235 255
220 235 255
220 235 255
220 235 255
220 235 255
220 235 255
220 235 255
220 235 255
220 235 255
220 235 255
220 235 255
220 235 255
220 235 255
220 235 255
220 235 255
220 235 255
220 235 255
220 235 255
220 235 255
220 235 255
220 235 255
220 235 255
220 235 255
220 235 255
220 235 255
220 235 255
220 235 255
220 235 255
220 235 255
220 235 255
177 137 151
153 78 90
157 80 91
157 80 90
160 81 91
157 81 92
148 77 88
155 79 90
154 79 90
163 83 94
159 81 92
154 78 89
159 81 91
156 80 91
144 75 87
158 81 91
154 79 90
155 79 89
158 81 91
152 78 88
152 78 89
159 81 92
156 80 90
149 77 88
155 80 91
155 79 90
159 81 92
152 78 89
154 79 90
159 81 92
151 77 88
157 81 92
155 79 90
163 83 93
158 81 91
153 79 89
152 78 89
161 82 93
157 81 92
153 79 89
149 77 88
151 78 89
153 79 90
159 81 92
162 83 94
155 79 90
156 80 91
154 78 89
152 78 90
154 80 90
145 75 85
155 80 91
153 79 90
152 78 89
145 76 88
151 78 90
150 78 89
154 79 90
155 79 90
152 78 91
148 77 90
151 78 89
148 76 88
143 75 88
140 73 87
144 75 88
141 74 87
149 77 90
136 72 83
141 73 87
141 74 89
137 72 84
156 80 93
146 75 87
141 74 86
150 77 90
139 73 86
136 72 86
140 74 89
139 73 86
124 66 81
137 72 86
136 71 84
122 64 78
133 69 83
99 55 72
111 60 76
111 61 78
110 59 75
102 56 72
115 61 74
100 54 69
97 52 67
81 46 65
72 42 61
74 40 54
73 41 57
68 58 92
64 99 167
68 109 183
66 105 175
71 114 189
68 108 181
70 115 193
72 120 199
69 114 191
68 115 193
73 122 202
73 120 198
71 120 198
71 121 201
70 116 192
70 118 196
72 123 204
71 119 199
73 123 205
69 119 198
70 119 195
72 121 201
69 118 199
70 120 200
72 123 205
71 121 201
73 123 205
69 118 197
71 121 201
72 122 203
70 120 201
71 121 203
73 124 205
73 124 205
70 119 197
72 123 205
71 120 200
71 122 202
72 123 206
74 125 207
74 125 206
70 120 202
73 124 208
70 120 199
75 127 211
73 124 205
73 123 205
72 123 204
70 120 200
72 121 200
65 112 188
69 118 196
71 122 202
70 120 199
69 119 199
70 122 199
72 124 206
69 118 199
71 123 205
71 123 204
73 124 206
71 123 204
69 120 198
66 117 190
73 125 206
68 120 194
69 120 199
70 122 199
67 119 191
70 123 199
69 120 197
65 115 188
66 115 187
68 121 194
66 118 188
43 102 112
33 96 78
47 122 93
40 110 87
42 115 90
47 120 92
50 124 94
42 112 89
51 131 99
52 132 105
60 147 110
52 132 102
53 134 104
51 131 104
55 136 104
58 141 106
58 142 106
60 145 109
57 142 105
61 148 108
61 146 107
62 150 111
63 151 111
64 154 112
57 141 107
64 152 112
64 151 107
64 154 113
62 150 111
70 164 116
67 159 114
67 159 116
65 155 113
66 157 112
65 155 112
74 171 120
70 166 118
71 167 119
67 157 111
69 162 116
68 162 117
72 168 118
69 163 115
70 162 116
67 160 114
70 163 116
69 162 116
75 173 121
71 166 117
74 172 121
69 161 114
72 168 118
70 165 115
73 169 119
71 166 118
70 163 115
70 163 116
70 164 115
70 162 114
70 165 116
72 168 118
71 166 116
73 169 119
70 164 116
71 165 115
74 170 119
73 171 120
72 169 120
70 164 115
70 164 116
67 158 111
75 173 120
71 165 116
72 168 118
71 166 117
72 168 117
70 165 115
71 166 117
73 169 119
71 165 114
70 165 116
73 170 119
73 170 119
71 166 117
71 166 117
75 174 122
73 170 118
75 174 121
68 158 112
72 169 119
74 172 120
71 165 117
74 171 119
71 166 117
70 163 115
74 171 119
72 167 116
126 186 164
220 235 255
220 235 255
220 235 255
220 235 255
220 235 255
220 235 255
220 235 255
220 235 255
220 235 255
220 235 255
220 235 255
220 235 255
220 235 255
220 235 255
220 235 255
220 235 255
220 235 255
220 235 255
220 235 255
220 235 255
220 235 255
220 235 255
220 235 255
220 235 255
220 235 255
220 235 255
221 235 255
220 235 255
220 235 255
220 235 255
220 235 255
220 235 255
220 235 255
220 235 255
220 235 255
220 235 255
220 235 255
220 235 255
220 235 255
220 235 255
220 235 255
220 235 255
220 235 255
220 235 255
220 235 255
220 235 255
220 235 255
220 235 255
220 235 255
220 235 255
162 98 109
160 82 92
159 81 92
154 79 90
154 79 90
158 81 92
152 78 88
156 80 91
151 77 88
152 77 88
152 78 89
152 78 89
158 80 90
158 81 92
153 78 88
159 81 92
157 80 91
156 80 91
159 81 92
154 79 90
159 81 92
159 82 93
155 79 89
150 77 87
164 83 94
154 79 91
154 79 90
158 81 91
155 80 91
156 80 91
161 82 93
152 78 90
150 77 88
158 80 91
158 80 91
153 79 90
153 79 89
159 80 91
151 77 88
151 78 89
150 77 88
157 81 92
156 80 91
156 80 91
154 79 90
150 77 88
153 79 90
153 79 90
156 80 91
149 76 88
150 77 89
145 75 87
146 75 87
150 78 89
149 77 90
153 79 91
156 80 92
151 78 91
150 78 90
142 74 87
148 76 88
140 73 87
139 72 86
141 73 85
152 78 91
146 75 88
132 70 83
146 75 87
144 75 87
144 74 86
152 78 90
142 73 85
136 72 87
144 76 90
135 70 84
139 73 86
132 69 83
134 72 86
133 70 83
122 64 78
134 70 85
135 72 87
126 66 80
113 62 80
124 65 80
124 66 80
118 64 80
114 62 79
118 63 79
100 54 70
106 56 70
97 53 70
97 53 69
83 44 58
76 44 61
68 37 52
76 42 57
69 61 97
67 108 181
68 109 181
65 105 176
68 112 186
73 122 202
72 121 201
72 119 197
72 121 200
71 118 197
71 118 197
72 121 202
69 117 195
73 122 202
72 120 200
69 114 190
70 120 201
73 124 207
73 123 205
68 117 196
71 118 196
71 118 197
71 119 199
72 122 203
71 121 200
71 120 199
72 123 205
69 117 195
72 123 203
72 122 202
75 126 208
73 124 204
71 121 201
74 125 206
72 123 205
72 123 203
71 121 201
69 118 198
73 123 205
73 123 203
73 123 204
71 122 203
69 117 196
69 118 198
72 122 203
74 126 208
73 125 207
72 122 204
69 118 197
71 122 203
70 120 199
70 120 200
72 123 205
73 124 205
70 120 199
71 121 201
70 121 200
73 125 207
72 122 202
71 122 201
73 124 204
72 123 203
71 122 200
71 121 201
70 122 197
69 120 198
71 122 200
68 117 192
66 117 189
72 124 202
65 117 190
63 113 183
66 117 194
64 113 184
58 109 169
47 102 129
40 104 79
37 103 82
39 105 80
42 108 82
46 118 91
41 111 89
46 120 93
45 121 98
45 119 95
52 131 98
51 128 98
58 141 105
55 135 102
59 144 108
54 135 101
59 143 109
55 137 104
55 136 104
64 152 111
62 149 110
61 147 105
64 151 108
61 148 111
62 148 108
62 149 108
65 153 112
68 160 114
67 160 113
66 157 113
65 154 110
64 154 111
66 156 112
63 152 111
67 157 112
67 158 113
71 165 116
68 161 116
65 154 112
66 156 111
71 165 117
70 165 117
70 166 118
70 163 116
71 165 117
72 166 116
67 158 113
72 167 118
71 164 116
67 159 112
73 170 119
74 173 121
67 158 113
71 164 115
73 171 119
76 175 121
73 170 119
70 164 115
71 166 117
69 162 115
71 166 117
73 170 119
72 167 116
70 164 116
68 160 113
72 167 117
74 172 119
74 171 119
71 165 117
71 167 118
72 168 119
75 173 120
72 167 118
71 166 117
72 167 116
68 161 114
73 169 118
72 168 116
72 168 117
69 163 115
69 161 114
70 164 115
72 167 117
74 172 120
72 166 116
73 169 118
73 170 119
73 168 118
72 166 116
71 166 118
71 166 116
73 168 117
74 173 120
72 168 117
71 166 116
73 169 118
71 166 117
88 170 129
220 235 255
220 235 255
220 235 255
220 235 255
220 235 255
220 235 255
220 235 255
220 235 255
220 235 255
220 235 255
220 235 255
220 235 255
220 235 255
220 235 255
220 235 255
220 235 255
220 235 255
220 235 255
220 235 255
220 235 255
220 235 255
220 235 255
220 235 255
220 235 255
220 235 255
221 235 255
221 235 255
221 235 255
221 235 255
221 235 255
221 235 255
221 235 255
221 235 255
221 235 255
221 235 255
221 235 255
221 235 255
221 235 255
221 235 255
221 235 255
221 235 255
221 235 255
221 235 255
221 235 255
221 235 255
221 235 255
221 235 255
221 235 255
221 235 255
218 230 250
149 76 86
156 79 90
156 79 90
156 80 90
155 79 90
150 76 86
157 80 91
156 79 89
159 80 90
152 78 89
156 80 91
155 78 88
161 82 92
159 81 91
144 75 86
155 79 90
147 75 86
160 82 92
159 81 92
156 80 92
152 78 89
156 79 90
161 82 93
152 79 89
155 79 90
153 79 91
157 81 92
156 80 90
157 80 90
153 78 89
160 82 92
155 80 90
153 77 87
150 78 89
156 79 90
160 82 92
159 81 92
155 78 88
153 78 89
158 80 90
155 79 90
154 79 89
152 78 90
151 78 89
143 73 83
154 78 89
156 80 91
150 77 88
157 80 91
141 73 84
149 77 89
150 77 88
147 76 88
147 76 89
145 75 88
150 78 90
155 79 90
142 74 86
147 76 88
158 81 92
148 76 88
145 75 87
148 76 87
146 76 88
146 75 87
138 71 84
150 77 89
137 71 84
139 72 84
143 75 88
144 75 87
141 73 85
145 75 86
141 74 88
137 71 83
133 70 83
146 76 88
132 70 85
132 70 84
127 67 81
132 70 85
133 69 81
128 67 80
131 69 83
132 70 86
118 64 80
126 65 78
116 62 76
108 59 77
116 61 76
115 61 75
108 59 75
92 50 65
81 45 59
75 43 60
80 43 56
92 49 63
80 74 118
70 112 184
67 108 181
67 109 183
70 116 193
72 117 193
72 119 198
67 109 184
73 121 200
70 118 196
73 123 203
73 122 201
69 116 194
70 119 198
73 123 203
71 120 201
73 123 204
71 121 200
71 120 201
73 123 204
70 118 197
72 122 203
73 124 206
72 122 201
72 122 202
72 122 203
71 121 202
74 124 206
73 123 204
73 123 205
71 120 201
71 121 201
69 118 198
72 123 204
71 120 200
74 125 208
74 125 207
70 120 201
70 119 197
76 128 210
72 122 203
73 123 204
70 119 198
74 125 207
69 118 196
72 122 201
72 122 203
71 122 203
74 124 204
71 121 202
72 122 203
71 121 201
71 122 201
71 121 202
69 118 194
69 118 195
66 114 188
70 121 198
69 119 197
69 121 198
72 122 203
72 123 204
71 123 202
73 124 204
73 124 204
71 123 201
70 120 197
68 119 194
71 121 199
66 116 191
65 118 189
65 117 188
68 119 193
65 115 185
63 115 181
46 98 128
37 99 77
32 87 69
37 105 86
40 107 85
38 106 84
42 111 87
49 124 95
43 114 92
49 124 94
57 140 106
51 131 100
47 120 93
52 132 102
53 132 101
55 136 103
55 137 104
57 141 107
65 152 111
62 148 109
67 157 114
63 152 113
64 152 111
60 145 108
66 157 113
62 149 109
65 154 112
67 158 113
67 158 112
67 158 114
69 161 115
63 152 111
58 141 106
67 158 112
65 155 111
66 156 112
69 160 113
64 153 110
71 165 116
71 165 116
68 159 114
72 166 116
69 161 113
70 163 115
70 163 115
68 161 115
71 165 117
71 164 115
69 163 117
68 158 112
70 164 115
74 172 119
69 163 115
74 170 120
69 160 113
72 169 118
71 166 116
71 165 117
72 168 119
72 166 117
72 168 118
72 168 118
71 166 117
73 169 118
70 163 114
73 169 118
71 166 116
70 162 114
72 168 117
72 168 118
70 162 114
73 171 119
70 162 113
72 167 117
71 164 115
71 166 117
71 165 116
73 170 118
73 169 118
72 168 118
71 167 116
72 168 118
72 167 117
71 165 116
71 166 116
73 171 120
72 166 116
69 162 113
69 163 114
72 167 117
69 161 113
72 167 117
73 169 119
71 166 116
72 168 118
72 168 118
73 168 117
71 166 117
217 233 252
221 235 255
221 235 255
221 235 255
221 235 255
221 235 255
221 235 255
221 235 255
221 235 255
221 235 255
221 235 255
221 235 255
221 235 255
221 235 255
221 235 255
221 235 255
221 235 255
221 235 255
221 235 255
221 235 255
221 235 255
221 235 255
221 235 255
221 235 255
221 235 255
221 235 255
221 235 255
221 235 255
221 235 255
221 235 255
221 235 255
221 235 255
221 235 255
221 235 255
221 235 255
221 235 255
221 235 255
221 235 255
221 235 255
221 235 255
221 235 255
221 235 255
221 235 255
221 235 255
221 235 255
221 235 255
221 235 255
221 235 255
221 235 255
217 227 246
157 80 90
158 81 92
156 80 91
153 79 91
153 78 89
154 79 90
158 81 91
160 81 92
151 77 87
153 79 90
154 79 90
155 79 90
147 75 86
158 81 91
152 77 86
161 82 93
159 81 91
155 79 89
161 82 93
157 80 90
156 80 90
156 80 91
160 81 92
152 77 88
155 80 91
153 78 88
155 80 91
158 80 91
159 81 92
155 80 91
153 78 89
157 80 90
159 81 92
152 78 88
158 81 91
150 77 89
156 79 90
153 79 90
156 80 90
152 78 89
158 81 92
158 81 92
150 78 89
144 74 85
149 77 89
158 80 91
154 79 90
153 78 90
157 80 91
158 81 92
159 81 92
150 77 88
152 78 90
152 78 90
150 78 90
152 78 89
160 82 94
141 74 87
145 75 86
150 77 90
152 79 91
149 77 89
145 75 87
148 77 89
139 73 86
141 74 87
142 74 87
137 72 85
150 78 89
134 70 84
134 71 85
142 74 87
137 71 83
125 66 82
138 72 85
127 67 81
133 69 82
132 69 84
130 69 84
132 69 83
135 71 86
117 62 76
129 68 81
125 66 81
112 60 74
123 65 79
116 62 76
121 63 77
99 55 74
107 58 74
96 52 68
99 52 66
78 42 56
79 44 59
83 45 61
74 42 57
76 42 56
79 74 119
65 108 179
68 110 183
68 114 191
71 115 192
69 113 189
69 111 184
70 114 191
70 118 197
67 112 189
72 120 199
71 121 202
70 118 197
72 122 203
73 122 203
70 115 191
69 117 195
72 121 202
71 121 202
71 121 202
71 119 198
69 117 196
68 117 195
73 124 206
72 121 200
73 124 204
70 119 198
70 119 199
70 119 198
72 122 202
71 120 199
73 124 206
73 123 204
72 122 202
71 121 202
69 118 198
71 122 202
69 117 195
69 118 198
71 122 202
70 120 201
72 122 202
71 122 202
71 122 200
73 124 205
70 119 197
73 124 206
72 123 205
72 123 203
71 120 199
73 124 207
73 124 204
65 114 191
73 124 205
71 121 201
71 121 201
70 120 200
69 119 197
68 118 195
71 120 198
68 119 196
68 118 197
72 123 202
70 120 199
71 122 201
67 117 191
68 119 195
69 120 198
70 121 198
66 118 191
69 120 197
63 114 183
65 117 187
60 109 176
62 111 177
45 94 124
36 96 75
33 89 70
34 96 79
34 94 75
39 105 81
49 125 97
43 112 87
52 129 98
49 126 98
49 127 95
49 126 99
52 130 99
59 144 108
55 137 102
53 132 101
59 144 106
57 139 104
61 146 109
59 144 107
63 152 108
62 149 108
57 140 103
64 151 109
62 149 109
67 159 115
65 155 113
63 152 113
68 159 114
66 157 113
66 157 114
68 161 115
67 158 113
66 157 113
69 162 115
65 154 110
73 169 120
65 154 111
69 163 117
69 161 113
68 160 114
69 161 115
72 166 116
67 158 113
72 168 119
71 165 117
69 161 113
70 164 117
70 163 114
66 159 113
69 161 113
69 162 115
71 165 116
70 164 116
70 162 114
69 163 115
70 164 116
68 160 113
70 165 116
69 162 116
69 162 114
71 165 115
70 162 114
71 165 116
71 166 116
70 163 115
71 166 116
70 164 116
73 168 117
70 165 115
69 163 114
70 164 115
71 166 117
71 165 116
71 164 115
71 166 116
73 169 118
67 159 112
71 166 117
71 165 115
71 165 115
69 162 115
71 165 117
71 166 116
73 170 119
72 166 117
72 168 118
70 163 114
72 166 117
69 162 114
69 163 114
72 168 118
70 164 115
74 170 119
73 169 118
73 169 118
72 168 118
70 165 116
216 232 250
221 235 255
221 235 255
221 235 255
221 235 255
221 235 255
221 235 255
221 235 255
221 235 255
221 235 255
221 235 255
221 235 255
221 235 255
221 235 255
221 235 255
221 235 255
221 235 255
221 235 255
221 235 255
221 235 255
221 235 255
221 235 255
221 235 255
221 235 255
221 235 255
221 235 255
221 235 255
221 235 255
221 235 255
221 235 255
221 235 255
221 235 255
221 235 255
221 235 255
221 235 255
221 235 255
221 235 255
221 235 255
221 235 255
221 235 255
221 235 255
221 235 255
221 235 255
221 235 255
221 235 255
221 235 255
221 235 255
221 235 255
221 235 255
215 221 240
155 79 89
159 81 91
154 78 89
161 82 92
158 81 92
154 79 91
157 81 92
161 82 92
155 79 89
151 77 87
150 77 88
153 77 87
160 81 92
160 81 91
159 81 91
155 79 90
156 80 91
154 78 88
152 78 88
152 78 89
159 81 92
156 80 90
156 79 90
160 81 91
157 80 90
155 79 89
155 80 90
154 79 89
150 77 88
156 80 91
153 78 89
152 78 89
156 80 91
152 78 89
156 80 91
153 78 89
151 78 89
152 78 89
155 80 91
153 78 89
153 79 89
147 76 87
148 76 88
148 76 87
150 77 88
151 77 88
154 79 90
149 77 88
147 76 87
152 78 90
140 73 85
150 77 88
155 79 90
147 76 87
146 76 87
153 79 90
150 77 89
144 73 85
144 74 86
148 76 87
147 76 88
143 73 85
145 75 87
144 74 87
141 73 85
141 73 86
141 73 85
140 72 85
145 74 86
140 73 85
147 76 88
141 74 86
138 72 85
146 77 88
134 70 83
134 70 83
125 66 79
136 71 83
135 71 86
125 66 79
131 69 84
124 65 78
116 61 76
121 64 79
116 61 75
123 66 82
112 60 75
109 59 74
113 61 75
84 46 62
101 54 69
93 52 68
75 41 56
81 44 58
79 44 60
92 49 63
66 37 51
66 75 124
65 99 165
67 109 182
66 104 172
71 117 194
67 113 189
69 116 193
73 119 196
68 111 185
70 119 199
69 117 195
71 118 196
70 118 196
72 123 204
72 118 195
72 122 203
69 117 197
68 116 195
71 119 199
71 119 197
70 119 198
71 119 199
71 120 201
73 124 206
69 117 196
70 118 195
71 121 200
70 119 199
71 121 203
70 120 200
72 122 202
71 121 202
69 118 195
72 123 204
70 118 197
73 123 205
69 118 198
72 123 204
70 120 199
72 124 206
66 112 190
72 123 205
69 118 196
74 126 208
73 124 205
72 123 203
70 120 199
69 119 199
69 118 199
68 117 192
72 123 205
74 125 207
70 119 199
71 122 202
71 121 200
68 117 196
70 120 198
70 120 199
73 124 206
69 118 195
73 125 205
71 123 203
70 121 199
71 121 199
70 121 201
72 122 202
67 116 192
67 116 192
68 121 195
67 118 192
66 117 188
63 112 181
67 118 191
57 107 170
62 113 177
41 91 121
24 76 61
31 90 73
35 96 79
38 106 82
39 102 75
40 107 83
36 98 75
52 130 98
50 128 98
49 122 87
52 127 96
56 138 103
49 125 99
57 142 108
56 135 99
55 135 101
56 139 104
55 137 103
57 139 105
59 144 106
66 155 113
66 157 113
62 149 110
60 144 106
66 154 109
61 148 108
62 149 109
66 155 109
63 151 111
65 153 111
66 157 113
68 158 112
68 159 112
68 159 114
68 160 115
68 160 114
69 162 115
70 162 116
64 152 111
66 156 111
70 162 114
65 152 109
69 161 115
67 157 113
70 165 117
70 163 115
66 156 110
68 161 112
71 166 116
70 163 116
67 157 111
69 161 113
69 163 116
72 167 117
68 158 112
71 165 116
72 168 117
72 168 117
70 164 114
70 163 113
73 167 115
72 167 117
71 166 116
69 160 112
69 161 114
70 164 116
69 161 114
74 171 120
72 167 117
68 159 113
71 165 116
72 167 117
72 167 116
71 165 116
71 166 117
73 169 118
74 170 119
70 164 115
72 165 115
70 162 113
73 167 116
71 164 115
71 167 117
74 172 120
70 164 114
70 164 114
71 167 116
70 164 116
72 168 117
72 167 117
69 162 113
72 166 116
71 165 116
69 162 114
72 167 116
72 167 117
72 167 117
209 227 243
221 235 255
221 235 255
221 235 255
221 235 255
221 235 255
221 235 255
221 235 255
221 235 255
221 235 255
221 235 255
221 235 255
221 235 255
221 235 255
221 235 255
221 235 255
221 235 255
221 235 255
221 235 255
221 235 255
221 235 255
221 235 255
221 235 255
221 235 255
221 235 255
221 236 255
221 236 255
221 236 255
221 236 255
221 236 255
221 236 255
221 236 255
221 236 255
221 236 255
221 236 255
221 236 255
221 236 255
221 236 255
221 236 255
221 236 255
221 236 255
221 236 255
221 236 255
221 236 255
221 236 255
221 236 255
221 236 255
221 236 255
221 236 255
215 223 242
157 80 91
155 78 89
152 78 89
153 78 89
152 78 88
156 80 90
154 79 89
159 82 92
158 81 91
155 80 90
153 77 88
157 81 92
153 77 88
144 74 85
160 81 91
151 77 88
148 76 87
158 81 91
158 80 91
160 81 92
153 78 89
148 76 87
154 79 90
155 79 89
149 77 88
155 79 90
149 76 87
160 81 92
157 80 90
158 80 90
152 77 87
159 81 91
156 79 89
148 76 86
152 78 89
155 79 91
150 77 88
157 80 91
152 78 88
154 79 90
154 79 90
145 75 86
154 79 90
151 78 89
159 81 91
153 78 89
153 78 90
147 73 84
147 76 88
155 80 91
151 78 90
151 77 88
150 77 88
151 77 88
146 74 84
153 78 88
146 74 85
147 76 88
146 75 86
143 74 86
145 75 88
142 73 85
151 78 90
140 72 84
149 77 89
147 76 88
139 71 83
142 73 86
132 70 83
142 74 87
137 71 83
140 73 85
138 72 86
142 73 86
135 71 84
137 72 84
126 66 80
132 67 80
125 66 80
123 65 80
124 66 80
125 66 80
124 66 82
117 62 76
122 64 78
124 65 77
110 58 72
112 60 75
113 60 74
103 53 66
89 49 64
84 47 65
89 48 62
73 40 52
74 40 52
63 36 50
80 42 54
54 67 113
66 101 168
68 110 184
68 108 179
66 108 180
67 110 184
71 118 197
68 112 188
71 117 194
71 120 199
71 121 201
72 121 201
71 120 202
72 122 202
71 121 201
68 113 190
71 119 198
72 122 203
72 122 202
71 121 200
73 122 201
73 123 204
71 121 199
69 118 198
71 121 202
70 120 198
71 121 200
72 123 204
69 118 198
72 123 205
70 119 198
71 120 199
69 119 197
72 122 203
70 119 198
72 122 203
70 120 201
69 119 197
69 117 196
69 118 197
70 119 198
70 120 200
71 120 199
72 123 204
73 124 205
69 119 198
72 123 204
70 119 197
69 118 196
70 122 203
69 118 198
70 119 199
71 120 200
70 120 201
70 121 198
69 118 197
71 122 202
70 120 199
72 122 201
67 117 192
72 122 203
71 121 201
71 123 205
70 121 200
72 123 204
73 124 204
71 122 202
70 121 199
64 114 184
65 115 187
68 119 193
65 116 186
61 112 179
66 116 187
58 105 169
35 74 106
28 81 65
22 71 57
33 90 71
42 109 82
39 102 81
43 112 86
41 110 87
50 124 96
46 118 91
53 131 100
51 130 100
51 125 95
48 124 96
58 141 103
57 138 103
58 140 105
53 133 101
60 146 110
57 138 102
62 148 108
64 153 111
59 143 106
66 156 111
62 148 108
67 157 112
63 150 111
66 155 111
61 147 107
64 153 111
63 149 107
63 151 109
69 161 114
70 163 116
70 164 116
66 155 111
68 160 115
72 166 116
68 160 113
64 152 110
68 159 112
68 160 113
69 162 115
70 163 115
70 163 115
66 157 111
71 165 116
67 158 111
70 164 116
69 161 114
68 159 111
69 162 114
66 156 111
70 164 116
67 159 113
72 168 118
67 159 113
69 162 114
73 169 118
69 163 115
69 162 114
74 172 120
73 170 119
70 164 115
68 160 113
70 161 113
72 168 118
67 159 112
71 166 116
70 162 113
71 164 115
70 164 116
73 170 120
69 161 113
71 165 115
73 170 119
71 166 117
74 170 119
72 167 117
70 163 114
70 164 115
70 163 115
73 170 119
71 166 115
71 168 117
69 162 114
73 169 119
71 166 117
72 167 117
74 171 119
71 165 116
73 169 116
71 166 116
73 169 118
71 166 116
74 170 118
72 168 118
73 168 117
208 228 242
221 236 255
221 236 255
221 236 255
221 236 255
221 236 255
221 236 255
221 236 255
221 236 255
221 236 255
221 236 255
221 236 255
221 236 255
221 236 255
221 236 255
221 236 255
221 236 255
221 236 255
221 236 255
221 236 255
221 236 255
221 236 255
221 236 255
221 236 255
221 236 255
222 236 255
222 236 255
222 236 255
222 236 255
222 236 255
222 236 255
222 236 255
222 236 255
222 236 255
222 236 255
222 236 255
222 236 255
222 236 255
222 236 255
222 236 255
222 236 255
222 236 255
222 236 255
222 236 255
222 236 255
222 236 255
222 236 255
222 236 255
222 236 255
216 227 246
158 80 91
156 80 92
156 80 91
153 78 89
155 79 90
154 79 90
150 77 88
150 77 88
157 80 90
151 77 88
152 78 89
151 77 87
150 77 88
156 80 91
156 79 89
155 80 90
151 78 90
146 73 84
158 81 92
154 77 88
158 80 91
149 77 88
153 78 89
152 79 90
161 82 92
147 75 87
155 79 90
154 79 89
150 77 87
157 80 91
151 77 88
156 80 91
148 76 87
155 79 90
147 75 86
151 77 88
153 79 90
150 77 89
154 79 90
158 80 91
155 80 91
151 77 88
151 77 88
152 78 88
155 80 91
153 78 89
155 79 90
154 79 90
157 80 91
154 79 90
151 78 89
152 78 89
144 74 86
146 76 87
147 76 87
153 79 90
141 73 84
147 76 87
148 75 86
147 75 86
145 74 85
140 73 86
146 75 86
145 75 87
142 74 86
147 76 88
144 74 86
142 72 83
139 72 84
141 73 85
138 73 85
137 72 86
126 68 82
131 69 84
127 67 80
145 75 88
126 67 81
130 67 79
113 61 77
121 65 79
132 68 82
134 69 82
127 67 82
115 61 76
118 63 77
112 61 75
122 63 76
114 59 72
113 60 73
107 58 75
99 54 69
81 45 60
97 50 62
72 38 52
87 47 60
61 35 48
75 38 47
63 65 107
67 105 174
64 104 173
68 110 183
67 113 190
70 114 190
66 109 183
71 118 195
69 115 192
67 111 186
69 115 193
72 122 204
72 120 200
71 121 202
68 114 190
71 120 199
71 120 200
67 116 196
68 115 192
70 119 199
72 122 203
70 119 197
72 122 202
70 119 200
71 120 199
69 117 193
70 121 201
69 118 199
71 120 199
72 121 200
72 123 205
71 122 204
71 122 203
69 119 199
73 123 203
72 122 202
71 121 201
70 120 200
69 118 196
70 119 198
71 120 200
70 119 197
70 120 200
68 117 195
70 120 201
73 123 204
71 122 199
70 119 198
72 123 205
70 120 200
70 118 195
70 121 202
68 117 194
71 122 202
71 121 200
67 115 190
69 119 195
72 122 201
71 122 200
70 121 198
67 117 193
71 121 201
69 119 198
74 126 209
68 117 192
70 120 200
68 118 193
66 115 189
69 120 194
62 113 183
64 115 184
64 113 184
62 115 180
60 108 173
63 113 182
44 97 126
30 86 67
24 77 63
34 91 71
33 93 74
41 108 82
40 107 86
47 121 94
41 111 89
55 132 96
42 111 87
47 121 95
48 124 95
56 136 99
58 141 103
53 131 99
54 134 99
60 146 106
56 136 101
57 140 105
61 147 109
66 156 113
63 150 109
61 145 104
63 151 111
59 143 105
65 154 112
69 161 115
63 151 109
66 156 111
65 153 110
65 154 111
65 153 111
65 155 113
63 150 109
66 156 112
65 155 109
66 156 113
64 154 111
68 160 115
72 168 118
66 155 110
65 153 109
66 156 110
65 152 108
66 156 113
70 163 115
69 160 113
69 162 114
65 154 109
68 159 112
69 163 115
68 161 112
73 167 117
69 161 113
70 163 115
69 162 113
70 163 114
70 164 115
71 166 116
75 172 120
72 167 117
71 163 114
69 162 114
70 164 115
70 163 114
71 166 116
69 162 112
74 170 118
72 167 117
72 167 116
72 167 117
72 165 115
72 166 116
70 163 115
73 169 117
67 158 112
72 168 117
72 167 117
72 167 118
69 162 113
72 168 117
69 161 113
71 165 115
71 165 115
69 162 113
70 163 114
73 168 117
72 166 117
72 167 118
70 164 115
75 173 120
72 168 119
68 160 112
72 167 116
72 167 118
73 169 118
70 165 115
212 231 246
222 236 255
222 236 255
222 236 255
222 236 255
222 236 255
222 236 255
222 236 255
222 236 255
222 236 255
222 236 255
222 236 255
222 236 255
222 236 255
222 236 255
222 236 255
222 236 255
222 236 255
222 236 255
221 236 255
222 236 255
221 236 255
222 236 255
222 236 255
222 236 255
222 236 255
222 236 255
222 236 255
222 236 255
222 236 255
222 236 255
222 236 255
222 236 255
222 236 255
222 236 255
222 236 255
222 236 255
222 236 255
222 236 255
222 236 255
222 236 255
222 236 255
222 236 255
222 236 255
222 236 255
222 236 255
222 236 255
222 236 255
222 236 255
214 223 242
154 78 88
151 78 88
156 79 89
155 78 88
155 79 90
154 79 90
152 78 88
151 77 88
152 77 88
157 80 90
159 81 91
155 78 88
155 79 90
155 79 90
159 80 90
154 79 90
153 78 88
157 80 90
148 76 86
155 79 90
156 79 89
156 80 90
155 79 89
148 76 87
153 78 89
152 78 89
149 77 87
152 77 87
154 78 89
155 79 89
150 77 87
160 81 91
155 79 89
157 81 91
155 79 90
153 78 89
152 79 89
149 77 87
145 75 85
153 77 88
151 77 87
155 79 90
151 77 88
150 76 87
147 75 85
146 75 86
149 77 88
149 77 87
147 76 87
151 78 90
149 78 90
147 76 87
149 77 87
149 77 90
144 74 86
144 74 85
142 74 85
142 74 86
155 80 91
154 78 90
145 74 85
141 73 86
148 76 88
149 77 90
150 78 89
153 78 89
133 69 81
132 69 82
141 72 84
141 73 86
147 76 88
138 71 82
136 71 83
133 69 82
133 69 81
139 73 86
143 74 87
125 66 79
132 70 84
129 68 80
128 68 81
129 68 83
114 61 75
125 66 78
120 63 76
115 61 76
109 59 76
90 50 67
93 50 65
96 53 69
93 51 68
87 49 64
78 40 52
81 45 62
75 41 54
55 29 41
67 36 47
73 66 106
66 105 176
63 106 178
63 101 171
67 110 183
69 116 193
66 112 188
71 119 198
69 116 193
68 113 189
70 116 193
71 118 195
67 113 190
71 119 197
71 118 198
69 118 198
73 122 201
68 117 194
69 117 196
72 120 199
70 119 197
70 120 199
70 119 199
65 112 189
72 122 203
69 117 196
71 120 199
74 124 204
70 120 200
70 121 202
69 116 193
71 120 199
70 119 200
69 117 195
69 117 197
71 120 200
71 120 199
69 119 197
70 117 193
70 119 197
70 120 199
73 124 203
71 120 200
73 124 207
71 121 199
70 120 201
71 121 201
68 117 195
68 118 195
69 118 196
70 120 200
72 122 202
67 114 190
70 120 199
70 120 200
71 122 202
66 116 191
68 117 195
68 119 197
70 120 201
68 117 196
72 123 203
70 120 199
69 119 196
70 121 199
68 118 193
65 114 186
66 116 191
72 123 202
71 122 200
67 118 193
63 113 182
61 113 175
62 111 177
62 113 179
40 91 113
21 68 56
31 86 67
32 86 67
27 81 65
38 101 81
42 107 82
45 115 88
44 113 86
37 102 84
45 116 90
54 133 100
51 127 96
54 132 99
55 136 99
57 137 100
61 147 108
57 139 104
55 135 100
64 152 111
58 141 104
59 141 104
56 135 100
61 148 108
59 144 106
63 150 108
62 147 106
66 155 111
63 152 112
64 154 110
62 149 110
66 155 111
67 158 113
66 157 112
63 152 107
65 154 111
65 152 109
66 157 113
68 161 114
70 164 117
70 163 115
69 162 114
65 155 109
70 162 115
68 160 114
69 161 114
70 162 115
70 164 115
68 159 111
70 164 115
70 165 117
66 156 110
71 167 118
69 162 115
68 160 111
69 161 114
70 163 116
71 165 116
71 165 115
67 158 112
69 164 113
68 160 112
72 167 116
68 159 111
70 163 114
73 168 117
71 166 116
68 160 113
69 161 113
70 164 115
69 160 113
72 167 117
73 169 119
74 172 119
71 165 116
73 170 119
69 161 113
69 163 113
71 166 116
71 165 116
74 171 120
72 167 117
70 162 113
69 163 115
70 164 114
73 170 118
67 159 111
70 164 113
71 166 116
73 168 117
68 160 112
74 172 120
72 166 115
71 166 116
72 167 117
72 166 116
70 164 115
69 162 114
217 233 250
222 236 255
222 236 255
222 236 255
222 236 255
222 236 255
222 236 255
222 236 255
222 236 255
222 236 255
222 236 255
222 236 255
222 236 255
222 236 255
222 236 255
222 236 255
222 236 255
222 236 255
222 236 255
222 236 255
222 236 255
222 236 255
222 236 255
222 236 255
222 236 255
222 236 255
222 236 255
222 236 255
222 236 255
222 236 255
222 236 255
222 236 255
222 236 255
222 236 255
222 236 255
222 236 255
222 236 255
222 236 255
222 236 255
222 236 255
222 236 255
222 236 255
222 236 255
222 236 255
222 236 255
222 236 255
222 236 255
222 236 255
222 236 255
222 236 255
161 98 108
151 78 88
157 80 90
155 79 90
154 79 90
155 78 88
152 77 88
155 77 87
158 81 92
161 82 92
154 78 89
147 76 87
153 79 89
156 79 90
152 78 88
156 79 89
153 78 89
152 78 89
151 78 89
151 77 88
156 79 89
157 79 89
157 80 90
154 79 89
144 74 84
156 80 90
150 77 88
152 78 89
144 74 84
153 78 89
149 77 87
153 78 89
157 80 91
156 79 89
150 77 88
146 74 84
149 76 87
153 78 89
152 78 88
151 77 89
147 76 87
150 77 89
146 75 85
152 78 89
154 78 88
152 78 88
152 78 88
149 77 88
148 76 88
150 77 89
141 73 84
148 76 87
151 77 88
148 75 86
147 76 87
153 78 89
144 74 86
147 76 87
142 74 86
141 73 85
137 71 83
147 76 88
135 71 83
142 74 86
140 73 86
146 75 86
142 74 86
138 71 81
134 70 82
138 71 82
129 68 81
140 73 87
146 75 87
133 70 83
125 65 77
131 69 82
136 70 82
132 70 84
129 68 82
130 68 81
120 64 78
127 68 83
107 59 76
107 58 73
121 63 75
117 62 76
107 57 71
105 55 67
120 63 76
106 58 73
73 41 56
83 44 58
92 47 59
82 45 58
63 34 47
69 38 50
47 28 41
62 55 87
57 88 150
62 100 169
69 115 192
70 111 185
68 112 188
66 109 182
70 114 189
68 114 192
67 113 190
69 116 194
68 114 191
65 109 182
70 116 192
73 122 202
70 119 198
66 111 186
70 119 199
68 114 191
72 120 198
70 119 198
73 123 203
70 119 198
68 116 193
71 120 199
69 118 196
68 116 195
69 119 197
70 119 197
69 116 194
71 121 202
71 121 201
71 120 199
72 123 203
71 121 201
70 119 198
68 117 197
72 122 201
69 118 197
72 123 204
70 119 200
70 120 199
69 118 198
68 116 194
70 119 199
70 118 196
72 122 202
70 121 201
67 115 191
73 123 203
71 117 193
72 121 200
69 118 196
68 119 199
70 121 201
71 122 202
68 116 193
71 121 203
71 121 201
68 116 192
65 114 184
69 118 198
70 121 197
69 119 195
67 116 192
66 114 188
68 119 194
67 117 192
67 118 192
70 121 198
67 119 191
66 117 188
63 112 182
60 111 172
58 107 170
45 101 112
31 83 62
35 94 74
32 89 73
41 107 82
27 84 71
33 90 66
41 107 81
42 110 84
41 109 85
40 110 91
53 132 98
48 123 96
58 140 104
51 129 99
54 134 100
51 126 94
58 143 105
59 143 107
61 147 110
61 147 106
58 142 105
57 140 100
61 145 105
59 143 105
64 151 109
63 150 108
62 149 109
62 147 108
66 155 111
63 151 109
63 149 106
62 149 109
66 155 110
65 155 111
67 156 110
67 158 113
66 156 112
63 152 111
63 150 109
65 154 108
62 150 106
69 161 113
64 153 109
68 158 112
67 157 111
70 163 115
69 163 114
69 162 114
70 162 113
71 165 116
70 163 113
69 162 114
67 158 111
67 158 113
69 162 113
72 168 117
68 159 112
67 157 112
69 161 114
70 162 114
69 161 111
70 164 115
73 169 117
68 160 112
69 162 113
72 168 117
71 165 116
71 166 116
70 163 114
71 165 116
71 167 116
71 165 116
70 163 114
72 168 118
73 168 117
73 169 118
69 162 112
73 170 119
69 161 113
71 165 116
70 164 115
69 163 114
71 165 116
73 169 117
71 165 115
71 166 116
71 165 115
69 161 114
70 164 115
70 164 115
69 162 113
71 166 116
71 166 116
69 163 114
72 166 115
71 165 115
85 170 126
222 236 255
222 236 255
222 236 255
222 236 255
222 236 255
222 236 255
222 236 255
222 236 255
222 236 255
222 236 255
222 236 255
222 236 255
222 236 255
222 236 255
222 236 255
222 236 255
222 236 255
222 236 255
222 236 255
222 236 255
222 236 255
222 236 255
222 236 255
222 236 255
222 236 255
222 236 255
222 236 255
222 236 255
222 236 255
222 236 255
222 236 255
222 236 255
222 236 255
222 236 255
222 236 255
222 236 255
222 236 255
222 236 255
222 236 255
222 236 255
222 236 255
222 236 255
222 236 255
222 236 255
222 236 255
222 236 255
222 236 255
222 236 255
222 236 255
222 236 255
173 131 143
147 75 85
155 79 89
156 79 89
156 80 90
153 78 89
152 77 88
153 78 88
152 78 89
152 78 88
153 77 87
153 78 88
155 79 90
153 78 88
160 81 91
156 80 91
154 78 88
153 78 88
155 79 90
150 77 87
151 77 87
153 78 88
146 75 86
156 80 90
154 78 88
157 80 90
154 79 89
153 79 89
156 79 89
156 80 90
151 77 88
153 79 89
162 82 92
151 78 89
152 78 88
150 77 88
155 79 89
151 78 88
150 77 88
145 75 86
150 77 88
146 75 87
149 76 88
154 79 90
152 77 88
148 75 86
147 75 85
160 82 93
148 75 86
144 74 84
146 75 86
144 74 85
148 76 88
147 75 86
149 76 86
148 76 87
141 73 84
149 77 88
141 73 85
147 75 87
147 76 89
144 74 87
141 72 83
135 71 84
150 78 89
137 71 83
140 71 83
136 71 84
145 74 86
145 75 86
133 69 81
137 71 83
141 73 84
134 71 84
123 65 80
135 70 83
128 67 80
122 65 80
129 68 80
135 71 86
122 64 78
118 64 80
108 58 72
129 68 82
98 54 71
109 59 75
104 56 69
111 59 72
107 57 71
98 52 66
96 52 66
89 46 57
96 50 62
81 45 59
70 37 48
71 36 49
79 42 54
62 51 79
61 95 160
64 100 166
64 100 168
64 103 171
70 117 195
69 113 187
69 115 193
66 111 186
68 113 189
72 121 200
72 119 197
70 119 198
68 114 191
70 118 195
70 118 194
71 121 200
69 118 196
69 117 194
71 120 199
69 116 195
68 116 193
69 117 195
69 118 197
70 119 198
67 111 185
71 120 200
70 120 198
70 118 195
68 115 193
73 124 205
70 119 199
72 121 201
69 118 197
69 117 194
73 125 208
70 119 199
72 122 201
70 120 199
72 122 202
70 119 199
73 124 205
70 119 195
67 114 190
71 122 201
68 116 194
72 122 202
68 117 195
68 117 197
68 117 194
68 116 192
71 121 201
71 120 199
70 119 200
70 121 197
70 120 199
68 117 194
69 118 195
69 118 196
69 118 198
69 120 198
72 122 202
71 120 197
66 114 191
67 117 194
67 118 191
73 123 202
67 116 190
63 113 183
71 121 198
66 116 189
68 119 193
61 110 177
58 109 171
55 104 162
41 92 106
32 88 67
31 89 70
24 76 66
35 97 74
41 105 78
40 105 81
45 114 88
49 121 92
40 110 85
48 121 93
41 109 88
48 121 90
52 129 97
52 129 96
51 126 95
55 135 104
56 137 102
59 141 103
62 148 108
54 134 100
62 146 105
62 148 107
60 145 107
57 138 102
59 141 103
65 152 108
62 148 108
64 151 109
68 160 114
59 143 105
66 155 110
59 142 104
69 159 113
64 152 108
66 157 113
65 155 111
66 156 110
71 165 115
68 159 113
69 160 113
66 156 110
70 162 114
67 157 111
70 164 116
72 168 118
68 159 112
70 162 114
70 163 113
70 163 115
69 162 114
70 164 115
71 165 117
67 158 111
70 164 115
68 160 112
66 156 110
70 162 114
68 160 113
68 160 114
70 164 116
67 158 111
68 159 111
68 158 112
71 165 115
71 166 116
72 167 117
71 166 116
72 166 115
73 169 118
68 160 113
71 164 114
67 158 110
71 165 116
71 165 115
70 163 113
71 166 115
70 164 114
73 169 118
67 158 112
70 164 115
70 165 114
69 162 113
70 163 114
73 169 118
69 161 112
67 157 109
64 152 106
71 165 116
74 170 118
70 163 114
67 158 109
69 160 112
72 168 118
69 161 113
71 165 115
71 165 116
124 184 159
222 236 255
222 236 255
222 236 255
222 236 255
222 236 255
222 236 255
222 236 255
222 236 255
222 236 255
222 236 255
222 236 255
222 236 255
222 236 255
222 236 255
222 236 255
222 236 255
222 236 255
222 236 255
222 236 255
222 236 255
222 236 255
222 236 255
222 236 255
222 236 255
222 236 255
222 236 255
222 236 255
222 236 255
222 236 255
222 236 255
222 236 255
222 236 255
222 236 255
222 236 255
222 236 255
222 236 255
222 236 255
222 236 255
222 236 255
222 236 255
222 236 255
222 236 255
222 236 255
222 236 255
222 236 255
222 236 255
222 236 255
222 236 255
222 236 255
222 236 255
186 166 181
155 79 90
151 77 88
152 77 88
153 78 89
151 78 89
156 79 90
154 79 89
145 74 84
155 79 89
154 78 89
149 76 86
152 78 89
150 77 87
155 79 90
151 77 87
150 77 87
150 76 87
158 80 91
153 78 89
154 79 89
156 79 90
148 76 86
152 78 89
148 75 86
154 78 88
153 78 89
151 78 89
154 79 89
147 75 86
157 79 90
152 78 88
161 82 93
144 74 85
144 75 86
154 78 89
150 76 87
154 79 90
146 74 85
152 77 87
152 78 89
154 79 90
147 76 87
150 77 88
151 77 88
153 78 88
143 75 87
149 76 87
151 77 88
155 80 91
150 77 87
142 73 84
144 75 86
146 75 86
149 77 87
152 78 88
150 77 89
140 72 84
143 74 86
152 77 89
144 74 85
149 76 87
146 74 85
137 71 82
142 73 84
142 74 86
137 71 83
131 69 84
131 68 81
134 70 83
135 70 82
138 72 86
138 71 84
139 72 85
138 72 85
138 72 86
138 71 83
124 64 74
133 70 83
122 64 78
122 64 78
115 63 79
117 62 77
113 59 72
122 64 76
112 58 70
104 55 68
106 56 70
109 58 72
95 52 67
89 48 62
85 46 58
76 41 54
87 48 61
79 41 51
61 35 50
79 41 52
68 42 59
58 92 156
65 105 176
64 104 174
67 109 183
64 103 173
68 111 183
67 113 190
68 116 195
68 110 184
71 118 196
69 115 190
69 116 192
67 114 191
70 117 193
70 118 194
71 119 196
71 120 199
70 119 199
73 122 202
69 114 189
70 120 200
68 117 197
69 117 196
71 120 199
69 117 194
71 121 201
70 118 197
69 117 194
71 121 200
70 118 196
69 117 197
68 117 195
70 117 195
71 120 200
67 116 194
71 121 200
71 121 201
69 118 195
71 121 202
65 111 184
69 118 195
69 118 197
67 115 192
70 119 197
70 120 199
67 115 194
73 124 205
70 119 196
71 121 201
65 113 188
71 121 201
69 118 195
68 117 194
69 118 196
67 116 192
68 117 192
68 117 196
71 121 199
68 117 194
68 117 193
62 110 182
71 121 201
69 118 196
68 116 190
70 121 196
67 116 190
68 117 193
66 116 190
69 119 195
69 120 197
61 110 176
68 118 189
55 104 161
60 109 173
38 96 87
31 87 66
32 88 68
36 95 72
34 94 75
35 96 78
36 97 76
37 101 81
48 121 93
48 122 91
51 129 97
48 123 96
51 126 97
59 141 103
55 134 97
53 131 99
56 137 101
58 141 104
62 146 105
56 135 99
60 144 106
62 149 109
62 149 108
61 145 105
63 151 109
63 148 108
60 144 105
62 147 106
65 153 111
67 158 112
67 157 112
68 159 113
64 153 111
66 156 110
67 157 111
65 154 110
67 159 113
67 159 112
67 156 111
68 159 111
69 162 113
69 161 115
68 159 113
62 148 106
63 151 109
68 158 113
68 160 114
68 160 113
67 158 111
67 158 111
64 153 108
68 159 112
69 160 113
71 165 117
69 162 114
69 162 113
69 163 114
70 165 117
68 160 111
67 158 111
67 157 110
67 158 112
70 163 115
68 159 112
69 162 113
68 160 112
72 167 117
70 163 115
68 160 113
69 161 113
71 164 115
70 165 114
72 167 116
69 162 113
70 164 114
71 164 116
69 160 113
72 168 118
72 168 117
72 166 115
68 159 111
69 163 114
68 161 114
69 161 112
73 170 118
72 166 117
70 164 115
71 165 115
70 164 115
70 164 115
72 167 116
71 166 116
72 167 117
70 163 115
70 163 113
70 164 115
71 166 116
147 195 180
222 236 255
222 236 255
222 236 255
222 236 255
222 236 255
222 236 255
222 236 255
222 236 255
222 236 255
222 236 255
222 236 255
222 236 255
222 236 255
222 236 255
222 236 255
222 236 255
222 236 255
222 236 255
222 236 255
222 236 255
222 236 255
222 236 255
222 236 255
222 236 255
222 236 255
223 236 255
223 236 255
223 236 255
223 236 255
223 236 255
223 236 255
223 236 255
223 236 255
223 236 255
223 236 255
223 236 255
223 236 255
223 236 255
223 236 255
223 236 255
223 236 255
223 236 255
223 236 255
223 236 255
223 236 255
223 236 255
223 236 255
223 236 255
223 236 255
223 236 255
204 199 215
149 76 87
154 79 90
147 75 86
148 76 87
152 77 88
152 78 89
152 77 88
154 78 88
153 79 89
145 74 84
155 79 90
152 77 87
156 79 89
144 73 83
151 77 88
154 79 89
150 76 87
151 77 88
155 79 89
151 77 88
150 76 87
154 78 88
154 78 88
154 78 88
157 80 91
153 78 88
150 77 87
152 77 87
152 78 89
151 77 88
155 79 90
151 77 87
147 75 87
156 80 91
141 73 84
160 81 92
149 75 85
152 78 88
154 78 89
154 78 88
145 74 84
155 79 90
150 77 88
147 75 87
156 79 90
147 75 85
151 77 88
153 78 88
142 74 85
142 74 85
153 78 89
145 74 85
138 72 85
141 73 84
145 75 85
148 76 87
150 77 89
137 71 83
141 72 84
141 72 83
147 75 85
144 74 86
136 72 86
147 75 87
137 71 82
140 72 84
136 70 82
130 68 82
135 71 84
136 70 81
134 69 82
129 67 78
132 69 82
129 66 78
138 72 84
137 71 83
121 64 78
119 63 77
127 66 80
120 63 77
123 64 77
112 61 76
121 63 75
120 63 76
102 57 74
99 53 70
102 55 71
103 55 70
92 49 63
98 53 67
81 43 56
90 47 59
86 46 56
82 42 53
73 41 56
73 40 53
71 40 53
59 89 150
66 107 179
67 111 186
70 114 189
65 106 175
64 106 178
67 113 190
69 115 193
66 109 182
70 117 195
68 113 187
68 114 190
71 120 199
71 119 197
69 115 191
68 114 189
67 114 191
68 116 194
68 115 193
69 118 195
72 121 200
71 120 198
70 118 197
70 119 199
74 124 204
67 115 192
67 115 193
70 120 201
71 120 200
70 119 197
70 118 196
72 122 203
68 118 198
68 117 195
68 116 193
69 117 195
69 117 193
69 117 196
70 119 198
68 117 196
69 118 196
65 113 189
71 121 199
71 121 202
69 117 196
68 116 192
68 117 195
65 112 186
70 119 196
74 125 206
67 115 192
68 117 195
66 114 189
73 124 205
67 116 193
68 117 196
69 118 196
65 114 189
68 116 193
70 119 199
69 119 195
64 113 184
68 117 195
71 121 198
70 120 199
66 115 188
65 115 185
68 116 191
66 116 190
59 107 172
62 110 175
60 108 176
59 108 173
52 100 155
33 90 72
29 78 62
31 83 63
29 82 63
30 85 68
40 104 80
37 102 77
32 90 72
40 107 81
46 116 90
47 120 89
53 132 100
50 123 94
49 124 93
53 130 98
57 137 100
55 134 99
57 140 103
58 140 104
54 133 101
61 147 106
60 146 107
63 151 109
57 139 103
61 147 108
63 148 109
58 141 103
67 156 111
64 151 109
62 147 106
60 145 106
62 148 108
61 146 107
63 151 108
62 149 109
63 149 108
67 157 111
69 161 113
69 161 113
68 157 110
69 161 114
70 163 115
64 152 109
64 151 108
66 155 109
64 151 106
66 156 111
68 160 114
65 155 109
66 154 109
69 161 113
67 158 111
70 164 115
71 165 115
65 152 109
69 162 114
69 161 113
69 161 114
66 156 111
69 161 113
70 165 116
69 161 113
67 156 110
65 154 107
71 165 116
69 162 112
73 169 118
70 163 114
71 165 115
68 160 112
69 163 113
71 163 113
67 159 112
70 162 113
72 168 118
68 159 113
72 167 117
68 160 113
70 163 114
67 159 110
72 167 117
69 160 113
71 164 115
69 161 112
73 167 117
68 160 112
73 169 117
73 169 118
70 163 114
68 160 112
72 168 118
72 167 117
68 161 113
72 168 118
70 163 114
71 166 116
71 166 117
174 210 207
223 236 255
223 236 255
223 236 255
223 236 255
223 236 255
223 236 255
223 236 255
223 236 255
223 236 255
223 236 255
223 236 255
223 236 255
223 236 255
223 236 255
223 236 255
223 236 255
223 236 255
223 236 255
223 236 255
223 236 255
223 236 255
223 236 255
223 236 255
223 236 255
223 236 255
223 236 255
223 236 255
223 236 255
223 236 255
223 236 255
223 236 255
223 236 255
223 236 255
223 236 255
223 236 255
223 236 255
223 236 255
223 236 255
223 236 255
223 236 255
223 236 255
223 236 255
223 236 255
223 236 255
223 236 255
223 236 255
223 236 255
223 236 255
223 236 255
223 236 255
216 222 240
155 79 89
154 78 89
155 79 89
149 76 86
151 77 87
156 78 88
144 74 84
156 79 89
148 75 85
149 76 86
156 79 89
151 77 87
157 80 89
148 76 86
146 74 84
156 80 90
154 78 89
155 79 90
155 79 89
150 76 87
153 78 88
149 76 86
161 81 91
158 80 90
146 75 85
150 76 86
148 76 87
149 75 86
153 78 88
151 76 86
148 76 86
149 76 86
148 76 87
148 75 85
150 77 88
148 76 86
160 81 91
150 76 87
154 78 89
149 76 86
157 80 90
148 76 87
150 76 86
140 72 84
156 80 90
148 76 87
148 76 87
151 77 89
150 77 87
149 75 86
149 76 87
147 76 87
143 73 85
146 75 85
142 74 86
140 71 82
147 75 86
141 71 82
148 76 87
139 72 82
152 78 89
147 76 87
128 67 79
135 70 84
147 75 85
148 76 86
139 71 82
135 70 82
134 68 79
141 73 84
140 72 83
129 67 80
130 68 81
123 65 80
126 66 79
133 69 82
122 64 77
127 66 78
124 63 74
131 69 81
115 61 75
124 65 78
117 61 73
107 56 70
99 54 70
114 60 73
107 56 70
96 51 66
99 51 63
82 43 57
85 46 58
83 45 60
82 42 54
73 40 55
58 31 43
60 35 50
80 42 53
77 82 133
60 96 159
68 111 186
65 109 182
64 106 179
67 111 185
67 110 182
67 113 189
68 111 184
68 115 190
71 116 194
67 111 185
70 117 196
64 106 179
70 117 194
68 114 190
71 119 197
63 108 182
69 118 196
70 118 197
68 116 195
69 118 196
68 117 195
65 112 187
68 117 194
68 116 195
66 113 189
68 116 193
70 118 198
72 122 202
69 119 199
68 116 193
70 119 195
70 120 199
69 118 197
70 118 197
69 117 195
70 120 198
67 115 194
70 119 198
68 117 195
69 118 196
69 117 195
66 114 195
67 114 190
67 115 191
69 118 197
69 118 197
71 120 199
69 118 196
70 120 199
67 114 190
69 119 199
66 114 189
70 119 198
69 117 193
69 118 197
69 118 193
68 117 192
72 123 202
64 112 186
64 112 186
62 111 181
62 108 178
66 116 190
66 116 191
64 112 186
67 116 190
66 115 188
65 112 184
61 108 174
57 106 169
61 111 178
49 101 142
30 89 72
30 83 64
29 77 59
33 88 66
40 105 80
37 100 81
38 101 77
38 102 81
44 112 84
45 115 86
45 115 88
54 131 96
56 136 100
50 125 96
55 134 98
53 131 99
53 131 97
56 136 102
55 135 101
61 146 105
56 137 102
56 137 102
60 143 105
57 139 103
60 144 104
64 150 108
61 145 105
60 145 107
61 146 106
63 150 107
65 153 108
60 144 104
63 151 108
64 152 108
65 154 109
67 158 112
62 149 108
68 159 113
65 154 110
64 151 108
66 156 111
69 160 114
64 153 110
68 161 112
70 164 116
67 158 111
67 158 112
66 156 109
66 155 108
68 160 113
65 154 109
69 161 114
67 157 111
66 156 110
68 160 112
68 158 111
70 164 115
70 164 115
72 167 117
69 161 112
70 162 114
72 167 117
69 161 112
70 164 115
69 162 113
66 157 109
67 156 110
68 160 113
67 159 110
70 163 114
69 162 113
69 162 112
70 162 114
69 160 112
68 160 112
69 161 113
71 164 115
71 166 116
69 164 114
68 160 112
71 164 114
68 160 113
67 159 112
70 162 113
69 162 113
69 162 114
71 167 117
70 163 115
66 155 110
69 160 112
67 157 109
68 158 111
67 157 111
73 168 117
71 165 115
71 164 115
70 164 115
209 227 241
223 236 255
223 236 255
223 236 255
223 236 255
223 236 255
223 236 255
223 236 255
223 236 255
223 236 255
223 236 255
223 236 255
223 236 255
223 236 255
223 236 255
223 236 255
223 236 255
223 236 255
223 236 255
223 236 255
223 236 255
223 236 255
223 236 255
223 236 255
223 236 255
223 236 255
223 236 255
223 236 255
223 236 255
223 237 255
223 237 255
223 237 255
223 237 255
223 237 255
223 237 255
223 237 255
223 237 255
223 237 255
223 237 255
223 237 255
223 237 255
223 237 255
223 237 255
223 237 255
223 237 255
223 237 255
223 237 255
223 237 255
223 237 255
223 237 255
223 237 255
223 237 255
173 146 160
153 78 88
144 74 84
152 77 88
146 75 86
155 79 90
154 77 87
155 78 88
150 77 87
150 77 88
152 77 88
159 80 91
145 74 85
147 75 85
154 77 87
148 76 86
152 77 88
149 76 86
147 75 85
156 80 90
147 75 85
151 77 87
147 75 85
150 77 88
145 75 86
158 80 91
150 76 86
152 78 89
152 77 87
150 76 87
149 76 86
153 77 87
152 77 88
146 75 86
149 75 85
153 77 87
153 78 88
146 74 85
150 77 89
151 77 88
151 77 88
147 75 86
149 76 86
149 76 86
148 76 87
146 75 87
146 75 85
150 77 88
150 76 87
143 73 83
151 77 88
142 73 85
143 74 86
150 77 87
140 72 84
149 76 88
142 73 84
150 75 86
139 71 82
137 71 83
143 74 85
136 70 81
139 73 86
137 70 82
142 74 85
137 70 81
138 72 86
144 75 87
132 69 81
128 68 80
132 69 82
124 66 80
136 71 84
127 67 80
131 69 82
126 65 79
127 66 79
123 64 77
126 65 76
128 66 78
114 60 75
121 64 77
100 54 69
109 58 71
103 53 66
108 57 70
118 61 75
104 55 68
99 53 67
91 49 63
76 41 52
80 43 56
87 45 57
70 37 47
68 37 51
86 46 59
94 51 64
115 127 165
60 96 162
64 103 173
68 113 188
66 107 180
66 109 182
66 111 185
65 109 182
71 121 201
67 113 187
68 114 190
66 111 187
67 114 188
67 112 186
65 112 188
71 119 197
66 113 186
71 118 195
69 118 197
68 116 193
67 113 189
69 118 195
68 115 192
71 120 199
68 116 194
68 115 192
70 119 200
70 119 197
68 116 195
66 113 186
71 120 199
73 123 203
67 114 192
72 123 204
69 116 193
70 118 196
67 116 194
71 120 201
71 121 200
66 113 190
70 118 196
68 117 194
68 116 192
69 118 196
67 114 189
72 121 202
70 119 198
70 119 197
72 122 201
70 119 198
71 120 199
68 117 196
68 117 193
69 118 196
68 117 195
68 117 194
69 118 195
70 120 198
68 117 192
65 112 187
63 111 184
70 120 196
67 116 190
69 119 197
64 112 186
65 112 185
66 115 188
64 112 184
60 107 176
67 116 188
59 107 170
64 114 182
57 105 165
134 158 182
37 99 76
37 97 74
33 88 67
30 87 75
31 90 74
37 101 78
44 112 85
44 114 87
39 102 82
42 108 83
47 118 90
45 115 89
44 115 87
46 117 90
50 122 90
48 122 91
53 131 98
61 146 106
57 140 103
58 139 102
62 149 106
60 144 105
57 139 101
59 141 102
61 144 102
58 139 102
64 151 109
58 139 101
61 146 106
62 146 104
62 148 107
62 149 108
65 154 110
67 158 112
62 148 106
65 153 109
65 152 108
66 155 111
63 148 107
64 151 108
65 154 110
65 152 107
68 159 113
66 155 109
65 152 109
65 153 108
66 156 109
64 151 106
68 160 114
68 159 111
65 154 110
70 162 114
67 157 109
67 158 111
66 156 111
67 157 112
67 158 111
71 165 116
68 159 112
66 157 109
67 158 111
67 158 112
68 162 112
70 162 114
70 163 115
71 164 114
70 163 114
70 163 114
70 165 115
66 155 109
69 160 113
70 164 116
70 163 115
66 156 108
66 155 108
71 165 116
69 161 112
72 166 116
65 155 108
69 162 112
73 168 118
65 154 109
68 160 111
69 163 113
74 170 118
70 162 113
71 166 116
70 163 113
69 162 112
70 164 115
69 162 112
69 162 113
69 162 112
73 168 117
66 156 108
67 157 111
99 177 138
223 237 255
223 237 255
223 237 255
223 237 255
223 237 255
223 237 255
223 237 255
223 237 255
223 237 255
223 237 255
223 237 255
223 237 255
223 237 255
223 237 255
223 237 255
223 237 255
223 237 255
223 237 255
223 237 255
223 237 255
223 237 255
223 236 255
223 236 255
223 237 255
223 236 255
223 236 255
223 237 255
223 237 255
223 237 255
223 237 255
223 237 255
223 237 255
223 237 255
223 237 255
223 237 255
223 237 255
223 237 255
223 237 255
223 237 255
223 237 255
223 237 255
223 237 255
223 237 255
223 237 255
223 237 255
223 237 255
223 237 255
223 237 255
223 237 255
223 237 255
223 237 255
223 237 255
202 189 204
157 79 89
151 76 86
155 78 88
149 76 87
150 77 87
154 78 89
154 79 90
151 76 87
151 77 87
151 77 87
147 75 85
155 79 90
153 78 89
151 77 87
150 76 86
147 76 86
148 76 86
151 77 87
150 76 86
150 77 87
151 77 88
144 74 85
150 76 87
143 74 85
146 74 84
153 77 87
148 75 85
155 78 88
148 75 85
151 77 88
159 80 90
144 74 85
148 75 85
148 76 87
152 77 87
147 76 87
146 75 85
147 76 87
159 80 90
147 75 86
152 78 89
147 75 86
152 78 89
143 73 85
136 70 81
144 73 85
147 75 87
140 72 83
155 79 90
145 75 85
147 75 86
136 70 82
151 77 88
140 72 82
144 73 84
153 78 89
141 72 83
140 72 84
137 70 82
135 71 82
146 75 86
145 75 86
135 70 81
139 72 84
143 73 85
141 72 84
135 70 82
132 69 82
132 68 80
135 69 82
134 70 82
126 66 79
133 68 81
131 68 81
129 68 82
127 66 78
125 65 78
118 63 77
113 60 73
123 64 75
126 65 78
108 58 75
104 56 70
103 55 69
88 48 63
100 53 69
91 49 62
101 54 67
85 47 63
74 40 55
86 44 56
78 42 56
80 42 54
77 39 50
67 36 50
114 78 91
140 161 193
59 91 153
63 101 169
66 110 185
62 102 171
63 103 173
66 107 179
65 108 180
69 116 192
67 111 184
66 112 186
66 112 187
67 114 191
69 117 194
66 111 186
70 117 195
67 113 189
66 112 187
68 112 187
66 114 191
69 115 192
69 116 192
71 120 201
68 116 195
67 115 193
67 116 193
67 115 192
72 121 199
69 117 195
71 120 200
68 114 189
68 116 194
66 113 191
68 116 194
66 114 190
71 120 199
72 122 203
68 116 194
70 120 200
74 125 206
67 114 190
67 115 193
68 116 192
71 121 200
68 117 196
68 115 192
67 115 191
69 119 198
69 118 197
68 117 195
67 115 191
66 113 188
68 116 194
69 118 196
71 121 201
66 114 190
67 115 190
69 119 196
69 118 195
67 116 194
67 115 190
65 112 185
67 115 188
67 117 190
64 113 183
67 115 187
68 116 192
64 114 184
66 115 189
62 110 179
61 112 175
63 112 181
54 102 161
130 155 191
65 116 104
34 90 69
34 90 70
35 93 73
42 104 79
28 83 66
34 94 71
41 108 83
41 106 81
42 106 84
38 103 83
44 112 85
47 117 89
52 129 98
52 130 99
50 125 96
54 130 94
54 131 98
57 138 103
58 140 101
54 133 99
62 148 108
62 147 106
60 145 105
54 132 96
61 144 105
58 140 101
61 147 107
64 152 110
64 152 109
62 150 108
63 150 107
59 140 100
64 153 109
68 160 114
68 158 112
63 149 106
69 161 113
61 145 105
65 153 109
67 156 110
67 156 110
65 152 109
69 161 113
65 154 110
68 159 112
66 157 111
67 155 109
68 160 113
67 157 110
68 160 112
64 152 106
68 160 112
68 156 109
68 159 112
70 161 114
69 162 114
68 159 111
68 159 111
72 167 116
70 164 114
67 158 110
70 163 115
69 161 113
68 159 112
67 159 110
70 164 115
69 160 112
69 161 112
69 161 113
70 163 114
68 159 111
70 164 115
66 156 109
69 162 113
72 166 115
71 165 116
68 159 111
70 163 114
70 163 114
68 159 111
69 160 112
72 167 117
69 162 113
68 160 112
70 163 113
70 163 114
69 161 112
70 163 114
68 160 113
71 166 116
72 165 114
68 160 112
67 158 111
74 171 118
66 157 110
172 207 204
223 237 255
223 237 255
223 237 255
223 237 255
223 237 255
223 237 255
223 237 255
223 237 255
223 237 255
223 237 255
223 237 255
223 237 255
223 237 255
223 237 255
223 237 255
223 237 255
223 237 255
223 237 255
223 237 255
223 237 255
223 237 255
223 237 255
223 237 255
223 237 255
223 237 255
223 237 255
223 237 255
223 237 255
223 237 255
223 237 255
223 237 255
223 237 255
223 237 255
223 237 255
223 237 255
223 237 255
223 237 255
223 237 255
223 237 255
223 237 255
223 237 255
223 237 255
223 237 255
223 237 255
224 237 255
224 237 255
224 237 255
224 237 255
224 237 255
224 237 255
224 237 255
224 237 255
217 223 240
154 78 88
152 77 87
152 77 88
151 77 88
151 76 86
145 74 85
152 77 87
149 76 88
152 78 88
147 75 85
153 78 88
154 78 88
149 76 85
152 78 88
148 76 86
146 74 85
151 76 87
153 77 87
158 80 90
153 78 88
157 80 90
146 75 85
156 79 89
154 78 89
143 74 84
157 80 91
148 76 87
147 75 86
142 73 84
145 75 86
153 78 88
154 78 89
141 73 83
153 78 89
148 74 85
149 76 86
152 77 87
158 81 91
147 75 85
149 76 86
144 74 84
151 77 87
152 78 88
142 72 83
143 73 84
143 73 84
150 76 86
149 76 86
149 76 87
143 73 84
153 78 89
137 71 83
144 74 83
142 74 86
131 68 80
146 74 85
147 76 88
141 73 84
148 76 88
137 71 83
131 68 81
135 70 82
132 68 80
138 71 81
140 72 83
135 69 80
137 72 84
136 70 81
129 66 78
141 73 85
134 70 83
131 68 81
126 66 78
121 63 74
116 62 76
117 62 75
118 63 78
126 66 80
119 62 75
120 62 75
112 58 70
107 57 73
91 49 63
98 54 69
101 53 66
90 46 58
102 52 62
87 45 58
77 43 58
90 48 60
74 39 51
85 45 58
62 34 48
65 34 47
89 48 63
141 147 170
154 176 206
63 94 153
67 107 178
62 101 171
66 109 183
64 105 176
63 104 175
67 114 191
67 114 190
66 109 184
71 117 193
67 112 187
72 121 200
62 105 178
67 113 189
65 110 185
67 115 192
68 116 195
68 115 192
68 114 191
68 116 194
69 117 195
65 112 187
69 117 196
69 117 194
71 121 200
67 115 192
69 117 195
70 118 197
70 119 197
67 114 191
65 112 189
65 112 189
69 118 196
67 116 192
66 114 191
66 114 190
70 120 199
65 112 188
72 122 201
69 117 191
67 115 190
70 119 198
71 120 200
69 118 196
69 117 196
71 121 200
66 114 189
70 119 198
69 118 196
67 116 191
66 113 186
68 117 194
64 110 183
64 110 184
68 115 192
65 113 189
69 118 195
67 116 191
69 118 196
68 118 193
64 112 189
63 111 180
69 118 195
66 114 188
64 113 183
66 115 188
63 110 179
61 109 176
63 111 182
61 111 176
65 113 181
61 106 165
154 175 203
117 145 160
36 96 72
31 85 69
36 94 71
38 99 75
36 95 71
36 95 76
38 98 76
39 102 80
43 110 86
45 116 88
48 122 91
46 116 87
55 135 99
50 126 97
56 135 100
48 124 90
52 129 95
52 128 95
55 135 101
59 141 101
55 135 99
55 133 96
56 134 94
58 142 103
61 145 105
63 150 108
59 139 100
61 146 106
58 140 101
62 145 103
59 143 105
65 154 110
63 150 108
62 145 103
66 156 110
65 153 108
61 145 104
61 148 107
65 154 109
61 144 103
67 155 110
66 154 109
66 155 109
67 158 110
65 153 106
67 157 111
65 154 108
69 160 114
64 151 107
68 159 112
69 159 112
69 163 114
68 160 112
65 153 108
67 157 110
70 163 114
65 153 109
68 161 113
65 153 108
68 159 112
71 164 114
65 155 109
69 161 111
70 162 114
69 161 112
69 159 111
67 158 111
67 157 110
69 163 112
67 157 111
66 154 107
67 158 111
66 155 109
72 166 116
67 157 110
69 161 113
67 158 110
66 155 108
71 164 115
68 159 112
70 163 113
71 164 114
70 162 113
69 162 112
71 165 115
68 160 112
71 166 114
66 157 110
68 160 112
71 165 116
69 161 113
68 160 112
68 159 112
70 163 114
70 163 115
212 231 244
224 237 255
224 237 255
224 237 255
224 237 255
224 237 255
224 237 255
224 237 255
224 237 255
223 237 255
223 237 255
223 237 255
223 237 255
223 237 255
223 237 255
223 237 255
223 237 255
223 237 255
223 237 255
223 237 255
223 237 255
223 237 255
223 237 255
223 237 255
223 237 255
223 237 255
223 237 255
224 237 255
224 237 255
224 237 255
224 237 255
224 237 255
224 237 255
224 237 255
224 237 255
224 237 255
224 237 255
224 237 255
224 237 255
224 237 255
224 237 255
224 237 255
224 237 255
224 237 255
224 237 255
224 237 255
224 237 255
224 237 255
224 237 255
224 237 255
224 237 255
224 237 255
224 237 255
224 237 255
171 138 151
150 77 87
154 78 88
148 74 84
148 76 86
149 75 85
150 77 87
149 76 86
150 77 87
147 75 85
151 77 87
148 74 84
148 76 86
151 77 87
144 73 84
155 79 90
152 77 87
149 75 85
149 76 86
152 77 88
148 75 86
145 74 84
153 78 88
155 78 88
147 75 85
151 76 86
147 75 85
147 74 85
143 72 82
153 78 89
150 78 89
150 76 86
153 77 87
141 72 82
147 74 84
141 72 83
150 76 87
141 72 82
153 78 88
148 75 86
142 73 83
150 77 88
148 76 87
141 72 83
144 74 86
148 75 85
142 73 83
146 76 87
140 72 85
153 78 90
143 73 83
143 74 85
146 75 86
158 80 91
146 74 85
145 74 85
149 76 87
133 70 82
136 70 83
145 74 85
135 70 81
131 67 79
126 65 77
137 70 82
136 70 81
135 70 82
133 69 81
134 68 80
142 73 84
139 70 81
130 67 81
132 68 79
123 65 77
131 67 79
122 64 76
112 58 72
114 60 73
112 59 72
124 65 79
116 62 74
123 64 76
121 63 75
99 52 65
102 54 65
120 62 73
98 52 66
94 51 65
94 50 64
98 52 64
98 50 61
72 37 48
72 38 51
82 42 53
80 41 53
100 56 69
149 166 192
155 176 205
112 137 182
66 106 176
58 95 160
63 102 171
61 99 168
64 105 176
66 108 180
69 114 189
67 113 188
69 117 194
66 111 187
67 114 188
71 119 197
65 109 185
66 111 185
68 116 193
68 116 192
68 115 192
67 114 193
66 113 188
68 115 192
71 120 200
63 108 181
71 119 195
72 122 201
71 119 197
67 115 193
67 113 187
68 116 191
68 115 192
70 118 197
70 118 196
68 116 193
68 116 194
68 114 190
63 110 184
70 118 195
67 115 194
69 117 193
72 121 201
67 115 192
68 117 195
68 116 192
68 115 192
66 114 193
71 120 199
72 121 201
68 115 191
68 117 195
69 118 197
67 114 191
68 116 192
65 113 187
63 111 182
68 116 193
66 114 189
67 115 191
68 117 194
69 119 197
67 116 191
62 111 182
66 116 190
67 117 191
65 115 188
64 112 185
64 110 180
65 114 184
63 112 180
64 114 182
62 108 173
52 96 155
98 129 173
156 177 205
151 173 198
43 103 80
32 86 66
39 102 75
37 98 79
38 99 76
42 108 82
36 99 79
40 103 78
45 111 82
47 117 87
49 121 93
50 123 92
49 122 92
54 130 97
49 121 91
52 127 93
52 126 93
55 134 99
56 137 101
60 143 104
60 144 105
60 143 104
62 147 106
60 144 105
61 146 103
64 151 109
64 151 109
60 143 104
61 147 105
62 147 107
65 152 108
68 159 114
64 151 106
67 156 110
59 140 101
62 148 104
68 159 113
59 143 103
65 153 109
66 155 108
64 151 110
64 152 107
64 152 108
63 149 107
62 148 105
62 149 106
65 153 109
64 152 108
67 157 110
64 153 107
62 149 106
67 158 111
63 149 106
66 156 109
69 160 112
68 159 110
65 153 107
67 158 110
68 160 112
67 158 111
68 158 111
67 159 111
69 161 112
68 161 112
67 157 110
64 153 107
68 161 111
71 164 114
67 159 111
72 166 115
67 157 111
69 160 112
66 157 110
66 156 109
71 164 115
70 163 114
70 163 114
66 157 111
67 158 111
69 163 115
71 163 113
66 157 109
72 166 116
69 161 112
68 160 111
69 161 113
67 157 109
71 166 115
69 162 113
67 157 110
69 161 113
70 163 114
66 155 109
71 163 114
136 189 170
224 237 255
224 237 255
224 237 255
224 237 255
224 237 255
224 237 255
224 237 255
224 237 255
224 237 255
224 237 255
224 237 255
224 237 255
224 237 255
224 237 255
224 237 255
224 237 255
224 237 255
224 237 255
224 237 255
224 237 255
224 237 255
224 237 255
224 237 255
224 237 255
224 237 255
224 237 255
224 237 255
224 237 255
224 237 255
224 237 255
224 237 255
224 237 255
224 237 255
224 237 255
224 237 255
224 237 255
224 237 255
224 237 255
224 237 255
224 237 255
224 237 255
224 237 255
224 237 255
224 237 255
224 237 255
224 237 255
224 237 255
224 237 255
224 237 255
224 237 255
224 237 255
224 237 255
224 237 255
224 237 255
206 205 221
149 75 85
153 78 88
156 79 89
147 74 84
144 73 83
151 76 87
146 74 84
150 76 86
151 77 88
152 77 87
152 77 87
148 76 86
150 76 86
149 77 87
153 79 90
147 74 84
153 78 88
149 76 87
142 73 84
158 80 90
152 76 86
147 75 85
147 75 86
149 75 86
145 74 84
154 78 88
151 77 88
156 79 90
148 75 85
156 80 90
148 76 85
156 79 90
144 73 84
147 76 87
153 78 89
152 77 87
139 72 83
148 76 87
148 76 87
154 78 88
146 73 83
144 73 83
152 78 88
148 77 88
142 73 84
145 75 87
145 75 85
147 75 85
143 73 83
136 69 79
139 71 82
140 72 84
142 72 83
145 74 85
136 70 82
135 70 82
144 73 84
139 72 83
144 74 85
144 74 84
133 69 80
132 68 80
136 70 82
130 67 79
136 70 82
133 70 82
127 66 78
136 70 81
114 58 69
123 63 75
116 61 72
139 71 83
135 70 82
127 66 77
112 59 71
102 55 69
99 54 68
123 63 74
114 61 75
116 61 74
93 50 64
115 60 72
105 55 70
105 55 67
95 51 64
95 50 62
86 46 59
91 48 60
88 47 60
72 40 54
83 43 54
87 46 58
63 35 49
115 113 132
158 179 206
156 177 204
136 159 195
60 95 159
63 103 172
66 107 178
67 108 179
66 109 183
65 109 183
67 111 186
67 111 185
66 112 189
69 112 185
68 113 187
65 111 185
67 111 184
66 113 188
72 122 202
64 110 185
66 112 188
66 113 192
68 115 191
68 115 190
69 118 195
68 116 192
65 111 187
67 113 190
69 115 190
69 117 194
69 118 196
70 119 198
69 117 196
66 114 190
69 117 195
66 112 188
70 118 197
69 117 195
71 119 198
64 110 185
67 114 190
68 116 191
66 113 189
68 116 193
69 118 196
69 117 195
66 114 190
69 118 195
66 114 192
70 119 198
64 111 188
69 117 195
69 117 195
68 118 196
64 111 186
65 112 189
67 115 192
69 118 195
63 110 183
66 113 189
67 115 189
67 115 192
67 116 191
70 120 198
65 113 187
64 111 185
71 120 198
60 108 177
60 106 176
62 108 182
64 110 184
63 111 181
57 104 166
54 100 155
137 161 194
155 177 204
159 179 206
99 134 134
34 94 73
39 101 75
36 96 72
40 101 78
39 102 77
38 99 75
42 109 83
44 113 86
40 106 82
49 120 92
46 117 85
49 122 89
50 124 92
50 123 90
54 132 96
51 128 97
56 136 101
50 126 94
55 132 96
58 139 100
58 138 99
59 139 100
52 129 92
59 141 101
60 144 105
59 143 104
61 147 103
55 134 95
62 147 105
65 153 109
60 142 102
65 153 108
60 144 103
63 149 106
65 153 110
65 153 109
63 149 106
65 153 109
63 150 107
61 146 105
66 157 111
65 155 110
64 150 107
65 154 107
66 154 109
65 155 109
67 156 110
68 159 112
64 153 107
64 151 106
62 147 103
68 159 111
67 157 109
66 156 111
69 160 112
67 157 110
70 162 113
70 163 114
65 153 107
71 166 115
69 161 113
68 161 112
68 158 110
66 157 109
68 161 112
67 157 110
69 160 111
69 160 112
70 164 113
70 165 114
68 159 111
69 162 113
70 163 113
67 157 110
69 162 112
68 158 112
69 162 111
68 160 112
66 156 110
70 162 113
64 153 106
67 158 109
66 156 109
67 158 111
67 158 110
70 162 113
66 156 108
67 157 110
65 155 108
67 159 110
72 166 116
68 160 112
66 157 110
195 219 226
224 237 255
224 237 255
224 237 255
224 237 255
224 237 255
224 237 255
224 237 255
224 237 255
224 237 255
224 237 255
224 237 255
224 237 255
224 237 255
224 237 255
224 237 255
224 237 255
224 237 255
224 237 255
224 237 255
224 237 255
224 237 255
224 237 255
224 237 255
224 237 255
224 237 255
224 237 255
224 237 255
224 237 255
224 237 255
224 237 255
224 237 255
224 237 255
224 237 255
224 237 255
224 237 255
224 237 255
224 237 255
224 237 255
224 237 255
224 237 255
224 237 255
224 237 255
224 237 255
224 237 255
224 237 255
224 237 255
224 237 255
224 237 255
224 237 255
224 237 255
224 237 255
224 237 255
224 237 255
224 237 255
224 237 255
162 118 130
149 76 86
151 77 87
153 78 89
147 74 84
146 74 85
149 77 87
148 76 87
148 76 86
147 74 85
154 77 86
147 75 85
151 76 86
144 73 83
150 77 88
143 73 84
151 77 88
155 79 89
146 75 86
154 78 88
149 76 87
150 76 86
148 76 86
146 75 86
150 76 86
148 75 85
149 77 87
147 75 85
155 79 90
154 78 88
149 76 86
150 76 87
145 74 85
153 77 88
150 76 86
144 73 83
141 71 81
141 72 83
143 74 85
146 74 85
147 75 85
145 75 86
145 73 84
143 74 85
149 76 86
144 73 84
147 75 85
143 73 84
149 75 86
136 69 80
139 72 82
140 71 81
144 74 84
137 71 83
148 75 86
140 72 83
142 73 84
139 72 83
134 68 79
129 66 77
140 71 82
134 70 82
134 69 79
141 73 84
129 67 79
128 65 77
124 65 78
129 67 80
137 71 83
134 70 82
119 62 75
124 63 75
119 62 74
133 68 79
128 66 78
114 60 75
124 65 77
106 57 72
117 61 74
106 56 70
115 59 71
110 57 68
102 54 68
104 54 67
100 52 63
90 47 59
88 47 58
85 45 59
91 47 59
77 42 57
82 43 56
78 41 54
76 39 50
147 163 190
155 176 203
157 178 206
151 173 201
64 96 157
60 101 170
63 106 177
65 108 181
67 111 184
64 106 176
69 114 190
68 110 184
68 115 191
65 108 183
65 105 176
66 110 185
67 112 187
68 114 190
67 111 186
68 116 194
71 119 197
69 118 196
69 117 195
66 113 189
69 117 194
66 112 188
69 116 194
67 115 192
71 120 199
66 112 189
68 116 193
68 115 192
68 116 195
69 117 196
69 118 198
68 116 195
71 121 201
67 116 193
67 115 193
66 112 186
67 115 193
66 113 190
66 112 187
69 117 194
64 111 186
66 112 188
68 114 191
71 121 201
65 113 189
69 118 197
70 118 196
68 116 193
70 119 200
65 112 187
67 116 193
62 108 182
68 115 193
66 113 190
69 118 192
65 113 188
66 113 189
65 114 187
67 115 188
66 113 187
66 114 186
67 116 191
63 109 180
66 114 188
60 106 173
61 107 176
58 104 171
59 105 171
59 107 170
58 101 158
157 178 206
155 177 205
157 178 206
137 161 183
43 102 80
38 97 73
38 99 75
40 102 74
39 103 79
41 105 81
34 95 76
46 116 88
45 112 87
51 126 92
49 122 90
46 116 86
44 111 84
50 127 95
55 133 96
48 121 93
50 123 89
52 129 95
57 138 100
61 145 104
56 137 99
57 138 101
57 137 101
59 138 99
57 137 99
55 136 99
61 148 105
63 149 106
62 146 105
56 135 97
61 144 101
60 143 104
60 142 102
62 145 104
60 145 102
61 146 103
61 145 104
63 150 106
66 156 110
67 158 112
66 155 111
65 154 109
67 157 111
64 152 108
66 154 110
70 162 113
70 163 115
66 155 110
65 152 108
67 158 111
67 157 111
66 155 108
64 152 106
69 161 111
66 155 107
64 150 107
69 161 113
65 152 107
68 157 111
71 165 116
65 155 108
63 151 105
67 157 110
66 156 109
69 161 112
64 151 107
70 163 114
65 154 107
67 158 111
68 159 111
69 161 112
68 161 112
71 163 114
68 159 110
70 163 114
72 167 117
68 159 111
66 154 107
69 162 112
68 160 111
69 160 113
67 158 110
69 162 112
69 161 111
67 158 111
70 162 112
71 165 114
69 161 112
70 164 114
68 160 111
65 154 107
67 160 111
114 177 149
224 237 255
224 237 255
224 237 255
224 237 255
224 237 255
224 237 255
224 237 255
224 237 255
224 237 255
224 237 255
224 237 255
224 237 255
224 237 255
224 237 255
224 237 255
224 237 255
224 237 255
224 237 255
224 237 255
224 237 255
224 237 255
224 237 255
224 237 255
224 237 255
224 237 255
224 237 255
224 237 255
224 237 255
224 237 255
224 237 255
224 237 255
224 237 255
224 237 255
224 237 255
224 237 255
224 237 255
224 237 255
224 237 255
224 237 255
224 237 255
224 237 255
224 237 255
224 237 255
224 237 255
224 237 255
224 237 255
224 237 255
224 237 255
224 237 255
224 237 255
224 237 255
224 237 255
224 237 255
224 237 255
224 237 255
225 237 255
200 194 210
149 75 85
147 73 84
153 78 89
149 75 85
152 77 88
146 74 84
155 78 88
149 76 86
144 74 84
155 78 88
151 77 87
144 74 84
151 76 86
148 76 86
152 76 86
148 75 86
143 73 83
144 72 82
146 75 85
147 75 85
153 78 89
149 77 88
150 76 86
141 71 81
147 75 85
140 72 82
157 80 90
144 73 83
144 74 85
150 77 88
145 73 83
144 73 83
148 76 86
144 72 82
144 73 84
144 73 84
142 72 82
145 74 84
142 71 81
147 75 85
146 74 84
143 73 83
146 74 85
137 71 82
145 73 84
144 73 85
139 71 82
137 70 81
139 72 83
144 74 85
134 69 81
143 73 84
135 69 81
142 73 84
147 76 86
135 69 79
142 72 83
132 66 76
135 69 81
131 66 77
143 74 84
144 75 87
130 67 78
139 71 81
137 71 83
132 68 80
123 63 75
136 69 82
129 66 77
125 66 78
130 68 80
113 59 73
115 61 73
124 64 75
114 60 73
118 61 73
99 51 65
113 59 72
115 60 72
108 56 67
109 58 71
103 55 69
105 55 67
95 51 66
93 49 63
85 45 59
86 46 58
88 48 63
87 47 60
58 32 46
85 44 56
118 110 129
157 176 203
155 177 206
157 176 203
155 177 206
121 147 190
58 89 150
62 102 173
64 107 179
61 101 172
62 103 174
63 107 179
65 108 180
65 109 182
68 113 190
69 115 191
66 111 183
65 110 182
65 109 183
69 115 191
62 106 179
66 111 186
68 114 190
66 113 189
68 114 190
66 113 191
66 113 191
67 114 190
65 112 189
66 114 190
69 117 193
67 115 193
67 114 191
67 114 191
69 117 195
70 119 197
70 119 199
66 113 186
69 116 193
67 116 197
67 113 189
71 121 202
66 113 190
66 113 189
67 115 193
66 113 188
68 115 191
65 112 187
69 117 194
66 113 190
67 115 191
69 118 196
64 112 186
67 116 192
67 117 193
67 115 190
68 116 194
65 113 191
67 116 192
66 114 189
67 116 192
66 114 189
69 119 195
62 110 181
61 107 178
63 109 182
65 113 185
62 109 180
62 108 181
67 117 193
62 109 178
58 104 169
58 104 169
55 100 162
98 128 167
158 178 205
156 178 205
156 178 206
154 176 204
82 122 120
36 96 74
36 96 73
29 83 68
34 94 73
37 99 77
42 104 76
41 105 82
39 102 78
42 110 86
49 120 88
51 125 91
49 121 88
55 133 98
48 120 89
55 131 96
55 135 97
51 125 94
54 132 100
52 128 91
53 130 92
56 135 100
56 137 101
53 131 96
59 142 100
55 133 97
56 134 96
59 142 103
58 138 99
60 145 101
60 143 102
61 147 103
63 150 106
60 143 102
66 156 111
62 146 104
59 142 101
63 150 105
65 153 109
64 151 108
63 149 105
61 145 103
67 156 108
64 153 108
66 157 111
68 157 110
63 149 105
64 152 107
67 155 109
64 150 106
63 149 106
66 153 106
62 147 103
67 156 110
66 155 109
66 155 108
64 152 107
69 160 111
65 154 108
67 157 110
68 159 112
70 162 114
68 158 108
67 158 110
67 157 110
71 165 114
70 163 114
65 153 107
65 154 107
71 165 114
67 156 109
66 156 110
67 158 111
64 153 106
68 160 111
68 159 109
69 162 113
65 152 106
65 154 108
66 156 108
68 160 113
68 159 111
65 153 108
66 155 109
68 159 111
68 160 111
69 162 113
68 159 112
68 158 111
70 165 114
71 164 114
70 164 113
182 214 213
225 237 255
224 237 255
224 237 255
224 237 255
224 237 255
224 237 255
224 237 255
224 237 255
224 237 255
224 237 255
224 237 255
224 237 255
224 237 255
224 237 255
224 237 255
224 237 255
224 237 255
224 237 255
224 237 255
224 237 255
224 237 255
224 237 255
224 237 255
224 237 255
224 237 255
224 237 255
224 237 255
224 237 255
224 237 255
224 237 255
224 237 255
224 237 255
224 237 255
224 237 255
224 237 255
224 237 255
224 237 255
224 237 255
224 237 255
224 237 255
224 237 255
225 237 255
225 237 255
225 237 255
225 237 255
225 237 255
225 237 255
216 230 249
207 222 242
210 224 243
201 216 237
193 210 232
191 208 230
183 201 225
182 199 222
172 191 216
164 184 210
152 118 135
147 75 86
150 76 87
149 75 85
153 77 87
143 72 82
145 74 84
142 71 81
150 76 86
146 75 86
148 75 85
150 77 87
150 76 86
149 76 86
141 72 83
145 74 85
146 74 84
151 77 87
147 75 84
152 76 85
139 70 80
146 74 84
142 71 81
144 73 83
152 77 88
144 74 84
151 77 88
147 74 84
150 75 85
146 74 84
144 74 85
148 75 85
140 71 81
142 73 83
144 73 84
144 74 84
143 72 82
143 73 84
145 73 84
141 73 84
148 75 85
136 71 81
140 72 83
144 73 83
143 74 85
145 74 85
135 70 81
140 72 82
135 68 79
136 69 81
148 75 86
148 76 86
146 75 86
135 70 81
135 69 80
132 67 77
144 72 82
145 74 85
133 68 79
130 67 78
135 69 79
128 66 77
123 64 76
130 66 77
125 65 77
130 67 79
126 64 75
129 66 76
129 66 77
127 67 79
118 61 71
130 67 80
118 61 74
116 61 73
136 71 83
126 66 79
112 59 73
106 56 68
100 52 66
102 54 66
110 58 70
111 57 70
104 54 66
94 49 61
85 45 60
93 49 62
94 51 64
96 50 62
92 49 61
82 42 54
82 49 61
151 168 194
153 170 196
156 177 205
155 175 203
156 175 201
145 165 196
63 96 158
59 94 159
64 105 176
62 106 178
64 108 182
63 105 175
61 102 173
61 103 174
66 109 182
65 108 181
66 111 186
63 108 183
69 117 195
62 105 177
67 113 188
66 113 189
66 112 188
66 113 190
66 113 189
66 114 191
70 118 196
65 112 188
67 114 190
69 118 196
70 118 196
67 113 191
66 114 192
66 113 190
66 113 189
66 113 189
67 115 192
67 115 192
67 115 192
69 116 193
64 111 185
67 114 191
67 115 191
62 107 180
66 114 192
67 114 189
63 108 182
68 115 192
65 112 186
65 112 189
69 117 195
66 113 188
65 112 188
67 114 189
63 111 183
68 117 192
68 116 194
67 116 192
67 114 190
63 110 184
62 108 181
66 114 188
60 107 175
65 113 185
63 110 182
63 110 183
66 114 189
59 105 173
60 107 174
54 98 161
62 108 178
58 104 171
62 109 179
58 105 169
139 163 195
150 174 200
157 178 206
155 176 203
154 176 203
149 169 193
47 103 86
30 88 65
38 99 78
41 103 77
38 99 77
43 109 82
49 121 90
39 102 79
38 99 76
44 113 83
50 123 93
44 111 81
44 115 87
51 124 91
54 130 94
57 137 99
53 129 98
58 140 103
54 132 96
59 141 101
56 135 98
62 147 107
57 137 101
59 141 101
59 143 101
60 143 102
62 147 105
64 151 105
63 149 108
61 147 105
64 153 106
64 152 109
58 140 102
62 147 105
59 144 101
64 149 105
62 146 103
62 147 104
66 155 110
64 150 107
65 153 108
65 152 108
68 159 112
61 144 102
62 147 104
65 153 107
66 157 111
66 156 109
66 155 109
68 160 111
65 153 108
63 150 105
67 157 110
66 155 110
64 153 106
66 155 109
68 159 111
67 157 110
64 152 106
68 159 111
67 158 110
67 158 108
68 159 111
66 156 109
70 164 113
72 166 115
65 154 107
65 155 108
69 162 113
66 157 110
66 156 108
69 162 113
68 160 112
69 160 111
68 160 111
68 159 111
71 165 115
65 153 107
65 154 107
65 154 107
70 162 113
70 161 113
69 162 113
71 164 114
70 164 115
71 165 115
67 157 109
69 160 112
68 159 111
69 161 113
101 169 145
164 184 210
175 194 219
175 194 218
185 202 225
189 205 227
189 206 229
205 220 240
206 221 241
212 226 246
218 231 250
224 237 255
225 237 255
225 237 255
225 237 255
225 237 255
224 237 255
224 237 255
224 237 255
224 237 255
224 237 255
224 237 255
224 237 255
224 237 255
224 237 255
224 237 255
224 237 255
224 237 255
224 237 255
224 237 255
224 237 255
225 237 255
225 237 255
225 237 255
225 237 255
225 237 255
224 237 255
221 235 253
212 226 246
207 221 242
208 222 242
199 215 237
193 209 230
185 202 225
182 200 224
176 194 219
166 186 212
158 179 207
157 178 206
157 178 206
157 178 206
158 179 206
158 179 206
158 179 206
156 177 206
158 179 206
157 178 206
159 179 206
158 178 206
156 167 193
147 99 113
149 75 85
151 77 87
144 74 84
150 75 85
148 74 84
149 76 86
144 74 84
150 76 86
143 73 83
147 75 85
145 74 85
146 73 84
152 76 86
151 76 85
146 74 83
145 74 85
153 78 87
149 77 87
142 72 82
152 77 86
151 77 87
145 73 83
143 73 83
141 72 83
141 71 82
142 72 83
148 75 85
144 72 82
146 75 86
150 77 87
138 70 80
147 74 83
143 73 84
149 76 86
138 71 82
145 74 85
138 71 81
143 72 82
152 77 87
144 74 85
146 75 86
145 74 84
148 74 84
133 68 78
139 71 82
140 71 82
130 65 76
152 77 87
142 73 83
137 70 81
143 74 85
133 68 78
148 75 85
144 73 83
144 73 83
140 72 83
132 66 76
143 73 85
132 69 82
130 68 79
133 67 78
130 67 78
126 65 77
122 64 77
129 67 79
121 64 78
130 67 79
130 67 80
121 63 75
127 65 77
126 65 77
105 56 69
125 65 78
111 57 69
106 56 70
110 57 69
114 59 71
108 56 68
107 55 68
100 53 67
91 49 64
100 51 63
102 53 63
90 46 58
87 47 60
74 39 51
89 45 55
92 48 61
134 142 164
155 174 200
156 176 202
151 170 196
153 173 201
154 175 203
152 170 196
104 129 175
58 96 165
62 103 174
65 106 177
62 102 174
63 102 171
66 111 187
66 110 183
64 108 181
65 110 185
64 107 179
66 112 187
65 110 186
62 104 177
63 106 177
66 112 189
67 114 191
66 112 188
65 111 187
67 114 190
69 115 191
67 115 190
67 115 190
67 115 192
67 114 191
68 116 194
68 115 193
67 114 191
68 115 193
65 113 189
67 114 190
69 117 195
64 109 182
66 113 188
64 111 186
65 113 189
66 114 190
69 117 197
68 116 192
70 119 197
65 111 185
67 114 190
66 113 188
64 112 186
64 111 187
67 115 191
65 113 186
68 116 194
67 114 190
65 112 188
68 117 194
68 117 193
63 111 185
65 113 187
62 109 180
66 114 188
62 109 180
65 113 186
66 114 188
67 115 189
63 111 180
59 104 174
63 110 181
59 104 173
56 102 166
60 108 176
57 103 164
99 131 168
155 176 204
147 171 199
153 175 203
154 176 202
153 176 202
152 175 204
115 145 157
41 107 77
37 96 73
36 97 76
34 92 73
39 102 77
41 105 79
42 107 80
46 115 85
46 116 86
55 132 96
52 127 93
48 120 90
50 123 89
52 130 94
53 129 93
54 131 96
53 128 92
53 130 94
54 133 98
54 130 94
57 138 97
59 140 101
61 146 104
55 133 96
61 146 103
60 144 104
63 149 105
62 148 103
61 146 105
61 146 106
61 145 104
63 148 106
60 144 104
63 150 105
64 152 107
64 151 107
67 155 107
62 148 104
64 152 106
64 152 108
64 152 106
66 154 109
67 157 109
63 150 105
65 152 107
64 151 107
65 154 106
67 157 111
66 155 108
65 153 107
63 150 106
63 148 104
61 146 103
67 157 109
68 158 110
68 160 112
66 155 107
67 157 111
67 157 110
67 156 110
67 158 111
67 158 110
66 157 107
68 158 110
64 153 107
65 153 108
71 165 114
65 153 107
69 160 112
70 162 113
65 155 108
65 153 107
67 157 110
64 152 107
64 152 106
67 157 111
67 158 111
67 158 109
65 154 107
68 158 111
64 154 105
67 157 109
69 161 113
68 160 111
66 157 109
69 161 112
68 158 111
67 157 109
73 157 116
151 177 197
157 178 206
156 178 206
156 178 206
157 178 206
156 178 206
157 178 206
156 178 206
156 178 206
157 178 206
159 179 206
157 178 206
158 179 207
169 188 214
178 196 221
181 199 223
190 206 229
190 207 230
197 213 234
211 225 245
211 225 245
216 230 249
223 236 254
225 237 255
225 237 255
225 237 255
225 237 255
225 237 255
225 237 255
224 237 255
197 213 234
190 206 229
185 202 225
183 200 224
169 189 215
163 184 210
158 179 206
158 179 206
157 178 206
158 178 206
157 178 206
156 178 206
157 178 206
157 178 206
157 178 206
158 179 206
156 178 206
157 178 206
158 178 206
156 178 206
157 178 206
155 176 204
157 178 206
156 178 206
159 179 206
158 179 206
158 178 206
157 178 206
157 178 206
157 178 206
154 143 165
152 77 87
146 73 83
147 75 85
151 77 87
147 74 84
145 73 83
140 71 82
152 77 88
144 73 83
145 75 86
148 74 84
145 74 84
147 73 83
147 75 85
144 74 84
152 77 87
142 71 81
149 75 85
143 73 83
139 70 79
139 72 83
145 74 84
146 74 84
145 75 86
145 74 84
153 77 87
147 76 87
154 78 88
144 74 85
146 73 83
145 73 83
152 76 87
140 71 81
150 76 86
137 70 80
150 76 86
144 73 84
141 72 83
139 71 80
144 73 83
143 72 83
142 73 84
144 74 85
148 75 86
137 71 83
139 71 82
136 68 79
139 70 81
142 72 83
144 74 85
134 69 79
136 70 81
138 70 81
138 70 81
133 67 77
127 65 77
135 69 80
131 67 78
128 66 78
142 73 84
138 72 83
131 68 80
130 66 77
114 60 73
134 70 81
127 64 76
118 62 73
123 65 78
115 59 72
118 62 75
135 69 79
107 57 71
112 58 69
120 61 72
111 57 69
114 59 70
105 54 67
105 54 65
106 55 69
94 50 63
91 47 58
92 48 59
87 45 57
87 46 58
93 49 61
81 41 52
85 45 57
118 106 122
156 175 202
155 176 203
152 172 199
155 175 204
155 175 202
155 173 200
152 170 198
143 164 197
60 96 161
56 91 157
60 98 166
63 104 176
68 114 190
62 103 174
66 106 174
63 107 179
61 102 172
67 112 188
62 105 178
66 110 181
67 114 192
66 110 183
67 113 189
63 105 178
63 107 181
64 109 185
65 110 185
64 110 184
64 109 183
62 106 179
65 111 185
65 110 184
70 118 196
64 111 187
64 109 183
67 115 191
65 112 190
68 115 193
67 114 191
71 120 199
65 110 183
69 116 194
65 112 188
70 118 196
68 116 191
66 113 191
62 108 183
65 112 187
68 115 192
62 108 182
67 115 192
66 115 191
61 106 179
65 112 187
66 114 189
64 111 187
64 110 184
68 117 192
66 112 188
67 115 188
66 113 187
64 111 185
63 110 182
62 110 182
67 116 192
62 109 179
67 117 190
62 109 178
57 101 167
62 108 178
57 101 167
57 104 168
56 101 166
53 95 156
135 158 193
152 175 200
148 173 197
152 176 202
154 177 203
156 177 203
154 176 202
151 173 197
70 116 109
42 106 82
40 105 78
38 97 75
34 92 70
43 107 83
47 117 89
41 102 74
43 107 81
46 116 89
43 111 84
51 126 90
50 122 89
49 119 86
56 135 100
52 128 94
59 142 101
58 138 99
54 132 98
58 139 99
56 137 100
55 134 96
57 137 97
61 145 105
59 142 101
61 147 106
60 143 103
58 140 101
58 139 101
60 144 102
60 144 103
60 144 103
59 142 100
60 143 102
61 147 105
60 146 105
61 145 102
62 147 104
64 152 106
60 145 103
65 153 107
64 151 106
63 147 104
63 149 105
65 153 108
66 154 107
65 152 108
67 158 110
64 153 105
62 148 105
67 157 109
62 149 104
66 155 108
69 161 112
69 160 113
69 161 111
66 156 109
65 154 108
63 150 106
67 156 109
64 152 107
63 150 106
64 154 106
66 155 107
71 163 113
65 153 107
63 149 105
67 158 110
67 157 109
69 162 113
67 157 110
68 160 110
66 156 108
67 158 109
67 158 109
66 157 109
67 156 109
70 164 114
67 157 110
69 162 112
68 159 111
64 151 107
65 154 107
68 160 112
65 153 105
67 157 108
64 151 106
68 159 110
127 169 171
158 179 206
157 178 206
157 178 206
157 178 206
158 179 206
157 178 206
159 179 206
158 179 206
157 178 206
156 178 206
157 178 206
156 178 206
158 179 206
157 178 206
157 178 206
157 178 204
157 178 206
155 177 205
158 179 206
158 178 206
158 179 206
157 178 206
158 179 206
159 180 208
157 179 207
173 191 217
175 194 218
184 201 225
187 204 227
199 214 235
158 179 206
159 179 206
159 179 206
158 179 206
155 177 206
158 179 206
156 178 206
158 179 206
158 179 206
156 178 206
159 179 206
157 178 206
159 179 206
156 178 206
156 178 206
158 178 204
156 177 206
158 179 206
157 178 206
157 178 206
157 178 206
157 178 206
158 179 206
157 178 206
158 179 206
157 178 206
158 177 204
157 178 206
157 178 206
156 178 206
157 178 205
149 116 133
146 75 86
143 73 83
148 75 85
142 73 84
139 70 79
149 75 85
146 73 83
147 75 85
141 72 83
146 73 83
139 71 81
147 75 85
142 73 83
143 71 81
145 73 82
149 76 86
148 76 86
146 75 85
150 76 86
148 76 86
148 76 86
143 73 83
145 75 86
150 76 85
142 73 83
143 74 85
147 75 86
147 75 85
144 73 83
150 77 87
143 74 84
146 73 83
142 72 82
139 71 81
145 73 83
133 67 77
138 71 81
143 72 82
141 72 83
143 72 82
138 69 79
146 75 84
138 71 81
140 71 81
140 71 82
136 69 79
142 73 85
130 68 79
144 74 84
145 74 85
135 69 80
127 65 76
138 70 81
133 67 77
137 70 81
135 68 77
121 61 71
127 64 74
127 65 77
122 61 72
121 61 72
130 67 79
126 65 77
123 63 75
118 60 71
121 62 72
120 63 74
128 64 74
119 62 75
125 64 76
120 62 75
118 60 72
109 57 69
101 53 65
115 57 67
105 55 67
98 52 63
102 52 65
111 57 68
100 52 64
94 48 60
89 45 55
99 50 61
85 44 55
75 41 54
99 71 85
148 165 192
154 171 198
152 172 201
155 172 199
151 170 198
153 172 199
157 178 206
154 174 201
148 169 197
108 132 178
58 96 164
63 105 176
60 94 159
64 108 181
63 103 174
64 107 179
65 105 177
65 110 184
62 102 171
65 108 181
66 109 181
64 109 184
63 108 182
62 106 180
65 109 182
65 112 186
68 115 192
67 115 194
64 110 183
67 114 191
66 112 188
66 113 189
64 109 183
67 114 190
66 113 187
65 111 186
67 112 187
69 118 195
63 109 184
66 113 189
64 111 188
64 110 187
69 117 195
62 108 183
65 112 188
68 117 195
64 111 185
65 112 187
67 114 190
65 111 186
69 117 193
66 114 190
66 113 189
66 114 191
63 109 183
65 112 186
64 110 186
66 113 188
62 108 181
63 109 180
64 110 183
63 110 182
67 115 190
63 110 183
61 106 177
66 114 185
63 110 183
59 103 172
62 108 180
65 112 184
60 103 174
59 105 169
55 97 164
53 97 154
95 126 167
147 172 197
151 172 197
147 171 196
147 171 196
151 175 199
153 176 203
148 172 198
149 172 201
142 167 189
56 110 89
39 98 75
36 98 72
40 101 78
35 95 74
42 105 80
41 106 78
47 117 84
49 123 92
46 115 86
47 116 88
44 111 84
53 129 90
51 126 92
56 134 98
48 121 88
49 124 93
54 133 95
55 134 97
54 132 95
57 137 98
62 148 104
54 131 97
55 134 97
58 140 100
59 143 100
62 147 104
57 140 99
59 139 99
63 149 106
60 142 101
62 146 101
63 149 104
62 147 104
65 155 109
62 146 103
64 151 107
64 153 106
60 144 100
62 148 104
65 153 107
63 150 105
67 157 111
67 156 110
62 146 103
63 152 106
66 155 110
64 153 108
66 156 110
63 150 104
64 152 107
62 147 103
64 153 107
66 157 109
63 150 104
67 157 109
63 149 104
66 155 110
66 154 109
66 156 110
70 163 113
66 154 107
62 148 103
61 146 102
68 160 111
64 153 107
65 153 108
68 159 111
68 160 111
66 157 109
66 156 110
65 154 107
65 154 107
65 153 107
67 157 111
67 157 110
69 161 112
65 154 108
64 153 107
66 154 107
69 159 111
70 162 114
68 159 111
68 158 110
66 154 108
65 154 107
101 166 144
158 179 206
157 178 206
156 178 206
158 179 206
155 177 206
158 179 206
158 179 206
157 178 206
157 178 206
158 179 206
157 178 206
157 178 206
157 178 206
156 178 206
158 179 206
157 178 206
157 178 206
156 178 206
159 179 206
158 179 206
156 178 206
158 179 206
158 178 206
158 178 206
156 177 206
156 178 206
158 179 206
156 178 206
158 178 206
157 178 206
157 178 206
157 178 206
157 178 206
157 178 206
157 178 206
157 178 206
159 179 206
155 177 206
157 178 206
157 178 206
159 179 206
157 178 206
157 178 206
157 178 206
156 177 206
156 178 206
158 179 206
157 178 206
155 177 206
158 178 206
158 179 206
157 178 206
156 178 206
157 178 206
157 178 206
156 178 206
157 177 204
156 178 206
158 179 206
155 177 206
157 178 206
156 177 204
158 176 203
151 100 115
146 73 83
146 74 85
142 73 83
148 75 86
142 72 82
145 73 84
146 73 83
141 72 82
148 74 84
150 76 86
146 73 83
144 74 84
147 75 86
147 75 85
146 73 83
145 74 84
145 74 84
149 75 85
141 72 82
141 72 83
150 76 87
145 74 85
143 73 83
140 71 81
145 74 84
143 73 84
144 73 83
156 79 89
146 75 84
132 67 77
141 71 82
145 73 84
138 70 80
142 72 82
144 73 84
141 71 81
138 70 80
144 73 83
136 69 80
146 74 85
142 73 84
140 72 83
141 72 82
144 73 83
146 74 85
132 66 76
139 70 81
136 70 80
132 66 78
140 72 83
138 70 80
137 70 81
127 65 76
136 69 80
128 65 76
129 65 76
127 65 77
130 66 77
125 65 78
132 68 79
122 62 73
131 67 78
127 65 76
130 66 76
129 66 76
116 60 72
125 64 76
120 61 72
119 61 73
102 53 64
113 59 71
101 54 68
96 51 64
113 59 72
104 55 67
100 52 64
107 56 67
104 52 63
102 52 63
101 51 63
77 40 51
85 44 56
90 46 58
80 47 59
139 155 180
157 177 204
151 166 192
153 173 201
145 158 184
152 170 195
152 170 198
146 164 193
150 168 195
149 168 196
145 168 199
62 88 143
62 103 174
64 106 177
64 109 184
64 106 177
65 106 177
64 108 182
64 107 179
68 114 189
65 110 183
63 107 179
65 110 185
63 107 181
66 111 186
63 106 181
61 105 174
66 113 191
66 113 190
70 117 194
65 112 186
65 110 184
67 113 187
63 108 184
66 113 189
63 109 182
66 112 188
63 108 181
66 113 189
69 119 196
68 116 195
64 109 181
68 114 189
61 106 181
63 108 184
66 113 187
66 112 188
67 115 193
67 115 192
67 113 188
67 115 191
65 112 186
62 105 177
64 111 184
65 112 187
67 115 191
64 110 186
68 115 193
68 117 193
60 104 177
67 115 191
60 104 173
59 103 174
64 111 184
61 107 176
64 109 181
64 110 185
64 110 182
66 113 184
60 106 175
62 109 182
60 107 173
55 100 161
54 99 159
54 95 152
140 164 191
152 174 201
151 173 201
155 177 203
141 165 191
145 171 194
152 174 200
144 167 194
152 173 197
149 172 198
127 152 169
47 114 83
39 102 73
33 92 70
38 98 76
41 107 82
46 114 86
50 123 90
50 123 87
46 117 88
48 120 89
52 125 91
49 122 87
53 129 94
53 129 93
50 123 87
49 120 86
55 134 98
54 130 95
59 139 97
55 133 97
58 138 97
53 130 94
63 149 107
58 141 101
56 137 98
59 141 101
60 143 102
58 138 98
61 146 104
62 146 103
61 145 104
58 140 101
62 147 105
60 141 101
61 144 102
62 147 104
57 138 98
60 145 104
60 145 100
66 156 110
67 157 110
60 144 103
67 156 109
61 143 101
65 153 109
63 150 105
61 145 103
65 152 106
63 149 103
62 148 104
64 151 105
66 154 107
67 158 111
66 156 107
64 152 105
63 149 105
63 150 104
64 152 105
64 152 106
65 155 107
63 150 104
65 153 106
61 145 102
65 154 107
65 155 107
65 153 107
67 158 110
69 161 112
66 155 107
67 158 109
65 154 107
67 157 108
68 159 111
67 156 108
65 155 107
64 152 105
63 148 104
67 157 109
65 155 107
67 157 109
70 161 112
65 154 108
68 159 111
69 160 111
79 156 120
154 177 199
157 178 204
158 179 206
158 179 206
158 179 206
157 178 205
156 178 206
157 178 206
158 178 206
159 179 206
156 178 206
156 177 206
153 175 203
156 177 204
156 178 206
157 178 206
156 177 206
156 177 206
157 178 206
157 178 206
156 177 204
159 179 206
157 178 206
156 178 206
159 179 206
156 177 204
156 178 206
155 177 206
158 179 206
158 179 206
159 179 206
157 178 206
156 178 206
157 176 203
158 179 206
159 179 206
158 178 206
157 178 206
156 178 206
157 178 206
156 178 206
158 179 206
156 178 206
158 179 206
158 179 206
157 178 206
156 177 206
157 177 204
158 179 206
158 179 206
158 179 206
158 179 206
157 178 206
158 179 206
158 178 206
157 177 204
158 179 206
157 178 206
158 179 206
157 178 206
155 176 204
158 178 206
157 177 204
157 177 204
156 168 194
141 87 100
143 72 83
152 76 86
153 77 87
151 77 87
146 73 83
151 77 87
147 74 84
147 74 84
142 72 82
149 76 86
147 75 86
142 71 80
148 75 85
137 68 78
146 74 84
144 73 83
142 72 82
139 69 78
140 71 82
145 74 85
143 72 82
141 71 82
136 69 80
144 73 83
141 71 80
139 70 81
148 74 84
137 68 77
138 70 79
139 69 79
149 75 85
144 73 83
142 71 81
142 72 82
143 73 83
146 73 83
140 72 82
133 67 77
138 69 79
135 69 80
134 67 79
131 65 76
138 70 81
141 72 82
141 72 82
140 71 82
134 69 79
137 70 80
131 68 80
138 69 80
133 68 78
132 67 78
134 68 78
125 64 76
134 68 78
128 66 77
130 66 77
127 65 75
126 65 74
128 64 76
133 68 79
124 62 73
120 62 73
118 61 72
116 60 71
117 60 72
117 60 72
116 61 72
112 57 69
105 53 65
116 58 68
106 55 67
100 51 62
106 54 67
99 51 61
92 48 60
87 45 59
101 50 60
87 45 58
85 44 57
96 50 62
80 40 51
124 124 145
147 163 191
147 161 188
151 169 196
145 162 190
149 165 193
149 167 194
147 165 192
154 171 198
149 164 191
147 165 192
144 160 188
122 143 182
58 91 155
57 93 158
61 101 172
58 98 166
56 96 163
64 107 178
64 109 183
62 101 171
61 103 175
64 110 186
66 112 188
62 105 178
64 108 183
62 104 177
65 109 182
65 111 185
64 108 182
65 110 185
62 106 179
64 110 184
69 117 195
66 112 189
66 111 183
66 112 187
65 111 185
65 112 187
63 110 184
66 112 187
67 114 191
64 110 184
61 107 181
65 111 187
63 109 186
64 111 187
67 114 191
63 109 182
68 116 193
69 117 195
65 111 185
65 111 187
66 113 188
61 106 179
63 109 183
65 111 186
61 105 178
66 113 188
68 118 195
63 109 185
68 116 191
63 109 182
66 113 188
65 111 186
64 112 185
60 105 176
62 109 179
64 112 183
59 104 171
56 101 166
57 102 164
59 103 169
59 103 170
59 105 173
109 137 173
147 169 198
145 170 194
145 169 193
147 169 197
136 164 186
146 170 195
141 166 189
146 170 195
148 171 196
142 169 193
146 171 194
103 134 142
39 98 73
37 95 70
39 102 76
38 100 77
42 108 82
46 114 81
40 104 76
45 114 85
47 120 86
49 122 91
48 119 86
53 128 91
50 125 91
52 130 96
57 136 98
51 128 94
57 137 97
57 137 96
61 144 103
55 131 93
57 136 99
53 129 93
51 127 92
61 145 103
56 135 96
56 137 98
62 149 105
60 144 103
60 144 102
59 144 103
57 138 98
59 141 99
61 144 101
61 146 105
61 145 102
60 143 101
65 154 106
62 148 104
60 144 100
62 148 105
66 156 110
66 155 109
64 151 107
61 146 104
62 146 102
66 155 108
69 159 110
66 157 108
63 148 105
67 156 110
64 149 103
64 152 106
67 157 111
62 148 103
62 148 103
64 152 105
67 157 110
64 152 107
65 153 106
68 160 111
65 152 105
68 158 109
63 151 105
64 153 107
61 146 102
67 156 110
65 153 107
64 153 106
64 153 106
67 158 109
61 147 102
66 155 108
69 160 111
68 159 110
62 147 103
67 157 109
63 149 105
66 154 107
62 148 103
65 153 107
67 156 109
66 156 108
80 157 120
151 176 199
155 177 204
156 177 205
156 177 203
157 178 206
158 179 206
158 179 206
157 178 206
158 178 204
158 179 206
158 179 206
156 177 206
156 177 206
156 177 204
158 179 206
158 179 206
156 178 206
157 178 206
157 178 206
157 178 206
158 179 206
157 178 206
157 178 206
157 178 206
159 179 206
156 178 205
158 179 206
158 179 206
157 178 206
157 178 206
157 178 206
156 178 206
157 178 206
158 178 206
157 178 206
157 178 206
158 179 206
156 178 206
156 177 204
158 179 206
158 179 206
156 178 206
158 179 206
156 178 206
157 178 206
156 178 206
157 178 206
159 179 206
158 179 206
158 179 206
156 176 203
157 178 206
156 178 206
155 176 204
158 179 206
156 178 206
156 178 206
158 179 206
157 178 206
156 176 204
157 177 204
158 177 204
158 178 204
156 176 203
155 176 204
157 178 206
153 161 186
144 73 83
143 73 84
141 69 79
136 67 76
143 72 81
139 70 81
143 72 81
144 73 83
144 72 81
142 72 82
143 71 81
148 74 84
141 72 83
146 75 84
144 72 82
137 69 79
142 72 82
143 72 81
144 73 84
136 68 77
141 71 81
142 72 82
144 72 82
149 76 85
145 72 82
145 73 84
142 73 84
147 75 85
139 70 79
140 70 79
136 69 78
140 71 81
142 72 83
142 71 81
140 70 79
141 71 81
139 70 79
139 71 81
134 68 78
134 68 79
140 71 82
142 72 82
131 66 76
141 72 83
147 74 84
131 67 78
126 65 77
145 74 85
138 70 80
130 66 78
134 68 79
134 69 78
130 66 75
132 68 78
132 66 76
136 67 76
131 67 78
130 66 76
121 60 71
126 65 77
125 63 74
109 56 67
116 59 71
134 68 79
117 60 70
124 64 74
113 55 65
129 66 78
123 64 77
116 59 68
115 57 66
106 55 67
106 53 64
102 52 63
101 51 61
99 50 59
104 53 64
85 43 54
96 46 55
87 44 55
90 48 60
121 115 135
154 168 194
149 168 197
147 163 190
148 168 194
144 162 188
154 170 197
151 162 188
149 162 189
143 157 185
144 163 192
145 163 192
146 161 187
144 162 191
79 103 154
58 97 164
59 95 162
60 100 169
60 101 168
62 103 173
64 107 179
62 103 173
61 103 174
63 105 177
60 103 175
61 102 170
67 113 189
65 108 182
63 107 178
65 110 185
67 110 184
65 111 187
62 105 177
64 109 184
64 111 186
64 110 185
64 109 184
64 110 185
61 105 176
67 114 191
67 115 191
68 115 192
66 113 189
65 110 183
65 111 187
64 112 186
63 110 183
64 109 183
61 106 180
63 109 184
64 111 185
62 108 180
66 114 189
66 113 191
63 108 183
64 110 184
66 112 189
63 110 184
65 112 186
65 112 187
66 112 187
64 110 185
67 115 190
62 106 174
64 111 184
64 111 184
62 110 181
60 105 173
60 106 176
54 96 167
60 104 174
54 100 162
66 114 188
56 100 165
59 106 172
84 120 171
146 171 194
146 169 198
135 164 181
144 168 193
145 168 193
139 166 188
141 167 188
141 165 189
144 168 192
134 161 184
143 170 191
144 168 190
145 169 196
102 136 139
46 114 83
33 91 67
43 109 80
38 99 74
46 112 83
48 118 85
43 108 79
42 108 81
45 114 82
53 129 94
51 123 90
46 115 83
55 134 96
57 135 97
54 131 92
52 128 91
50 125 90
51 125 92
55 135 97
53 130 93
57 138 98
53 129 92
58 139 99
55 135 97
59 142 100
57 137 96
56 135 96
58 139 97
60 143 103
58 142 102
59 141 99
59 140 99
56 134 93
62 147 105
64 152 106
62 149 104
68 159 111
62 147 104
64 150 105
62 149 105
63 148 104
63 150 104
67 157 108
63 150 107
63 148 104
63 150 104
68 159 110
68 159 111
61 147 102
65 154 107
64 151 104
64 150 105
67 157 109
69 161 112
61 148 101
66 156 110
64 152 106
66 156 107
65 153 107
63 150 105
67 156 109
64 152 106
63 149 104
64 152 105
61 147 101
69 160 112
64 151 104
69 161 112
66 156 109
66 156 108
62 148 103
65 154 108
69 160 112
66 154 108
64 153 106
65 154 106
66 157 108
61 146 102
65 153 107
65 153 107
70 154 113
141 173 188
157 178 206
155 177 205
154 177 205
154 176 203
158 179 206
159 179 206
156 178 206
156 177 204
157 178 206
154 177 205
156 178 206
156 177 206
160 180 206
156 178 206
155 177 205
157 178 206
155 177 206
158 179 206
158 179 206
157 178 206
155 177 206
158 179 206
159 179 206
153 176 204
156 178 206
158 178 206
157 178 206
156 178 205
157 178 206
157 178 206
157 178 206
157 178 206
153 176 206
156 177 206
157 178 206
157 178 204
156 178 206
159 179 206
157 177 204
157 178 206
157 178 206
159 178 204
157 178 206
156 178 206
157 178 206
157 178 206
155 176 204
157 178 206
156 177 204
158 179 206
158 179 206
156 178 206
155 177 206
158 179 206
157 177 204
156 177 206
157 178 206
155 176 204
158 179 206
156 178 206
157 176 203
158 179 206
158 179 206
156 178 206
157 178 206
156 175 203
157 178 206
150 153 178
152 85 95
144 73 82
142 71 81
141 72 82
143 72 81
150 76 85
150 75 84
144 73 83
138 70 80
136 69 79
144 73 83
141 70 80
144 74 84
139 70 80
140 71 81
141 71 80
137 70 81
151 76 86
142 71 80
143 73 83
147 75 85
143 73 83
147 74 84
145 73 83
138 69 79
143 71 81
141 71 81
142 72 82
139 70 81
141 70 79
145 73 83
136 69 80
146 74 85
131 67 78
130 67 77
133 67 78
137 70 80
143 72 82
147 75 85
134 68 78
135 68 78
135 69 79
137 70 80
120 63 75
134 67 77
137 69 78
133 67 78
128 66 78
134 68 78
134 68 78
138 71 81
137 69 79
122 61 70
136 69 81
130 66 77
125 63 73
127 66 77
130 67 78
125 64 75
121 63 74
117 59 70
115 58 70
109 55 65
124 63 73
123 64 75
110 57 67
110 56 68
111 55 66
107 56 68
104 52 63
109 56 66
95 48 61
96 50 61
104 54 64
87 45 57
111 57 67
103 51 61
110 56 66
99 50 59
122 115 135
147 157 181
147 159 184
145 159 186
145 160 186
142 156 181
148 154 178
145 160 189
150 163 189
136 152 181
137 154 183
142 157 183
144 157 182
143 162 192
139 153 181
135 151 184
70 104 168
53 85 147
62 104 174
62 102 169
63 104 174
60 99 167
59 98 167
65 108 181
65 109 181
60 102 173
64 107 179
62 105 178
66 112 188
63 106 179
66 111 184
60 103 176
65 110 185
63 108 184
64 109 185
65 112 188
63 108 183
61 105 176
59 101 173
66 114 190
64 110 184
60 104 175
61 105 179
65 110 184
64 111 182
66 113 187
62 107 180
67 114 190
65 112 189
62 107 180
65 111 186
61 106 179
63 108 178
63 109 183
67 114 192
62 107 178
61 105 179
60 103 176
60 103 175
66 113 189
61 108 178
60 104 175
59 104 176
65 112 188
61 108 180
62 107 178
62 107 180
59 105 175
65 111 183
63 109 181
63 112 181
64 109 183
58 103 168
56 101 168
55 100 163
64 102 159
130 157 184
140 166 190
140 164 189
134 162 183
135 159 180
138 163 184
142 166 190
139 164 187
139 165 190
137 164 183
147 171 197
141 167 189
141 165 189
143 167 190
143 169 189
86 123 124
34 92 69
37 98 69
35 91 70
36 97 72
42 109 75
44 114 83
41 106 76
56 132 92
48 119 88
46 115 84
51 126 90
51 123 88
50 121 89
51 125 90
55 130 93
50 125 90
52 127 92
55 131 94
57 136 96
57 139 96
60 142 100
57 138 96
56 136 98
54 133 95
59 139 96
62 146 103
58 138 98
59 142 98
58 140 98
58 141 98
55 135 93
57 138 97
56 138 98
60 142 101
62 148 102
62 148 104
62 147 103
58 140 99
65 151 105
64 153 105
59 142 100
62 147 103
61 147 103
63 150 105
64 149 104
65 153 106
68 160 111
64 152 105
63 150 105
63 149 104
64 151 104
64 153 105
66 156 108
60 144 100
64 153 106
65 154 107
66 155 108
65 153 106
61 146 102
64 155 106
62 146 101
65 153 106
62 147 104
64 151 105
63 150 103
64 151 106
62 147 103
66 155 107
68 159 111
65 154 108
62 147 102
69 160 110
65 154 108
63 149 104
66 155 108
69 161 113
63 152 104
64 154 104
73 157 115
141 172 188
156 178 205
157 178 206
157 178 204
158 179 206
156 177 206
156 178 206
158 178 206
158 179 206
159 179 206
157 178 206
156 178 206
156 178 206
155 177 204
157 178 206
155 177 205
158 179 206
156 178 205
156 178 206
157 178 206
155 177 205
158 179 206
156 178 205
157 178 205
159 179 206
157 178 206
157 178 206
155 177 205
157 178 206
157 178 206
156 177 205
158 179 206
158 179 206
156 178 206
156 177 206
157 178 206
155 176 204
158 178 206
156 176 204
158 179 206
155 177 206
155 177 206
158 179 206
156 178 206
156 177 204
156 178 206
157 178 206
158 177 204
157 178 206
157 178 206
157 178 206
156 178 206
156 178 206
156 176 204
157 178 206
157 178 206
156 176 204
158 179 206
156 176 203
157 177 204
156 176 204
155 176 204
158 179 206
158 178 204
157 178 206
155 176 204
154 175 203
156 177 204
158 176 203
156 178 206
154 160 185
143 80 91
142 71 80
147 73 82
148 75 85
146 74 84
147 75 85
145 73 83
140 71 81
141 72 82
143 72 82
147 74 84
139 70 80
141 72 82
139 70 80
146 73 82
144 72 83
152 76 86
145 74 84
142 71 80
140 71 82
136 69 78
144 73 84
144 74 84
137 70 80
140 71 81
138 71 81
142 72 82
143 73 83
138 69 79
136 69 80
132 67 76
139 70 80
134 66 76
132 67 77
135 68 78
143 72 82
141 70 80
130 66 77
127 64 74
138 70 80
129 65 76
136 69 79
133 67 77
134 66 75
132 66 76
136 70 82
134 68 77
134 67 77
134 69 80
130 65 76
130 67 76
127 64 75
132 68 78
128 64 75
129 66 76
121 62 73
129 65 75
123 63 74
117 60 70
126 63 73
123 64 76
116 60 70
125 62 73
117 60 71
102 53 66
106 53 65
105 52 63
119 61 72
114 57 67
102 51 61
97 48 57
104 53 64
106 52 63
100 52 64
93 48 59
100 51 61
95 48 58
123 111 128
145 157 182
138 144 169
142 153 180
142 151 177
143 151 176
146 160 186
145 160 188
141 146 169
139 148 174
141 154 181
144 159 184
146 159 185
142 156 183
142 160 187
145 159 186
140 154 184
119 131 164
62 95 159
60 100 166
61 102 173
62 104 174
60 101 170
60 101 171
66 111 185
60 101 174
59 99 170
59 99 169
62 104 175
64 110 185
61 103 175
65 109 183
65 110 184
65 112 188
64 110 186
65 111 186
62 106 178
63 110 185
64 110 185
60 105 179
62 106 181
61 103 177
67 113 189
65 111 184
62 108 181
67 113 188
64 110 181
66 113 188
62 107 181
64 110 186
67 114 193
66 112 185
62 108 181
63 110 184
65 111 185
58 102 173
65 113 188
63 110 182
65 112 186
61 105 178
61 106 179
67 113 189
64 110 184
64 111 185
60 104 176
62 107 180
65 112 186
61 107 178
60 104 175
56 101 167
61 108 178
58 105 171
55 99 165
57 100 168
60 105 175
57 103 161
108 134 160
134 157 183
133 158 183
136 160 182
133 158 181
130 156 174
137 163 185
125 154 169
140 164 186
131 159 177
131 157 179
136 162 182
136 161 183
137 164 183
140 165 187
137 164 180
140 167 187
96 130 134
36 96 68
41 102 74
38 99 75
39 103 74
44 110 80
38 101 74
43 108 79
51 127 90
46 116 84
48 119 83
44 111 82
52 125 89
45 116 83
52 127 91
50 123 91
52 127 90
56 135 98
55 136 92
56 135 95
55 133 93
54 132 94
58 139 99
56 136 95
56 134 94
56 136 97
60 144 101
58 137 98
55 135 94
63 150 106
60 144 101
63 150 106
63 149 104
61 147 101
61 145 101
55 136 96
54 132 92
61 144 102
64 152 106
65 152 106
63 149 105
63 150 104
65 153 107
64 151 106
62 147 103
65 153 107
64 150 106
63 150 104
60 145 102
63 148 104
63 150 104
62 148 103
62 147 101
67 158 109
64 152 107
59 141 99
65 154 108
67 156 109
62 148 102
62 149 102
64 153 105
64 151 104
64 152 106
62 148 102
66 156 108
62 148 103
62 147 103
63 148 103
63 149 104
62 148 102
65 154 105
61 147 102
62 148 102
66 154 108
65 153 106
68 159 110
63 150 103
72 154 112
142 174 188
156 178 206
158 179 205
155 177 205
156 177 204
158 179 206
158 178 206
159 179 206
157 178 206
159 179 206
158 179 206
155 177 206
155 177 206
157 178 206
154 176 204
157 178 206
156 177 204
156 178 205
155 177 205
156 178 206
157 178 206
156 178 206
155 177 205
157 178 206
157 178 206
156 177 204
157 178 206
156 178 204
157 178 206
157 178 206
156 178 206
157 178 206
155 176 205
154 177 205
155 176 203
155 177 206
156 177 204
156 176 204
158 179 206
158 179 206
156 178 206
156 174 201
156 178 206
157 178 206
157 178 206
157 177 204
157 178 206
158 179 206
158 176 203
158 179 206
157 176 203
157 178 206
158 179 206
153 175 204
156 177 204
157 176 203
157 176 203
156 173 200
157 178 206
155 176 204
157 177 204
158 179 206
157 178 206
155 176 204
156 178 206
156 174 201
157 177 204
159 179 206
157 177 204
157 178 206
157 178 206
158 179 206
155 165 191
142 88 102
146 73 83
144 73 82
142 72 81
140 70 79
146 74 83
135 68 78
140 70 81
140 70 79
141 71 80
142 71 81
138 69 79
150 75 84
143 73 83
142 71 81
140 70 81
144 74 83
144 73 83
145 73 82
140 71 81
143 72 82
142 71 81
141 71 80
143 72 82
142 72 82
139 70 80
137 67 77
137 69 79
142 73 83
136 69 80
142 72 82
143 71 81
132 66 76
134 66 77
142 69 78
137 69 79
137 70 81
132 67 77
134 67 77
132 66 76
133 67 77
132 65 75
139 70 80
115 58 67
136 70 80
132 67 77
124 64 75
133 67 77
131 66 76
124 62 72
126 65 77
128 64 74
135 67 77
130 66 75
130 65 75
120 60 69
128 65 77
124 64 75
123 63 73
118 58 68
114 56 66
119 60 70
119 61 71
115 58 69
110 56 68
114 58 70
107 54 65
103 53 64
115 57 67
105 53 66
94 48 61
105 54 64
104 53 63
87 45 56
90 53 64
122 113 132
135 143 167
140 147 169
146 160 186
142 149 175
142 153 178
142 153 177
144 149 174
141 148 173
139 149 176
146 158 183
139 150 173
137 144 170
141 155 182
140 152 179
137 148 174
136 150 178
140 154 182
131 146 174
118 137 176
55 86 145
59 98 165
60 99 168
62 104 175
64 107 179
61 103 173
60 101 171
61 103 175
62 105 179
59 100 172
61 105 180
58 100 171
63 105 175
62 107 180
60 104 177
70 117 193
64 109 182
63 108 184
63 107 181
61 105 179
63 108 182
64 108 181
60 102 172
65 111 186
58 102 172
64 111 182
64 109 182
65 112 185
69 116 192
57 100 168
64 110 183
64 111 185
62 107 182
63 107 179
60 104 174
64 110 184
63 109 182
63 109 182
63 108 179
63 109 182
64 110 185
62 106 181
61 105 177
62 107 179
65 112 186
60 102 171
59 103 172
64 110 182
57 101 169
58 102 173
56 98 164
63 108 177
63 109 178
58 101 169
57 103 166
51 96 155
109 137 165
132 158 183
119 142 169
136 163 182
132 157 181
124 151 175
131 159 176
137 163 184
136 161 184
127 154 173
131 156 178
125 155 176
125 153 169
130 156 174
125 155 171
135 164 181
131 156 178
134 163 178
134 165 179
100 141 141
42 102 77
38 98 71
42 105 77
42 108 79
44 109 83
47 115 83
44 111 82
45 112 81
46 114 81
44 114 84
53 130 93
51 128 91
46 117 83
51 124 90
49 123 87
54 132 94
49 124 91
56 136 96
62 149 105
53 127 90
56 137 95
52 127 92
50 123 87
57 137 96
58 140 99
57 138 97
55 134 95
54 134 95
61 144 101
57 139 98
61 146 103
59 142 99
58 139 96
62 148 104
63 149 103
60 145 102
57 138 99
63 149 105
62 149 102
66 155 108
62 147 102
65 152 108
65 155 106
63 147 103
62 148 105
63 148 103
64 152 106
67 156 109
63 149 103
61 145 101
64 151 106
62 148 103
65 154 107
61 145 101
64 152 106
62 148 102
68 159 109
65 153 106
63 150 103
61 146 102
60 144 99
65 153 105
63 151 105
60 145 101
64 152 106
60 145 99
65 152 106
64 151 105
58 140 99
61 147 101
64 152 103
65 154 108
66 155 107
64 151 105
86 156 127
137 171 184
157 178 206
155 177 205
158 179 206
156 178 205
155 177 203
158 179 206
157 178 204
155 178 205
156 178 205
157 178 206
157 178 206
157 178 204
158 179 206
155 177 204
160 180 206
158 179 206
158 179 206
158 179 205
155 177 204
155 178 205
155 177 206
157 178 206
157 178 206
159 179 206
156 178 205
155 177 204
157 178 206
156 177 204
156 178 205
157 178 206
156 177 206
159 179 206
155 177 204
156 178 204
157 178 206
156 178 206
157 178 206
157 177 204
158 179 206
157 177 204
158 178 204
156 178 206
158 178 206
156 177 204
158 179 206
156 178 206
157 178 206
156 176 203
158 179 206
156 178 206
157 178 206
155 176 204
158 179 206
156 178 206
155 176 204
157 178 206
156 176 203
157 175 201
154 176 204
159 178 204
155 176 204
157 177 204
158 177 203
156 175 201
156 178 206
156 177 204
158 179 206
156 176 203
155 175 203
156 177 204
158 178 204
157 176 203
155 174 201
155 171 198
147 112 129
145 71 81
134 67 76
145 73 82
147 75 84
140 70 79
146 73 82
138 70 79
144 72 81
142 71 81
147 74 85
142 72 82
141 72 82
140 71 81
142 71 81
145 73 82
135 67 76
138 68 78
142 71 81
137 69 80
144 73 83
138 69 79
142 72 83
140 70 79
138 70 81
138 70 80
141 72 83
136 69 79
135 68 78
147 74 84
137 69 79
132 67 76
137 70 80
130 66 75
122 60 70
138 70 80
134 68 78
135 68 79
133 66 76
127 65 75
127 63 73
132 67 77
131 67 78
138 69 79
122 62 72
123 62 72
118 59 70
117 59 70
126 65 75
135 68 78
116 59 70
119 60 70
119 61 72
115 58 68
127 64 74
121 62 72
123 62 72
120 61 70
117 60 71
110 55 67
110 55 65
114 58 70
112 58 69
109 54 64
110 51 60
103 49 59
97 50 63
95 47 58
101 51 62
100 50 60
110 56 66
89 46 58
101 55 66
119 112 130
129 130 152
135 135 157
129 134 160
140 148 171
127 135 158
128 132 153
140 151 177
135 142 165
130 140 167
144 155 180
143 152 178
135 144 170
137 146 171
133 144 171
131 141 166
136 143 168
137 147 171
137 153 179
136 145 168
124 136 160
94 111 153
49 84 146
55 95 164
61 101 169
63 104 175
58 96 163
59 100 169
57 98 168
62 103 175
58 100 170
62 103 172
62 106 180
62 105 177
58 98 167
60 103 176
61 105 178
65 110 184
63 108 182
61 105 178
63 106 179
66 112 187
62 107 180
61 105 178
62 107 182
66 112 186
61 106 181
67 114 190
63 109 183
63 108 181
66 114 190
63 109 182
61 106 176
62 108 181
62 108 180
64 110 184
63 109 185
61 107 179
63 108 183
58 101 171
61 105 178
60 103 176
61 106 177
64 111 184
54 96 159
61 107 179
65 113 185
60 102 173
60 106 174
63 108 181
58 102 168
60 105 177
56 99 166
58 101 168
59 104 173
51 91 152
102 131 167
121 149 169
119 148 164
132 156 178
128 156 176
131 157 175
127 154 175
124 151 176
129 156 176
120 146 164
120 147 159
122 152 167
116 142 162
133 159 179
111 142 151
124 152 169
133 159 179
115 146 156
127 156 171
118 146 162
126 156 171
121 150 164
53 113 86
45 111 78
40 101 73
43 110 77
48 119 84
43 109 79
44 113 77
42 108 78
51 126 91
48 118 83
51 124 90
52 129 92
42 109 78
52 127 89
52 125 90
53 131 92
59 141 100
57 138 96
60 143 100
51 126 90
56 136 94
54 130 93
60 143 99
51 127 90
56 136 97
56 138 96
59 139 97
58 138 99
62 148 103
59 142 99
56 135 96
58 141 99
62 148 104
64 150 104
63 149 103
63 149 102
62 148 102
62 146 101
64 150 105
57 139 97
62 149 104
56 137 95
59 141 97
61 147 103
59 145 99
63 148 103
64 151 106
59 143 99
62 147 101
62 145 100
67 157 108
64 149 104
63 150 103
62 148 103
65 151 105
62 148 103
62 149 103
62 148 102
67 157 108
62 150 103
62 148 102
65 153 106
68 158 110
62 147 102
62 149 103
62 149 103
62 148 101
63 151 104
67 156 110
63 150 104
62 148 102
66 154 108
92 155 134
148 174 196
156 177 204
153 176 203
153 176 201
158 179 206
157 178 206
156 177 204
157 178 204
157 178 206
154 177 204
156 178 205
157 178 206
157 178 206
154 177 205
158 178 206
156 178 206
155 177 205
153 176 202
156 178 206
157 178 206
157 178 206
158 179 206
156 177 203
157 178 206
156 178 205
156 177 203
156 177 206
156 178 206
156 178 203
159 179 206
158 179 205
154 176 203
157 178 206
156 178 206
154 176 203
155 177 206
157 178 206
157 178 206
157 178 206
156 178 206
158 179 206
157 178 206
157 178 206
155 176 204
156 178 206
156 178 206
156 178 206
155 175 203
156 176 203
157 177 204
158 179 206
157 177 204
158 179 206
155 175 203
155 174 201
156 176 204
156 178 206
157 177 204
159 178 204
156 178 206
156 176 204
156 176 203
158 178 204
159 178 204
156 175 203
156 174 201
158 176 203
158 177 203
155 174 201
155 175 203
155 174 201
157 177 204
156 177 204
155 173 200
156 177 204
154 175 204
158 176 203
146 137 159
140 74 84
143 72 83
134 66 75
138 69 79
140 70 80
139 71 81
146 73 83
142 70 79
137 69 79
140 70 79
146 73 82
141 70 80
145 73 83
139 70 80
143 71 80
134 67 77
131 66 76
133 67 77
137 68 79
145 71 81
140 70 79
129 64 74
138 69 78
142 71 81
138 70 80
141 71 81
135 68 79
141 71 81
136 68 77
130 66 77
134 65 74
136 69 78
132 67 76
126 62 72
133 67 77
132 67 77
132 66 76
133 67 78
131 65 75
133 67 77
127 63 74
136 69 79
123 60 70
126 63 73
118 60 70
129 65 75
132 66 77
127 64 74
121 61 72
123 62 72
125 63 73
124 62 72
126 63 73
121 61 71
122 61 71
104 53 63
116 59 69
109 54 64
121 61 71
119 61 71
107 56 67
102 49 59
103 51 60
110 54 64
103 51 61
98 47 57
93 46 56
100 47 56
102 51 61
93 71 84
121 125 148
132 134 153
136 139 161
131 134 157
128 130 153
136 141 165
133 137 158
129 141 166
129 133 156
124 134 159
130 133 154
136 145 169
132 141 166
122 132 158
129 135 162
131 139 164
130 140 168
133 147 174
127 141 170
137 149 173
132 147 176
129 137 165
131 147 178
83 104 154
54 89 151
52 87 151
55 91 156
52 89 154
58 98 168
61 103 175
58 98 166
60 103 175
61 103 174
58 99 170
64 109 183
64 106 177
61 103 175
61 104 173
59 101 171
58 100 173
62 105 177
66 112 187
62 105 178
61 103 174
62 107 181
62 108 183
59 103 173
61 104 176
62 107 180
63 108 182
57 99 166
62 107 180
60 104 174
61 105 178
64 110 183
60 104 172
63 109 184
60 105 179
64 110 186
62 108 179
63 108 178
60 105 177
58 101 172
62 109 181
57 100 169
63 108 181
61 106 177
56 98 166
58 101 170
55 99 167
57 101 170
57 100 167
57 101 170
60 104 175
59 102 169
55 98 162
95 122 161
116 142 164
108 137 153
120 148 168
131 154 175
129 154 177
119 147 163
115 142 163
124 150 168
114 144 162
116 143 161
120 145 165
121 150 168
109 141 154
123 149 163
124 150 167
115 145 159
114 143 155
104 137 144
123 152 167
117 145 160
110 143 155
114 148 155
107 143 141
65 111 95
39 104 72
42 109 80
43 109 77
42 106 74
48 119 85
49 124 89
47 116 82
47 119 82
44 117 81
44 110 78
54 129 89
53 129 91
56 133 94
53 130 91
47 122 86
59 140 98
57 139 95
60 143 102
57 136 96
53 130 91
56 136 95
59 141 99
54 132 93
53 132 92
56 135 96
60 143 99
56 134 93
57 139 97
58 140 97
57 136 96
61 145 103
60 143 99
60 142 99
59 142 97
58 141 98
63 149 103
61 146 100
60 145 101
58 141 96
63 150 103
66 156 108
62 148 102
60 145 101
66 155 107
61 144 100
62 148 103
63 150 104
62 147 103
62 147 105
61 146 100
64 151 104
63 151 104
60 144 100
64 152 105
66 154 107
64 151 106
62 149 103
61 147 101
63 149 104
62 148 102
63 149 102
61 146 101
62 151 104
64 150 105
60 143 100
61 146 99
62 148 103
64 151 106
65 155 106
115 162 159
151 175 199
155 177 203
154 176 204
156 178 205
155 177 204
156 178 206
155 177 203
155 177 204
156 178 206
155 177 203
156 178 205
158 179 206
155 177 203
156 177 204
156 177 204
155 177 204
156 178 204
157 178 206
154 177 203
156 177 204
156 178 206
157 178 204
156 178 206
157 178 204
159 179 206
159 179 206
152 176 203
158 179 206
157 178 206
157 178 206
159 179 206
157 178 205
158 179 206
158 179 206
155 177 204
156 177 204
157 178 205
158 179 206
156 177 205
158 177 204
157 178 206
157 178 206
156 178 206
156 178 206
156 176 203
157 177 204
157 177 204
158 179 206
155 175 203
155 175 203
156 177 206
158 178 204
155 175 203
156 176 203
156 176 204
157 177 204
155 176 204
156 177 204
158 179 206
156 177 204
156 178 206
156 176 203
155 175 203
155 177 206
156 176 203
158 178 204
158 178 204
155 174 201
156 178 206
156 176 204
157 178 206
155 173 200
153 173 201
156 175 203
155 173 200
158 177 204
157 176 203
156 175 201
153 170 197
152 156 181
144 92 105
144 72 82
146 73 82
136 67 77
139 71 81
132 66 76
149 76 85
138 67 76
144 72 82
138 69 78
133 67 76
136 68 78
137 69 80
136 67 76
137 69 79
135 67 77
142 71 81
139 69 79
139 70 81
137 69 79
133 66 77
134 65 74
139 70 79
134 67 76
137 70 79
133 68 78
136 68 79
136 69 80
131 65 76
144 72 81
137 69 78
134 67 77
126 63 73
120 59 69
129 64 73
131 65 75
136 70 80
136 68 77
121 59 68
133 67 76
139 71 80
125 62 72
125 63 72
133 68 78
125 63 73
120 61 70
119 59 69
128 63 73
129 63 72
128 64 75
134 67 76
119 60 70
123 60 69
108 52 63
119 61 72
108 55 66
107 53 62
104 50 59
117 58 67
114 55 63
95 45 54
109 55 65
103 52 63
101 49 59
99 48 59
97 47 56
95 47 56
111 92 106
126 126 146
120 111 130
127 120 139
125 126 147
128 129 150
126 128 149
125 126 148
130 132 156
126 129 154
121 118 139
124 127 148
118 119 140
120 123 145
122 127 154
128 136 161
128 134 158
119 129 155
124 130 156
124 139 169
124 137 160
122 135 162
126 135 159
127 138 164
131 136 161
125 134 161
77 95 139
54 90 153
54 87 152
57 97 165
57 95 164
58 99 170
62 104 176
57 97 164
56 95 164
64 106 178
57 96 165
55 97 169
64 109 181
67 112 187
55 98 166
62 106 178
61 104 176
60 103 174
61 104 177
63 108 182
61 105 178
61 105 178
64 109 186
61 104 175
60 105 177
58 101 173
59 101 171
60 103 176
61 106 180
63 110 184
62 107 179
60 104 175
66 112 186
61 106 181
61 105 178
65 110 185
56 99 167
61 104 177
58 102 174
59 102 170
51 90 157
56 97 166
57 101 170
60 104 172
57 101 168
58 101 171
57 99 169
56 99 166
57 100 168
56 99 166
55 94 156
81 108 147
109 135 159
123 147 168
119 144 166
135 158 182
126 150 172
111 141 155
110 136 156
112 137 155
108 140 152
109 138 154
119 146 164
106 134 151
110 139 156
119 146 163
106 135 149
118 148 162
100 132 142
122 149 164
100 129 136
109 137 146
107 139 145
104 136 146
105 136 142
107 144 146
110 142 152
86 124 120
46 112 80
40 105 73
45 112 80
44 109 76
39 105 74
44 111 80
43 110 79
43 112 76
46 117 82
46 117 83
46 114 82
52 128 89
53 132 90
52 127 92
55 133 91
59 140 100
55 132 93
53 131 91
54 130 91
58 140 98
57 138 96
54 132 93
60 143 100
55 135 93
59 142 98
60 143 99
59 142 101
59 141 100
58 139 97
55 132 92
52 129 89
58 139 99
59 141 99
57 139 96
60 144 102
58 140 97
58 140 97
63 150 104
61 148 102
60 143 99
63 149 103
64 151 105
59 141 98
60 143 101
62 146 102
60 145 100
64 152 105
62 149 102
64 149 103
63 150 104
58 139 96
63 149 103
60 143 100
66 157 108
64 151 105
57 139 96
62 149 103
63 151 105
62 149 104
59 143 98
61 146 102
61 146 101
62 148 102
67 157 108
61 148 101
61 147 100
78 157 118
134 168 179
153 176 204
158 179 205
156 177 204
153 176 202
153 176 202
157 178 206
157 178 205
155 177 205
154 176 201
155 177 206
153 176 202
154 177 205
157 177 203
153 176 202
155 177 205
155 177 204
157 178 205
157 178 206
152 175 202
156 178 205
156 178 205
157 178 206
156 178 205
153 176 203
157 178 204
153 176 201
155 177 204
156 178 206
158 179 206
156 177 206
157 178 206
157 178 206
157 178 205
155 177 203
156 178 205
157 178 206
155 177 206
157 178 203
159 179 206
156 178 206
154 175 203
159 179 206
158 179 206
156 176 204
156 175 201
157 177 204
158 178 204
154 174 203
157 177 204
156 174 201
159 178 204
156 177 204
157 176 203
155 174 201
156 176 203
154 176 204
155 176 204
156 177 204
153 173 201
156 178 206
153 172 200
159 179 206
153 172 200
155 175 203
157 177 204
155 173 200
156 178 206
154 172 198
156 177 204
155 174 201
154 174 201
158 179 206
154 174 203
157 177 204
155 175 203
156 175 203
158 174 200
157 177 204
154 175 203
155 175 201
155 174 201
149 162 188
145 121 139
140 70 79
138 69 79
134 67 77
142 70 80
137 70 80
147 74 83
132 67 77
133 66 75
138 68 77
134 66 75
133 67 77
140 71 81
137 69 78
134 65 74
137 67 76
140 70 80
137 67 76
136 68 77
135 67 76
135 67 76
131 65 74
135 67 76
130 65 76
133 66 76
135 68 77
126 63 73
132 66 76
127 64 74
129 64 73
132 67 77
136 69 79
133 66 76
131 66 75
128 64 75
123 60 70
127 62 71
134 68 78
131 65 75
124 61 70
126 62 71
124 63 72
120 59 69
132 65 74
124 61 70
121 62 71
121 59 68
133 68 79
112 53 63
110 54 64
113 56 67
113 56 66
111 56 66
112 56 64
113 55 66
107 52 61
97 48 58
104 50 59
105 53 63
108 54 63
107 54 64
98 49 59
109 52 60
93 44 53
92 49 58
117 105 123
108 92 105
121 119 138
111 103 121
118 114 133
120 116 136
116 110 132
126 132 153
114 113 135
121 125 148
123 125 145
111 110 133
118 123 145
111 113 141
116 120 143
111 116 144
124 129 154
115 125 150
135 147 171
115 122 148
113 126 156
114 125 153
117 125 149
123 133 159
118 128 155
113 126 155
121 132 160
122 130 154
98 117 154
52 87 152
61 103 175
63 107 179
53 87 148
56 95 163
59 99 169
58 99 171
57 96 163
61 100 171
63 107 178
60 103 174
61 103 175
60 101 172
62 107 180
66 111 185
61 105 179
58 100 173
58 100 170
58 100 171
57 99 172
59 103 177
59 102 174
59 102 172
64 110 186
61 106 180
59 102 172
59 101 172
60 104 176
56 98 168
57 100 170
57 99 168
60 102 175
59 103 174
62 107 179
62 107 181
58 101 171
59 103 173
60 105 178
60 105 176
59 102 171
58 102 173
57 100 169
57 101 170
56 100 172
56 99 168
55 98 164
57 100 168
50 91 154
93 119 151
116 140 165
109 137 152
109 134 157
121 148 165
103 133 155
111 139 158
113 141 161
102 128 146
110 135 157
126 148 167
91 124 131
105 135 154
113 139 160
122 149 165
109 137 150
108 139 154
102 130 144
86 121 124
96 128 137
102 129 135
111 139 151
102 131 138
114 141 151
104 136 140
103 134 139
103 135 142
93 129 128
91 128 124
53 100 80
35 97 66
41 104 74
42 107 76
45 113 81
52 129 88
41 108 74
46 115 81
52 130 90
46 116 83
50 124 86
52 127 90
51 124 87
47 118 84
57 136 94
55 135 93
46 117 83
52 129 90
55 132 93
54 131 92
51 130 89
56 136 93
56 136 95
56 135 96
56 136 96
59 143 99
56 136 93
54 131 91
53 132 92
56 136 94
56 136 93
63 149 104
60 142 100
61 145 101
62 149 102
60 144 100
56 138 95
59 141 98
62 147 103
60 143 101
53 131 91
59 142 98
60 144 99
61 146 101
62 147 102
61 146 101
61 146 102
62 148 101
65 154 107
60 143 99
64 151 105
63 150 103
66 154 107
61 147 101
67 157 108
61 149 103
57 139 97
59 143 98
60 145 100
61 147 102
62 148 102
59 143 99
64 152 105
60 143 99
109 157 151
148 175 195
154 177 203
153 175 202
156 178 204
156 178 204
155 177 203
154 177 202
156 178 203
154 176 203
158 179 205
155 177 205
152 175 200
152 175 200
150 174 199
153 176 203
157 178 206
154 177 203
151 175 201
157 178 204
156 178 206
155 177 206
153 176 202
157 178 205
157 178 206
155 177 204
156 178 203
156 178 206
156 178 204
156 178 203
157 178 205
157 178 205
156 178 204
156 178 205
157 178 206
155 177 204
158 179 206
156 178 206
157 178 206
154 177 203
155 177 206
158 179 206
158 179 206
157 177 204
156 177 204
155 174 201
155 176 204
157 178 206
157 177 204
157 178 206
156 177 204
155 176 204
155 175 203
157 176 203
157 177 204
157 177 204
157 177 204
154 175 203
155 177 206
157 177 204
156 177 204
155 174 201
156 174 201
156 174 201
158 177 203
156 176 203
154 174 201
156 172 198
157 173 200
156 176 204
153 172 200
155 172 198
155 175 203
155 175 203
154 173 200
156 174 201
154 173 200
157 175 201
156 175 203
156 174 201
156 178 206
154 172 200
153 171 198
154 171 198
155 173 200
153 170 196
148 145 167
139 97 112
137 67 76
139 69 78
136 68 77
127 64 73
138 70 79
129 65 74
137 70 80
139 69 79
136 69 79
135 68 78
137 66 75
133 66 75
140 69 78
132 67 77
134 68 76
140 71 80
139 69 78
130 64 73
134 67 76
118 57 65
130 65 74
137 68 77
133 68 79
128 62 71
129 64 74
126 63 73
133 67 77
129 65 74
125 63 73
131 66 76
127 63 74
131 65 75
118 58 67
122 60 70
122 61 71
129 63 72
117 56 65
128 62 71
133 67 76
130 65 76
121 62 72
122 61 70
116 59 68
123 61 70
124 61 70
122 59 68
110 54 63
113 54 64
120 59 68
116 58 68
117 58 67
106 52 61
108 53 63
107 53 62
108 51 61
96 47 57
110 56 66
90 43 54
100 48 57
85 47 57
108 79 91
112 105 122
118 114 131
104 101 119
117 107 123
120 113 131
102 93 111
117 115 134
114 103 121
112 108 126
121 123 145
125 126 147
118 120 139
125 125 144
114 116 137
129 137 161
120 128 154
117 124 148
111 119 144
129 141 165
121 123 144
113 117 141
121 134 160
119 127 155
111 120 144
104 117 145
112 123 148
119 130 156
120 130 156
109 121 146
110 125 153
101 118 155
66 95 153
53 91 158
54 89 152
54 90 155
58 98 165
61 104 175
60 100 169
55 94 163
58 99 171
61 103 175
59 102 173
58 100 170
59 102 174
58 100 170
60 102 175
59 102 173
59 104 178
58 101 171
60 103 175
61 105 178
60 102 173
59 103 177
57 98 165
63 105 176
59 102 173
57 100 174
59 102 173
60 102 173
56 98 166
59 103 173
58 100 169
54 94 160
58 101 171
61 106 176
56 98 165
56 99 165
55 98 166
56 99 168
60 103 173
55 96 166
58 101 170
50 89 154
55 98 166
56 96 162
53 94 158
52 90 146
99 125 154
121 143 164
98 126 145
113 137 161
115 140 165
114 138 160
104 131 149
107 131 152
115 144 158
122 147 165
110 140 151
111 138 149
112 136 158
116 144 156
97 123 137
116 140 161
105 135 147
99 125 140
101 131 150
104 133 142
104 130 146
106 134 142
102 129 139
98 130 133
94 127 132
94 129 132
88 122 126
102 128 139
90 122 122
86 114 118
92 123 122
58 109 88
40 108 73
42 107 75
40 104 71
40 108 74
45 115 80
38 103 71
50 124 87
51 125 86
50 123 86
49 120 85
48 120 81
51 124 86
50 125 86
49 123 84
53 130 92
53 130 90
55 133 92
49 125 87
54 132 92
56 135 93
53 130 90
60 142 97
58 140 97
53 131 93
56 136 95
57 140 96
64 151 104
56 135 93
59 140 100
54 132 93
57 138 95
55 134 94
57 139 95
60 145 101
60 145 102
59 143 98
62 149 102
61 148 101
63 151 104
58 140 96
61 146 100
63 148 103
61 145 101
60 144 99
63 149 103
59 143 99
63 149 104
61 146 102
60 142 99
61 145 101
64 152 104
61 145 101
58 139 95
61 146 100
58 140 96
59 143 98
63 149 102
62 148 101
63 150 103
61 147 100
78 147 117
135 165 179
152 175 200
149 173 196
152 175 199
153 176 202
154 176 202
156 177 203
150 174 199
150 174 199
150 174 199
154 176 203
154 177 202
157 178 205
151 175 200
154 176 203
155 177 203
154 176 203
152 175 203
150 174 200
156 177 203
154 177 201
155 177 203
155 177 204
152 176 202
155 177 203
158 179 206
157 178 205
151 175 201
154 176 203
155 177 205
157 178 204
156 177 206
156 178 206
157 178 206
159 179 206
158 178 206
156 178 204
156 178 206
154 176 203
157 178 205
156 178 206
157 178 206
154 176 204
155 177 203
156 178 206
156 177 204
155 177 206
158 179 206
155 175 203
157 177 204
157 177 204
155 175 203
154 174 203
156 176 203
158 175 201
157 178 206
154 175 203
157 177 204
154 172 199
157 177 204
154 174 201
156 177 204
155 176 204
156 178 206
152 173 201
155 172 198
156 177 204
157 174 200
155 176 204
155 173 200
152 171 198
156 174 200
155 174 201
153 168 195
155 173 200
154 175 203
155 171 197
153 171 198
153 171 198
153 172 200
158 177 203
158 176 203
155 174 201
154 170 197
154 169 195
149 164 190
153 168 195
155 173 200
155 170 197
144 135 156
129 81 93
138 68 77
139 69 78
134 65 74
137 68 78
138 68 77
142 71 80
138 68 77
139 69 78
143 72 81
140 70 79
135 66 75
140 69 78
133 66 75
137 66 75
135 68 78
135 66 75
127 61 69
142 71 80
128 62 70
132 65 74
132 64 74
130 64 73
130 66 75
136 69 79
134 65 73
130 65 74
135 66 75
121 59 68
125 61 70
126 63 72
123 61 71
134 67 76
127 65 75
134 67 76
129 65 75
124 61 71
119 60 70
120 60 69
121 61 70
118 56 65
124 61 70
119 60 70
119 60 70
122 60 69
105 51 61
116 56 65
107 52 62
101 50 60
102 50 59
109 54 63
108 52 61
98 48 58
104 50 59
88 41 48
100 47 54
96 47 56
97 71 83
112 103 118
100 90 105
107 94 111
99 80 92
99 83 98
115 107 122
115 115 132
102 96 114
104 94 109
102 93 112
118 118 140
111 111 131
123 124 143
113 111 130
113 112 131
109 102 121
113 119 141
114 119 143
115 122 148
113 121 145
102 102 122
115 124 152
119 127 151
117 128 154
112 122 148
108 120 149
116 126 152
111 117 144
111 117 139
100 107 135
111 121 148
106 119 148
108 122 150
106 121 152
57 86 143
53 88 154
56 95 162
51 90 156
60 100 169
55 96 166
57 96 164
53 91 157
55 92 156
54 95 163
54 95 165
61 104 175
59 102 173
60 102 173
57 99 170
56 98 169
58 99 169
60 102 173
62 107 179
58 101 173
56 99 173
60 103 175
59 100 171
60 103 176
55 94 163
63 107 182
59 101 171
58 101 172
53 94 158
61 105 175
61 104 174
58 100 170
61 106 179
53 94 164
60 103 174
60 104 177
55 98 167
52 93 161
56 98 166
55 97 161
49 90 153
52 92 156
53 94 160
62 96 146
100 123 147
95 122 142
99 122 144
104 128 152
111 135 157
109 132 155
113 140 155
101 123 142
101 128 143
104 128 153
114 137 157
106 133 145
94 123 136
108 134 151
99 130 143
97 124 137
91 116 132
105 131 146
97 125 139
99 127 139
103 129 138
94 118 130
87 116 126
100 129 132
99 126 136
104 131 139
99 127 134
92 127 124
104 131 138
88 120 119
76 109 105
68 98 94
83 116 114
78 109 111
56 98 81
43 107 74
40 101 71
43 113 78
45 112 77
41 108 73
40 106 73
36 99 71
49 119 83
49 119 85
47 118 79
47 119 83
49 121 87
52 128 89
51 127 88
55 133 91
52 128 88
50 125 87
51 129 88
55 131 92
51 128 89
51 128 89
53 129 88
53 133 91
54 134 91
57 139 96
56 135 94
59 141 97
54 133 92
62 147 101
58 140 97
61 147 100
58 140 96
58 140 95
58 143 96
55 134 94
61 145 101
57 137 95
58 139 96
60 144 102
58 140 97
61 147 99
62 147 101
58 140 97
60 143 98
61 145 100
57 139 95
59 143 99
60 143 100
64 151 104
62 148 101
60 145 99
61 146 100
60 143 98
59 143 97
61 147 103
52 131 89
70 151 109
121 159 161
148 174 195
154 177 202
154 177 202
150 173 198
148 172 196
152 175 200
151 175 200
151 173 198
156 177 204
156 177 204
150 173 200
148 172 196
153 176 202
154 176 203
155 177 203
154 177 202
147 173 195
152 175 201
153 175 202
155 177 205
153 176 202
151 175 201
156 178 205
158 179 206
152 175 200
153 176 201
154 177 205
151 174 200
153 176 203
152 175 200
153 176 202
148 173 198
156 178 205
157 178 204
152 175 200
157 178 206
157 178 204
158 178 204
157 178 206
153 176 203
154 176 202
153 176 203
155 177 203
157 178 204
158 178 206
157 177 204
158 179 206
156 177 204
157 178 206
155 177 206
156 174 201
155 175 203
155 176 204
156 173 200
155 176 204
154 174 201
158 177 204
155 174 201
155 174 201
156 175 203
157 176 203
158 179 206
157 174 200
157 176 203
155 175 203
158 179 206
153 173 201
156 174 201
153 172 200
154 173 200
154 174 201
155 174 201
157 177 204
158 177 204
156 175 201
153 173 201
155 172 198
154 175 203
155 175 203
154 169 195
154 171 198
155 173 200
154 172 198
152 166 192
155 170 195
153 171 198
155 171 197
153 171 198
155 172 200
153 167 193
154 171 198
149 161 187
137 116 134
136 87 100
134 66 75
135 67 77
135 65 73
128 61 69
135 67 77
137 69 79
133 67 77
139 68 76
136 67 76
133 66 75
135 65 74
122 59 68
127 62 71
128 64 74
135 67 75
133 64 73
135 67 76
126 62 71
131 63 72
127 61 70
135 67 75
134 66 75
133 65 74
131 64 73
122 59 69
132 66 76
121 60 70
124 61 71
124 60 69
128 63 73
129 64 74
131 65 74
131 65 74
114 58 68
115 56 65
117 56 66
129 64 74
123 62 71
113 55 63
114 55 64
111 53 62
115 56 66
102 46 55
106 53 64
108 53 63
97 46 54
112 53 61
93 43 52
100 47 56
100 48 55
101 49 56
89 40 45
91 65 78
95 74 85
91 79 92
97 88 104
96 87 102
104 94 108
107 99 112
90 80 92
101 91 108
102 100 118
101 95 113
105 102 121
87 76 92
95 96 115
97 99 118
104 99 117
108 105 125
115 111 131
122 125 145
107 108 128
116 116 137
108 111 133
118 122 146
104 112 136
111 121 150
106 111 136
110 120 144
113 125 150
117 124 149
112 119 143
118 130 156
105 114 140
97 103 130
109 123 150
99 111 142
104 112 138
109 122 152
97 105 131
87 101 137
58 89 149
55 93 158
55 94 160
56 97 165
52 89 153
59 101 171
50 87 156
59 100 170
53 89 155
58 100 172
59 101 172
57 98 170
60 103 174
56 98 169
57 98 167
58 101 169
63 108 181
55 93 160
56 96 165
55 96 164
58 100 171
56 99 167
60 105 179
58 100 169
63 108 181
59 101 173
57 99 171
56 97 167
52 92 159
60 104 174
58 100 172
57 100 173
48 88 155
60 103 173
58 101 169
54 95 161
52 92 158
56 100 166
50 90 151
55 92 149
100 124 156
98 121 147
110 132 158
90 117 139
91 114 128
91 111 139
94 115 143
98 117 141
103 129 141
105 132 151
108 131 149
97 118 142
93 118 137
100 124 144
105 129 151
95 118 134
85 112 129
115 138 163
96 122 141
84 112 121
99 128 139
109 133 148
89 118 136
83 114 120
97 124 132
83 112 121
83 114 120
76 105 109
84 114 116
88 115 120
87 117 121
81 107 115
89 121 123
94 119 122
71 102 97
79 109 107
60 87 84
68 98 97
49 91 74
37 99 66
40 105 68
40 105 70
45 113 79
44 111 78
41 106 72
44 113 79
38 103 69
40 109 73
41 110 74
47 116 78
47 119 83
46 117 82
49 122 85
54 131 89
54 133 94
53 129 89
51 125 87
55 133 92
55 133 92
54 133 89
57 140 97
54 132 89
56 137 93
55 136 93
56 136 93
55 133 92
57 141 97
59 140 99
60 144 99
59 142 98
54 133 91
58 142 96
56 137 93
56 135 93
55 136 92
59 145 97
56 137 94
61 147 100
58 139 96
56 136 94
57 138 93
60 144 100
59 141 99
55 137 91
57 138 95
60 144 99
57 139 93
55 136 91
63 150 103
62 147 101
59 144 98
75 150 114
111 154 151
146 172 195
151 174 200
150 174 197
150 174 198
153 176 200
150 175 198
152 175 203
150 174 196
144 170 192
148 173 196
150 174 197
154 176 203
149 174 195
152 175 202
155 177 204
154 176 202
153 175 200
148 172 195
152 175 200
154 177 202
149 173 197
150 174 198
149 173 197
154 177 201
152 175 202
147 173 196
150 175 200
154 177 203
154 176 203
155 177 205
155 177 203
153 177 202
156 178 205
154 176 202
158 179 206
155 177 203
153 176 200
156 178 205
155 177 204
157 178 206
152 175 200
156 177 204
156 178 205
156 178 206
154 176 204
155 177 203
156 178 205
156 176 203
157 176 203
157 176 203
156 176 203
156 177 204
157 176 203
156 178 206
153 171 198
155 176 204
154 172 200
156 178 206
154 177 206
156 174 201
156 174 201
157 178 206
155 168 193
154 175 203
157 176 203
154 170 197
155 175 203
155 173 200
155 175 203
154 173 199
155 174 201
155 172 198
156 175 203
154 173 201
154 172 198
152 168 195
153 167 193
154 168 194
156 173 200
156 173 200
156 172 198
152 170 198
156 173 200
152 168 195
154 171 198
155 173 200
151 166 192
153 167 192
153 164 188
154 174 201
146 156 181
153 170 196
150 164 190
150 158 182
154 170 197
148 162 188
149 143 164
137 95 108
137 67 76
130 65 74
138 68 77
133 66 75
141 71 80
128 63 72
126 62 71
133 65 75
134 66 75
136 67 76
129 63 73
138 68 77
131 64 73
129 63 72
132 66 75
128 62 71
133 67 76
134 66 75
118 57 66
132 66 76
124 61 70
128 63 72
122 58 67
124 61 71
124 60 69
119 58 67
121 58 67
124 61 69
121 58 66
127 62 71
117 56 64
119 58 66
112 56 64
119 58 67
115 54 62
110 53 62
116 56 64
111 54 64
113 54 62
113 55 64
97 44 53
100 47 55
100 48 56
106 50 59
106 50 58
95 44 53
92 40 46
83 34 42
80 54 62
76 64 74
87 73 83
96 97 112
80 73 89
90 68 79
91 82 97
81 72 86
97 87 103
100 103 118
101 99 114
99 99 118
99 98 115
97 92 109
101 90 107
106 99 115
107 114 135
120 123 145
93 92 113
108 104 122
102 109 131
107 105 122
110 115 141
98 99 120
104 112 137
105 111 137
105 109 133
103 111 135
88 94 122
113 120 146
110 120 150
118 126 151
104 112 139
111 122 149
110 126 154
106 111 133
102 114 141
90 95 120
92 101 127
101 107 131
82 93 121
92 107 140
62 83 132
51 86 148
50 86 153
57 97 165
59 101 172
55 93 161
51 90 158
60 103 173
51 89 156
49 86 149
56 98 170
57 99 170
54 94 166
56 96 164
58 99 170
58 101 173
55 96 165
55 96 163
59 100 172
54 95 162
59 101 169
51 90 158
57 99 171
46 83 147
56 97 168
53 94 163
49 87 151
56 97 164
55 96 165
54 93 160
53 94 163
59 103 175
50 90 158
60 104 173
52 93 155
50 92 153
45 82 142
58 90 145
88 112 132
101 121 147
89 114 133
82 106 128
82 105 128
84 108 129
87 112 132
91 117 139
98 121 139
111 131 152
85 112 132
111 131 152
88 113 133
114 138 159
98 118 138
113 139 156
99 123 139
95 124 141
112 140 153
111 136 151
102 131 141
112 136 149
106 132 146
83 110 124
89 120 126
98 125 138
94 121 128
83 108 115
79 105 113
85 113 122
62 97 90
83 110 113
90 120 122
70 98 95
82 109 115
60 95 89
82 106 111
81 104 105
44 77 65
72 94 93
54 86 80
56 102 83
33 91 59
45 114 79
42 107 71
39 101 69
45 112 78
40 106 71
50 123 84
45 115 77
39 107 71
48 120 83
50 127 85
50 124 83
49 124 82
51 126 86
52 129 87
51 128 85
52 129 86
47 123 83
55 134 92
54 133 91
50 127 86
52 127 87
57 138 95
53 133 92
55 136 90
52 130 90
56 134 92
55 133 92
54 134 90
58 138 96
56 138 95
54 134 91
52 130 87
56 136 92
57 139 95
58 143 97
55 136 92
62 149 101
56 137 94
60 143 100
57 140 96
55 136 93
57 139 95
57 140 94
59 144 97
57 139 94
52 129 87
56 139 94
86 148 124
126 164 168
149 172 197
141 169 189
142 170 189
144 171 193
146 173 195
146 171 193
149 174 195
153 176 203
149 174 196
140 167 187
148 172 193
148 172 194
147 173 196
150 173 197
153 176 202
149 173 196
149 173 197
142 168 189
152 175 200
151 173 198
152 176 201
153 175 201
152 175 202
150 174 199
154 176 203
154 176 203
151 175 199
151 175 199
152 175 199
154 177 201
150 174 197
149 173 196
152 175 203
154 177 203
155 177 203
153 175 200
155 177 203
156 177 204
155 177 203
154 177 204
149 173 200
155 177 203
154 177 204
154 177 202
153 176 202
155 177 204
155 176 203
154 177 201
153 176 201
158 178 204
156 175 203
154 172 200
154 175 203
157 177 204
155 177 206
157 175 201
157 175 201
153 173 201
156 177 204
153 172 200
156 178 206
155 173 200
155 176 204
155 174 201
154 171 198
154 176 204
155 173 200
154 172 200
157 175 201
152 169 197
154 173 200
155 175 203
156 174 201
156 173 200
155 174 201
153 170 196
152 169 197
156 174 200
152 171 198
152 169 197
154 172 200
154 170 197
153 170 198
151 163 188
150 163 188
155 170 197
151 168 195
152 168 195
154 172 200
151 165 192
152 166 192
154 171 198
147 159 184
154 167 192
156 172 198
153 164 189
149 159 183
154 169 195
153 167 192
150 164 189
150 148 170
139 109 126
125 73 85
129 65 74
131 62 71
131 64 73
124 59 67
122 59 67
131 64 74
129 60 68
129 63 72
122 60 68
121 58 67
125 59 68
133 65 74
130 63 72
133 66 75
125 61 70
118 56 64
128 61 70
124 62 72
125 61 69
122 59 68
121 58 67
125 60 68
122 59 68
121 57 65
121 58 66
109 50 58
109 53 62
120 58 67
115 57 65
117 57 66
109 50 58
99 46 55
109 53 61
108 51 60
106 49 58
114 54 61
101 51 60
96 45 53
95 45 53
104 49 57
89 41 49
90 41 48
87 45 51
66 51 58
56 42 52
76 63 72
75 67 76
82 72 87
73 66 80
98 91 105
92 78 96
92 83 95
87 78 97
80 76 95
85 76 88
87 80 97
102 99 116
101 102 123
99 98 118
100 93 110
101 96 115
111 120 143
98 94 112
111 112 132
109 113 133
119 128 153
113 118 144
111 119 144
99 106 129
107 114 138
118 126 148
117 131 156
111 119 142
112 122 147
106 110 133
95 101 126
113 120 147
92 101 124
102 112 140
99 103 129
100 108 133
104 117 143
94 103 132
85 99 129
77 88 120
84 94 121
80 90 121
89 94 121
66 72 105
49 74 126
46 81 144
52 88 153
50 86 151
56 95 162
53 91 158
54 93 163
52 91 156
55 94 160
54 94 161
50 89 159
59 101 172
57 96 163
51 90 158
56 98 169
60 102 173
57 98 168
57 98 167
55 96 166
52 93 163
55 95 163
52 91 158
60 102 172
55 98 167
54 95 163
54 95 163
53 93 161
51 91 159
51 91 156
49 87 151
53 93 159
53 93 163
49 87 147
54 86 131
79 97 125
84 105 126
87 109 133
92 112 133
91 114 140
81 103 121
95 119 136
84 107 128
82 109 128
101 123 148
106 129 147
97 122 142
90 113 138
103 128 148
98 123 136
111 133 154
87 111 130
96 118 137
106 130 151
104 129 146
96 121 143
112 136 153
94 123 134
114 136 154
100 124 143
87 118 128
95 123 133
93 118 127
63 96 99
92 119 131
88 118 121
72 104 106
78 106 112
75 103 108
74 105 104
73 97 99
54 89 84
65 91 93
67 95 93
70 98 95
61 86 83
58 86 84
30 64 51
68 90 88
52 83 68
56 87 76
51 100 73
38 98 65
45 115 76
36 99 64
43 112 77
38 105 70
43 111 73
47 120 81
45 112 76
44 114 77
43 110 73
45 116 75
44 112 79
50 121 82
46 121 79
52 130 87
52 129 87
50 125 86
47 118 81
51 127 85
48 120 82
58 141 97
52 128 87
52 130 88
52 131 89
50 127 85
56 137 94
51 126 86
60 145 97
52 130 89
55 134 91
58 139 96
56 135 92
52 130 87
58 140 94
53 134 89
58 141 96
62 149 102
61 144 100
58 142 97
58 141 97
55 135 92
59 142 97
70 143 108
99 150 138
128 163 170
143 170 190
143 170 188
137 163 182
145 170 191
142 169 188
141 168 188
144 168 189
141 167 187
143 170 191
145 170 191
141 168 188
145 169 193
148 173 196
141 168 189
155 177 203
149 173 196
152 176 202
152 174 199
155 177 203
147 172 194
147 172 194
150 174 196
150 174 197
146 172 192
151 174 197
154 176 203
152 176 201
151 175 199
155 177 203
152 175 199
157 178 206
154 176 202
154 176 203
154 176 203
150 175 201
156 178 205
152 175 202
155 176 203
154 177 202
151 175 199
154 175 201
152 175 201
152 176 201
152 175 199
156 178 203
150 174 198
155 177 203
158 179 205
156 178 203
152 175 201
154 176 203
156 178 206
157 177 204
156 177 204
155 174 201
155 176 204
155 175 203
156 175 203
154 176 204
156 177 206
154 174 201
158 178 204
154 173 201
153 171 198
157 176 203
155 177 206
154 174 201
154 174 201
155 173 200
156 174 201
155 172 200
153 167 193
151 167 193
156 175 201
154 168 194
155 172 198
152 173 201
152 164 190
153 167 193
151 162 187
155 173 200
154 171 198
153 171 198
152 167 193
150 165 192
152 169 197
155 171 196
151 162 187
153 172 200
149 159 183
150 159 183
150 164 190
149 161 187
148 159 183
147 159 184
151 162 186
152 167 193
149 154 176
150 160 185
152 162 187
144 146 168
146 150 173
152 168 195
147 155 179
143 149 172
140 135 155
132 98 113
129 83 95
129 62 70
123 59 68
134 65 73
136 66 74
130 62 71
125 60 68
124 60 69
119 57 65
131 64 74
124 59 68
124 61 69
122 61 70
118 57 65
120 57 66
131 63 71
123 59 68
122 60 69
114 55 65
118 57 65
110 51 59
113 50 57
118 56 64
119 57 66
122 58 65
116 56 64
109 49 57
116 54 61
112 54 62
121 57 64
111 54 61
103 48 56
106 47 53
103 49 57
107 49 56
94 40 47
98 44 49
76 34 39
75 46 54
61 46 51
69 54 63
77 66 74
77 68 79
73 67 78
81 68 78
88 79 91
93 82 93
87 78 92
87 77 88
95 83 99
88 77 91
93 90 106
93 90 108
91 80 97
109 112 129
100 98 118
106 112 134
105 100 118
98 102 124
107 112 133
114 119 142
108 118 143
102 107 129
96 101 123
104 107 128
95 102 120
100 109 137
103 111 135
98 101 122
106 115 141
98 103 126
104 113 139
106 116 138
118 128 151
100 110 137
103 113 137
90 99 125
87 102 132
83 95 126
78 87 117
95 106 136
92 101 127
89 96 130
79 91 117
90 102 130
101 110 134
84 93 121
61 74 107
71 87 121
69 88 137
47 80 142
48 83 145
51 88 155
52 92 159
56 96 166
53 91 157
54 95 164
54 95 165
52 91 160
54 93 160
50 87 153
55 96 166
44 80 147
57 97 166
50 87 153
51 90 157
48 86 150
44 79 146
55 95 162
49 87 152
51 90 156
53 93 162
56 95 164
50 89 155
48 87 147
48 88 152
55 96 165
43 78 140
35 64 111
76 92 122
62 85 111
79 99 122
71 94 121
78 101 124
78 94 119
80 103 129
77 104 130
85 109 133
89 108 130
91 118 137
86 110 129
81 104 125
95 119 133
96 121 134
98 119 142
100 125 145
98 121 137
98 122 138
92 117 137
100 124 142
95 124 143
110 132 150
110 134 151
98 122 136
88 113 122
93 123 133
88 117 129
90 116 129
89 118 126
88 116 125
94 123 132
97 121 132
99 126 136
101 124 134
70 97 102
75 107 110
78 111 108
75 99 104
78 101 106
69 96 96
68 101 95
60 94 87
55 88 83
71 100 95
63 95 84
53 77 69
48 74 70
57 79 77
30 64 47
35 67 53
26 75 48
35 97 64
34 96 59
40 106 68
40 108 70
49 124 82
43 108 73
47 121 77
46 118 80
55 132 90
48 121 81
47 117 82
50 123 83
48 124 81
50 127 86
51 124 85
54 132 89
49 123 82
52 130 86
48 121 81
51 129 86
50 127 86
54 135 91
53 130 88
56 138 94
52 131 87
50 125 84
54 133 89
57 141 96
55 136 93
57 140 94
49 125 82
54 135 91
57 140 95
55 135 92
54 134 89
55 135 92
67 133 103
89 149 128
123 162 165
135 162 176
134 163 178
137 164 179
139 166 185
140 167 185
135 165 177
138 165 184
133 162 173
144 170 189
147 172 194
137 166 182
149 174 196
150 174 195
148 172 195
142 169 188
144 170 188
140 166 186
147 172 196
150 174 198
143 170 190
153 176 200
155 177 202
152 175 197
152 175 202
152 174 198
149 173 196
153 175 201
151 174 199
148 173 196
152 175 199
151 175 198
150 174 197
155 176 202
153 176 202
150 174 199
151 175 202
151 175 200
152 175 200
153 176 202
150 173 197
150 173 199
147 172 191
153 175 203
151 175 199
151 175 199
152 175 199
154 176 203
156 178 205
155 176 201
157 178 203
156 177 203
155 177 203
154 176 204
154 176 202
156 172 198
151 170 198
153 170 197
155 174 201
156 177 204
155 175 203
154 175 203
155 173 200
154 172 200
157 178 206
154 172 198
157 173 198
154 174 203
157 177 204
153 168 193
156 174 201
151 168 195
156 175 201
153 169 196
151 165 192
157 176 203
157 175 201
154 171 198
153 166 192
153 172 199
156 172 198
152 168 195
151 165 192
154 172 200
151 166 193
153 168 195
154 171 197
153 167 194
148 160 187
151 165 192
152 167 193
150 162 188
149 162 188
153 169 195
150 162 187
152 166 192
149 162 188
149 163 190
151 162 187
146 156 181
142 150 173
152 165 190
145 154 177
144 146 168
146 154 177
144 152 175
148 156 179
143 149 172
147 157 180
144 152 175
140 147 169
139 140 160
142 136 155
133 103 118
128 86 98
118 65 74
125 61 70
128 62 71
126 59 67
127 61 69
125 60 68
121 57 64
119 55 63
125 59 67
116 53 60
130 63 71
113 53 61
115 54 62
113 52 59
124 62 71
112 54 62
104 48 57
117 55 63
109 51 57
109 52 61
102 48 56
113 52 59
107 48 55
106 49 55
104 49 56
95 43 50
103 45 53
93 41 47
88 40 47
80 41 47
66 26 30
58 31 36
49 37 43
65 58 67
56 38 44
70 61 68
73 56 66
63 54 65
90 77 87
92 84 98
76 62 75
100 94 109
96 95 110
93 83 95
99 91 105
95 86 100
93 86 100
97 101 123
108 109 126
94 89 107
100 103 127
106 108 126
103 104 124
107 108 129
97 96 111
95 88 108
106 110 132
111 108 129
106 114 138
119 127 148
108 115 138
101 107 131
116 124 148
106 114 141
96 105 130
107 117 141
120 134 158
120 126 150
111 121 145
100 108 130
123 136 162
104 107 133
96 105 130
94 108 137
101 110 134
93 107 138
93 104 131
85 95 122
96 102 124
86 95 123
65 69 96
74 84 110
73 83 114
58 67 96
77 87 113
73 82 106
61 69 98
67 83 122
54 80 134
49 84 144
52 89 157
48 85 151
54 94 163
48 85 148
50 88 155
54 91 156
44 79 140
52 91 157
51 89 156
55 94 162
48 85 152
52 90 158
49 86 150
54 95 164
47 82 146
46 82 147
50 88 149
44 79 141
49 87 152
49 87 149
49 87 146
46 80 128
40 68 108
65 82 105
72 92 114
69 83 105
77 98 121
88 106 132
68 91 121
70 91 116
79 102 127
76 97 118
93 114 139
80 102 125
70 93 120
86 106 129
92 117 137
86 108 130
93 116 136
89 113 136
90 116 135
88 114 134
96 121 141
101 123 146
83 112 123
113 137 159
99 124 138
91 118 135
111 134 150
97 124 139
100 125 145
86 116 129
99 125 149
94 121 140
105 131 144
88 117 125
91 111 129
75 108 112
94 123 131
77 106 113
82 109 117
82 111 113
94 121 128
85 107 113
68 97 98
66 95 95
57 90 92
78 107 107
64 96 95
74 98 99
67 96 91
59 78 77
51 80 68
62 85 83
53 75 72
65 87 84
42 61 53
21 55 43
52 72 65
40 75 58
44 100 70
36 96 62
45 115 75
35 98 63
42 106 70
39 104 69
36 102 63
41 109 71
47 119 77
39 107 71
47 119 81
47 121 78
51 128 85
45 118 78
50 126 84
46 119 80
52 130 85
49 124 82
51 128 84
57 138 94
52 131 86
50 128 83
51 127 84
55 134 90
55 133 91
58 142 95
51 128 86
52 127 85
51 128 87
57 134 92
79 139 114
91 136 126
114 152 152
121 153 160
127 153 166
129 159 169
121 155 163
134 161 177
124 156 164
131 161 173
133 163 176
145 170 191
134 163 180
138 165 181
141 167 184
131 160 176
137 165 181
144 171 192
134 165 179
142 168 186
143 169 190
146 170 192
138 166 183
146 172 195
144 169 189
146 170 192
148 172 195
150 174 199
150 173 197
149 172 197
145 171 193
152 175 200
151 175 201
154 176 202
150 174 199
152 175 199
146 171 193
154 175 201
149 173 198
154 176 200
151 175 198
149 174 198
145 171 194
150 174 197
154 176 200
155 177 201
151 174 200
156 177 204
149 174 198
152 175 201
143 169 188
152 175 203
153 176 201
151 175 200
155 177 203
153 175 201
152 175 200
153 176 200
150 174 199
154 177 205
155 173 200
154 172 200
156 177 204
158 179 206
155 174 201
155 174 201
155 175 203
155 176 204
155 172 198
152 169 196
157 175 201
155 172 198
155 172 198
156 175 203
153 168 193
154 168 194
154 173 201
150 164 190
155 174 201
152 167 193
154 173 200
156 175 201
155 175 203
153 167 193
155 173 200
153 168 193
153 169 195
152 165 190
150 164 190
150 160 185
153 170 196
148 158 183
151 163 188
146 155 179
151 163 188
152 166 192
149 162 186
148 151 173
154 169 195
147 159 184
151 167 193
150 164 189
153 167 193
147 155 179
151 160 183
144 149 172
148 155 180
144 149 172
145 151 173
145 155 179
140 142 164
142 147 170
144 150 171
141 143 164
135 130 149
141 142 162
135 137 157
137 137 157
133 131 150
131 127 146
133 131 150
132 117 133
124 102 117
129 98 111
112 77 88
113 65 74
118 56 64
116 55 62
103 47 54
117 55 63
109 46 52
113 52 60
114 51 58
118 56 63
111 50 57
109 50 57
106 49 55
108 48 55
109 52 60
113 51 58
85 36 41
102 49 56
102 46 53
95 47 54
80 47 53
75 39 44
71 54 63
49 23 27
63 54 64
64 55 61
74 59 65
78 71 81
66 52 58
69 54 62
73 59 67
76 59 67
80 73 85
81 71 83
83 71 84
99 90 103
95 76 90
90 79 94
96 79 90
103 88 102
86 75 94
108 108 125
100 97 116
98 96 116
89 85 102
113 113 133
97 98 117
104 106 124
106 109 130
107 102 125
106 108 127
99 104 124
110 118 143
106 108 132
132 143 166
111 119 144
104 112 138
92 103 134
108 117 141
103 116 143
110 124 150
109 116 142
99 109 136
105 110 131
100 107 130
99 111 138
97 106 133
110 120 145
100 107 134
81 90 117
97 111 138
87 90 113
92 98 123
71 73 101
76 80 106
94 99 125
79 88 113
86 95 122
69 83 113
77 87 114
73 79 106
59 70 97
74 87 119
78 88 114
68 80 105
49 58 88
67 81 118
48 72 117
38 69 131
36 66 125
45 77 138
46 81 143
54 91 157
49 84 148
47 83 145
56 97 165
47 84 150
47 83 146
46 82 145
49 86 151
42 75 134
40 73 135
46 81 141
47 76 129
44 68 113
33 54 89
41 57 85
57 71 97
41 57 83
61 76 102
64 82 108
69 89 112
45 69 94
52 74 103
57 78 102
83 103 127
88 108 130
72 94 117
89 112 133
94 117 140
81 104 125
94 115 139
97 120 143
87 110 131
101 125 150
100 121 144
90 113 133
108 131 150
87 111 133
93 117 138
105 130 149
99 126 143
117 140 157
105 131 150
104 130 150
102 121 141
108 130 153
98 124 142
90 117 126
108 132 146
88 114 126
104 128 140
102 126 139
87 117 131
93 121 127
90 114 125
89 117 126
81 111 116
76 106 110
75 105 105
86 116 122
83 109 114
80 112 111
83 114 112
69 105 97
82 110 106
71 99 97
73 98 97
52 87 74
72 99 98
44 83 69
54 80 70
43 70 61
44 69 62
65 87 84
47 66 62
61 83 78
28 54 41
35 58 46
30 67 46
40 82 58
38 96 62
29 85 52
38 103 65
34 95 59
46 118 76
40 107 70
43 111 74
50 123 82
41 108 68
48 121 80
45 120 76
44 113 75
50 123 83
47 121 79
44 118 75
47 121 78
45 114 76
43 119 76
60 134 95
51 123 83
72 132 103
76 132 109
71 122 100
103 138 137
120 151 159
108 143 143
118 147 154
127 153 167
122 155 160
119 152 156
127 156 167
130 158 170
129 159 170
132 160 172
134 162 177
132 160 174
129 158 170
139 166 183
128 157 170
128 159 170
135 162 177
142 168 186
136 164 179
139 167 184
138 166 180
144 171 192
142 168 189
145 171 192
141 169 187
140 166 186
140 168 186
145 172 192
150 174 197
148 171 194
147 172 191
143 169 190
147 173 195
144 170 191
150 174 197
146 171 192
150 174 198
158 179 203
148 173 196
150 174 197
148 173 196
148 172 196
154 176 200
146 172 193
148 171 195
148 173 196
155 177 203
152 175 203
152 175 200
152 175 199
149 174 199
148 173 195
154 176 203
147 171 196
152 175 200
148 173 197
155 177 204
154 177 203
153 176 204
154 176 202
154 177 202
156 173 200
156 173 200
157 174 200
157 177 204
156 172 198
152 169 197
156 175 203
154 173 201
156 177 204
155 173 200
156 172 198
151 169 196
154 172 200
156 176 203
154 171 198
156 173 200
152 171 198
153 170 197
152 168 195
152 171 198
153 171 198
154 169 195
153 170 196
153 170 196
150 164 190
148 161 186
152 167 193
150 163 188
152 169 196
151 164 190
154 167 192
145 153 178
151 164 188
150 159 183
148 157 181
148 163 189
151 162 187
148 158 183
153 166 192
146 154 178
145 148 170
145 151 174
148 156 180
147 156 179
151 162 187
145 150 172
150 162 186
147 154 176
138 133 152
139 137 158
140 145 168
143 149 172
140 138 158
133 128 147
139 140 159
127 117 134
137 136 156
125 119 137
140 144 165
132 133 151
129 124 142
129 123 141
110 95 107
123 115 131
128 119 134
114 98 111
116 109 124
108 89 100
101 70 79
102 77 86
109 87 97
100 72 81
95 51 57
103 70 79
94 56 64
97 48 54
84 52 58
79 39 44
91 61 71
80 42 47
68 43 48
73 53 59
51 37 41
59 50 55
63 56 64
58 44 49
56 42 52
63 54 63
59 42 49
83 80 89
80 71 80
70 54 65
75 67 81
79 63 73
91 81 93
77 65 77
84 70 82
92 77 89
90 77 90
103 92 105
97 80 93
102 99 115
108 102 118
104 93 110
93 91 108
104 103 121
102 101 118
109 102 119
94 98 120
107 105 122
116 115 136
93 97 116
107 110 132
125 128 150
101 102 124
107 107 127
113 117 140
107 113 137
113 121 144
107 113 138
112 118 143
106 112 135
112 121 147
118 127 149
108 117 139
93 99 124
108 116 142
110 121 145
104 113 139
106 117 144
113 125 152
95 104 130
99 111 139
90 101 128
86 98 129
84 99 133
110 118 145
93 102 124
92 101 128
107 118 144
97 110 136
64 76 108
72 83 114
76 82 112
88 102 130
55 65 97
78 86 114
70 83 111
71 78 101
63 67 91
58 67 93
57 70 100
52 59 82
43 54 81
39 52 86
48 66 104
53 70 107
46 64 104
63 77 107
42 67 116
42 68 115
43 66 110
39 57 92
41 59 98
43 55 82
34 53 86
46 58 79
53 67 90
47 66 100
62 78 102
63 78 110
64 81 111
61 78 103
64 82 114
61 80 107
71 93 119
80 98 126
61 81 109
89 108 135
70 94 122
85 105 135
79 99 117
94 113 138
72 93 114
92 115 134
64 89 112
91 116 133
105 127 147
79 106 128
95 116 136
82 107 127
108 130 153
93 117 134
106 127 150
97 123 139
84 111 128
103 129 146
109 131 156
93 122 138
90 116 135
90 118 133
93 118 136
100 129 144
97 120 140
88 114 128
92 120 129
102 124 136
102 126 138
83 114 118
101 126 141
100 124 136
103 130 138
80 114 117
83 110 117
93 121 128
89 116 122
83 116 114
77 110 108
73 104 102
87 109 115
75 100 105
71 101 101
85 108 113
76 105 101
71 93 93
75 96 99
61 85 83
63 96 85
49 84 70
60 79 77
52 81 72
39 68 54
28 55 39
45 62 59
48 68 63
39 50 51
53 74 66
31 63 48
43 71 57
32 68 46
49 91 67
35 77 52
39 85 58
54 99 76
55 98 77
33 93 57
56 94 75
43 101 68
60 110 85
71 116 96
76 113 100
78 116 104
88 123 115
70 112 94
100 129 130
103 130 133
110 140 144
113 148 148
97 131 130
102 134 134
107 143 143
123 152 160
112 144 149
117 149 153
119 151 159
115 149 155
119 152 158
121 154 160
124 153 163
129 158 169
129 158 168
133 162 175
135 163 178
137 164 181
135 163 176
129 158 170
133 160 176
133 161 175
137 165 180
147 172 194
146 171 191
136 164 182
141 168 186
138 165 183
143 167 189
137 166 179
148 172 195
138 168 184
152 175 200
148 173 196
145 171 190
145 170 192
148 172 194
148 174 195
142 169 189
146 171 193
152 176 202
143 169 191
148 174 196
150 175 199
148 174 197
151 175 200
153 175 200
148 172 196
152 176 202
151 175 199
152 176 200
154 177 203
146 172 195
156 178 205
154 176 203
153 175 201
152 175 202
154 177 202
148 173 199
147 172 196
151 175 199
156 177 204
153 176 203
152 174 198
153 171 198
158 177 204
153 168 195
149 165 191
155 174 201
155 170 195
154 172 198
154 170 197
154 174 201
157 175 201
154 170 197
152 170 196
153 172 199
156 174 201
151 163 188
152 166 192
153 170 197
151 168 195
148 157 181
149 163 190
151 166 191
153 170 196
151 163 188
154 170 197
150 162 188
150 162 186
152 168 195
153 166 192
151 167 193
152 163 189
152 164 188
152 168 195
150 164 189
150 162 187
146 153 178
149 162 188
148 159 183
145 154 177
144 153 177
141 143 164
143 149 172
146 153 176
148 152 174
139 141 162
142 147 170
141 140 161
137 140 161
135 135 154
141 144 166
145 149 172
140 140 160
129 126 144
129 122 139
132 126 144
125 112 127
135 136 155
133 131 149
126 112 127
116 100 114
117 105 120
119 101 115
129 121 137
122 113 128
115 104 119
105 85 96
110 97 109
110 104 117
113 102 116
101 79 89
108 99 111
107 96 108
88 58 65
90 77 87
95 79 89
91 70 78
80 67 74
72 57 64
84 69 76
66 56 63
75 58 65
78 61 69
73 57 64
69 48 54
80 67 76
77 63 71
72 54 63
84 71 84
79 60 70
86 71 83
79 57 68
86 59 69
90 81 95
94 84 100
93 83 97
85 71 86
83 63 75
102 100 117
98 88 102
103 95 112
96 91 109
88 81 97
106 102 121
99 98 116
114 117 138
112 113 134
106 108 130
99 98 119
114 124 148
107 105 123
113 115 134
107 103 122
108 106 130
104 106 130
104 109 132
108 111 134
115 123 147
109 115 138
110 110 131
112 119 142
110 118 141
122 134 161
112 122 147
100 110 133
102 113 139
107 116 144
110 116 142
103 113 138
112 128 157
105 113 141
108 116 140
93 103 130
107 115 143
102 114 138
103 117 144
93 102 130
90 103 133
91 105 136
88 101 136
102 114 145
90 103 135
86 98 127
73 86 121
87 98 126
80 90 118
81 94 123
69 84 121
72 87 118
83 93 119
86 99 130
75 86 112
67 76 102
72 79 102
57 66 95
59 72 101
65 78 106
73 84 108
47 56 87
56 70 96
48 58 84
44 56 82
36 50 79
51 61 80
70 83 106
54 67 95
35 48 77
63 75 99
58 72 101
40 60 90
63 76 102
69 85 109
66 81 112
81 97 124
71 88 116
61 80 108
70 88 110
72 89 111
67 89 118
92 112 139
83 105 131
64 86 109
83 103 132
87 111 132
78 94 116
87 112 134
77 97 127
86 105 128
86 114 131
82 108 125
101 127 146
83 107 122
88 112 133
97 125 140
81 106 130
106 128 152
93 119 137
101 123 145
111 133 150
102 128 144
99 127 137
113 138 157
99 123 134
102 127 143
114 139 156
94 120 129
99 126 139
100 125 144
88 117 130
100 125 142
100 126 144
89 115 125
109 131 150
86 114 125
81 112 116
94 119 128
98 125 133
109 131 144
97 125 134
89 121 122
81 111 115
87 112 118
71 101 98
76 112 111
82 112 110
60 98 92
79 105 106
74 103 103
67 99 94
68 96 97
49 76 69
75 101 96
57 85 78
56 91 80
75 95 96
64 89 83
49 78 67
66 92 84
50 70 64
29 62 43
50 78 68
48 74 61
59 86 76
51 82 68
57 82 73
48 76 62
56 80 72
65 92 83
73 100 93
70 98 89
73 94 92
65 104 87
71 99 92
85 116 111
83 114 107
92 122 118
87 121 115
86 118 111
102 133 132
107 137 141
106 135 138
110 143 143
116 146 151
121 148 156
103 139 137
108 139 139
119 150 156
126 156 164
123 153 160
124 152 161
128 159 168
115 147 152
126 158 168
122 154 162
132 161 173
136 162 179
122 155 162
131 159 174
133 161 174
136 163 179
125 159 169
126 159 170
134 162 177
130 161 173
129 158 172
134 162 176
123 156 164
148 171 194
142 170 190
145 171 191
135 164 180
146 170 191
138 165 183
141 168 188
143 170 187
140 168 187
146 171 193
148 173 195
147 171 194
146 171 194
146 171 192
147 172 193
154 176 202
149 173 197
148 174 195
152 175 200
147 172 194
148 173 196
151 175 199
146 172 194
148 171 195
155 177 203
148 173 197
154 176 203
151 174 199
152 175 201
153 176 202
154 177 202
146 171 194
151 175 199
150 174 199
156 178 206
155 171 196
154 172 200
154 171 197
156 175 201
156 175 201
154 169 195
156 176 203
152 167 193
154 171 198
153 170 198
152 170 196
153 170 196
148 162 188
149 161 187
150 159 183
154 171 198
157 177 204
151 166 193
152 168 195
152 168 195
149 162 188
149 162 186
155 172 198
151 162 187
151 165 191
150 165 191
145 156 181
150 164 190
144 157 182
148 158 183
151 158 182
145 152 176
151 163 188
153 166 192
150 164 190
149 159 183
145 148 170
146 156 181
150 165 191
138 140 162
142 147 170
142 144 166
136 138 159
141 143 164
145 147 168
145 148 170
139 141 162
134 130 149
125 119 136
136 138 159
141 137 157
124 118 136
139 134 152
128 125 143
136 138 156
131 131 151
116 96 110
127 120 136
129 129 147
121 113 128
118 106 119
120 110 125
105 93 106
122 111 125
117 109 124
117 101 114
98 86 97
106 94 105
99 72 82
99 84 94
94 76 85
98 89 100
98 81 91
97 85 96
79 55 62
89 74 83
78 56 64
80 52 58
92 77 87
87 67 75
88 69 80
85 78 88
75 50 59
78 66 76
76 54 61
84 69 79
87 66 76
88 74 86
95 90 106
95 85 97
93 79 89
90 78 93
102 84 99
87 76 93
95 93 111
94 82 97
89 80 97
97 84 102
107 102 119
106 101 120
100 95 112
104 98 117
102 101 121
111 107 126
113 115 133
111 115 137
115 117 139
111 106 126
109 113 134
118 128 153
127 128 150
120 126 148
108 116 140
114 118 139
115 121 143
110 119 143
112 123 150
105 106 129
112 119 141
103 108 132
118 127 152
112 123 147
110 125 157
109 117 140
109 117 143
106 116 141
96 106 134
95 103 133
103 111 138
108 119 147
106 111 138
110 124 155
95 103 131
102 108 135
98 112 141
102 114 144
88 101 133
108 117 143
86 97 129
84 101 138
84 96 127
87 98 128
71 85 123
87 101 130
78 93 127
75 87 118
76 89 123
71 86 123
97 106 136
70 82 113
76 89 119
75 87 118
71 86 121
75 88 117
78 92 122
72 87 119
65 78 108
77 90 116
63 75 104
67 77 105
67 80 109
83 96 125
35 57 94
62 77 106
68 82 111
75 89 113
68 85 118
53 70 106
66 86 117
80 100 130
65 79 108
81 97 127
79 98 129
62 84 112
67 89 119
89 108 140
91 112 142
83 103 130
89 113 141
81 102 131
83 105 126
87 107 131
84 107 131
96 117 146
82 105 129
95 115 136
103 123 152
97 119 147
92 118 139
95 117 139
95 120 141
105 127 147
90 114 138
89 112 134
95 119 139
109 133 152
100 125 142
102 125 150
102 124 149
112 135 156
119 142 162
94 117 135
123 146 171
103 125 144
95 121 137
97 121 138
83 112 123
94 124 138
99 126 141
100 127 142
94 122 126
103 130 139
91 120 127
99 125 137
94 122 129
96 120 133
81 111 118
90 121 124
103 131 139
94 120 127
86 114 121
74 104 109
74 108 103
88 118 119
86 117 116
93 121 125
85 111 113
63 98 95
91 116 120
83 109 109
58 87 82
60 93 91
69 94 92
69 98 92
64 93 86
81 110 110
73 102 95
71 96 91
41 78 59
62 91 82
62 89 82
85 109 107
49 83 67
60 84 76
64 88 84
55 89 74
76 102 98
69 95 90
67 100 88
61 89 79
77 109 100
73 111 96
73 110 96
94 120 120
107 133 136
90 122 117
99 127 127
97 128 126
99 130 130
85 121 113
97 135 127
96 129 125
105 140 137
101 133 132
96 131 126
111 144 149
125 153 163
128 157 166
108 145 146
113 145 148
117 151 156
130 158 169
118 153 158
129 159 169
115 146 153
133 161 174
131 158 175
134 162 176
131 160 172
132 159 171
140 166 183
132 163 174
139 166 182
137 166 180
138 165 182
136 162 181
136 163 181
139 167 182
136 164 178
142 167 187
133 163 177
142 169 188
141 167 185
141 166 187
148 173 196
145 172 192
145 171 191
140 166 184
144 169 190
150 174 197
149 173 198
145 170 191
147 173 192
146 171 191
143 169 188
151 175 199
152 176 201
148 173 195
145 172 193
151 175 199
151 173 198
143 168 190
148 174 196
150 174 199
153 175 199
151 174 198
153 176 202
154 176 200
153 176 201
145 172 193
153 170 196
155 174 201
156 175 201
155 173 200
155 172 198
155 173 200
154 173 201
156 175 203
153 171 198
151 164 190
154 171 198
152 168 195
150 164 190
154 172 198
152 167 193
150 163 188
154 171 198
151 163 188
155 172 198
151 162 187
150 159 183
155 168 194
151 163 188
148 160 184
153 165 190
152 168 195
155 167 192
151 164 190
146 158 182
145 152 176
145 152 176
147 155 180
146 153 176
149 162 186
148 159 183
146 154 178
145 150 172
140 144 165
141 147 169
147 151 175
139 139 160
144 147 168
148 154 178
140 144 166
135 134 153
136 134 154
136 131 149
141 145 166
128 127 146
133 126 145
135 132 150
130 126 144
141 146 167
130 128 146
128 120 137
124 119 136
132 127 144
117 105 120
130 124 140
110 90 101
116 96 108
112 97 110
112 95 107
111 95 106
111 104 117
107 95 108
113 102 115
93 80 91
108 96 108
109 102 116
95 80 90
98 91 103
102 99 112
92 74 82
109 92 105
94 79 88
95 68 77
101 85 95
89 74 83
87 70 81
99 84 97
98 86 98
98 85 96
96 86 97
100 94 109
82 78 91
86 80 96
102 90 103
116 109 127
94 89 102
105 100 115
107 105 122
94 83 100
112 105 123
100 94 113
103 103 122
106 102 118
102 101 121
116 100 115
115 116 134
104 101 123
116 116 136
106 108 128
108 109 128
105 103 123
115 116 139
123 130 151
112 117 140
112 114 135
113 118 142
106 115 139
112 122 144
117 127 150
100 107 132
105 113 135
116 128 154
113 119 145
113 116 139
99 107 132
129 136 160
105 116 142
110 117 142
109 122 152
110 119 143
109 119 145
110 118 144
104 118 149
99 110 140
111 119 146
110 120 148
101 114 143
114 127 152
109 122 150
107 114 141
94 100 124
103 117 148
91 103 138
94 111 144
109 119 147
78 95 131
93 102 132
81 91 127
76 93 132
93 107 138
85 99 131
86 99 130
93 105 137
93 107 136
79 90 121
99 114 144
77 93 127
90 102 130
77 91 121
72 92 132
81 92 117
72 88 118
63 74 101
59 77 114
65 82 112
57 72 106
50 66 101
70 86 117
76 93 123
73 90 124
81 97 129
68 86 117
76 91 119
77 94 125
81 98 124
83 99 128
90 109 145
70 90 125
98 117 142
76 98 124
84 105 139
83 103 131
82 101 128
85 108 138
86 109 131
103 123 151
97 118 145
96 117 144
95 116 137
88 109 135
104 126 152
99 123 147
101 124 147
96 117 141
99 120 143
86 108 134
104 130 151
113 135 159
108 132 159
99 123 145
106 129 150
110 134 157
103 128 148
90 118 140
110 133 154
108 133 157
112 136 152
97 126 148
111 137 154
93 118 136
101 129 146
107 130 152
118 142 160
108 136 150
106 133 146
99 123 137
104 134 150
111 136 149
111 136 150
95 126 138
100 127 141
116 146 155
81 108 115
100 131 138
79 107 114
94 126 131
96 128 134
88 122 123
91 119 127
89 119 123
65 104 97
79 112 111
76 111 108
86 115 116
85 115 119
83 111 114
80 112 106
87 112 115
91 120 119
61 93 86
88 118 118
70 103 94
68 101 97
75 108 104
73 101 97
70 96 90
57 88 78
77 101 100
65 95 85
71 102 92
65 92 87
73 102 94
71 104 93
76 109 100
72 102 95
83 112 106
69 100 91
72 108 94
88 114 113
97 126 124
85 116 110
91 117 116
106 137 137
98 129 127
69 110 93
95 126 122
102 133 132
109 137 141
103 140 136
94 128 126
111 145 144
102 141 139
101 137 133
114 150 151
118 150 155
130 159 170
121 149 157
117 150 153
120 150 156
118 153 155
126 157 165
127 154 165
117 148 155
130 161 173
116 150 154
129 159 169
127 157 167
127 157 169
132 161 177
137 164 181
129 159 172
134 164 177
127 157 167
136 164 179
136 164 181
132 164 176
129 161 170
132 161 176
140 165 183
138 166 184
143 169 190
143 169 189
142 167 186
142 170 187
139 167 186
148 172 195
146 170 191
151 174 199
140 166 184
153 175 200
148 172 194
142 168 189
146 171 191
148 172 195
151 174 199
150 175 201
148 174 196
141 170 186
148 173 194
151 175 199
154 177 201
151 174 198
150 173 198
150 173 200
149 173 196
150 173 198
151 165 192
153 168 195
154 168 193
155 175 203
156 175 201
151 165 190
153 172 200
155 173 200
153 167 192
154 172 200
150 164 190
152 162 187
152 165 190
152 166 191
154 167 194
149 163 190
149 160 185
152 167 193
150 163 188
152 166 192
147 162 188
152 166 192
147 160 186
150 164 190
148 161 186
144 152 176
145 152 176
147 158 183
139 140 162
144 143 165
147 157 181
146 156 181
145 150 172
144 152 176
147 159 184
144 152 176
145 154 178
148 162 188
142 147 171
137 137 158
140 139 160
139 139 161
146 150 172
133 130 149
147 151 172
140 146 167
142 142 162
132 129 149
135 136 157
133 130 149
132 131 150
129 122 139
133 133 152
121 110 126
127 125 143
125 122 138
128 120 136
129 121 137
124 119 135
127 120 137
115 104 119
119 112 127
120 108 122
109 94 107
119 110 125
118 110 124
108 93 106
120 108 122
110 97 109
102 91 103
108 86 97
118 111 126
107 91 102
107 99 110
98 83 95
98 81 92
98 82 93
113 104 118
92 80 92
100 84 95
96 84 97
109 101 114
106 92 105
99 92 108
95 79 92
112 102 119
106 95 110
101 80 92
99 88 102
120 118 137
122 121 139
117 110 126
97 92 108
103 99 120
97 89 108
110 103 123
114 117 136
110 109 128
111 108 128
117 119 141
110 107 125
113 109 129
105 105 127
118 120 141
118 123 146
106 108 131
120 120 141
109 111 133
117 128 150
126 133 155
119 132 159
125 134 161
110 120 148
126 134 159
108 116 142
109 121 150
106 116 143
93 97 125
119 130 158
111 122 148
119 126 151
102 113 143
115 128 151
108 114 139
109 122 149
109 119 144
107 117 142
97 110 141
102 114 144
109 122 149
106 117 149
101 115 147
96 106 136
91 104 135
95 111 145
101 108 136
87 101 131
95 106 135
106 119 147
76 85 109
101 119 153
93 105 134
103 113 140
74 89 128
91 106 139
91 106 136
85 101 137
95 108 142
76 94 130
82 94 129
85 101 136
69 84 122
89 102 135
78 91 118
80 98 132
75 90 123
73 89 123
80 95 128
76 91 122
94 112 142
79 95 128
75 93 128
78 94 126
55 72 102
79 99 132
82 100 132
84 101 130
73 92 125
72 90 122
77 96 129
75 94 122
84 102 132
71 92 126
93 112 142
98 116 146
79 101 133
83 103 131
86 107 130
86 106 137
90 109 137
89 115 142
110 132 158
103 125 148
87 110 138
104 124 156
91 118 137
96 121 143
88 114 138
107 128 154
97 120 145
91 117 137
114 136 162
91 117 142
105 128 152
109 133 154
113 135 157
120 143 167
117 140 162
96 121 142
104 129 151
97 121 141
107 133 157
99 128 148
107 128 154
99 128 146
109 133 154
101 126 143
94 124 137
116 142 159
107 133 148
115 141 158
101 132 145
112 139 159
106 132 147
93 121 132
103 131 143
96 124 137
108 136 145
102 129 141
106 131 141
107 136 145
93 126 130
92 119 129
89 116 121
94 127 135
92 124 132
88 120 122
87 118 118
109 133 143
108 136 144
77 110 113
87 116 121
79 113 108
75 110 112
100 128 131
83 112 111
81 109 108
90 117 117
86 116 114
85 118 113
100 128 129
85 111 110
67 97 91
72 112 97
86 114 111
86 116 110
90 120 119
83 113 111
67 99 87
88 118 116
107 132 136
85 119 113
80 111 105
93 122 118
90 127 118
89 120 116
98 127 128
104 135 134
96 127 126
90 122 117
99 133 129
113 144 147
103 136 135
100 135 132
107 137 139
97 129 129
103 138 136
107 140 141
104 138 139
115 146 150
115 145 151
112 142 148
117 147 154
123 152 161
132 159 172
123 151 161
118 150 157
122 152 163
130 160 170
124 155 165
140 166 183
126 153 167
122 155 161
133 163 174
126 158 169
134 161 177
140 167 183
129 161 173
140 167 186
145 170 189
133 163 177
141 168 185
141 167 184
132 164 176
144 170 190
143 169 191
147 172 196
136 164 181
141 167 188
141 169 187
150 174 197
147 172 193
143 168 191
146 170 191
143 169 189
145 170 191
148 173 196
145 171 193
146 170 189
149 173 193
143 170 191
148 173 194
144 170 190
152 175 200
147 171 193
143 170 192
145 172 191
151 174 199
152 175 200
151 174 198
153 167 192
153 169 196
153 169 195
154 167 192
152 164 190
153 173 201
157 175 201
150 163 188
151 160 185
149 160 185
151 165 190
153 168 195
151 160 185
150 162 186
146 153 178
146 161 187
150 161 185
151 162 187
148 162 188
149 162 188
149 163 190
150 161 185
150 163 188
149 161 186
148 151 174
143 149 172
147 159 184
149 163 188
145 148 170
147 156 179
148 156 179
144 149 172
146 148 171
142 141 164
145 149 170
138 136 156
136 139 161
146 153 175
147 152 174
147 156 179
143 149 171
141 145 168
138 141 163
136 127 144
136 135 155
137 134 153
132 131 150
134 133 153
129 124 142
136 132 151
130 120 135
130 131 149
128 121 138
129 122 139
119 104 119
123 113 129
128 125 142
132 132 150
129 126 143
122 110 125
131 130 148
117 107 121
116 112 127
114 97 111
118 112 128
122 112 127
105 88 99
103 88 101
120 118 133
105 93 106
101 82 91
88 68 77
97 84 100
106 97 110
106 92 105
92 67 76
102 85 98
108 93 106
104 78 90
98 75 85
103 91 105
107 95 111
112 108 124
125 117 134
111 100 115
108 104 122
121 115 133
108 97 114
125 120 137
112 111 131
123 123 144
123 113 132
106 103 122
101 95 117
108 103 122
114 112 129
110 107 125
107 103 122
112 113 135
120 121 141
97 100 128
106 109 133
124 129 151
117 121 145
127 136 162
120 123 145
117 120 142
117 122 144
117 122 143
125 129 151
107 111 135
107 107 130
119 127 152
119 126 152
117 125 149
121 127 152
114 122 147
127 136 161
115 126 149
117 127 155
103 113 139
124 130 156
123 132 161
111 116 141
115 119 144
120 137 165
106 120 149
113 123 151
113 127 158
108 118 148
122 134 158
107 123 154
109 124 152
107 127 158
109 124 157
107 118 148
86 98 131
106 121 154
110 123 152
94 109 142
98 114 146
91 105 139
80 93 124
80 98 138
98 115 143
95 110 144
88 101 138
93 109 136
102 116 145
81 93 124
93 107 139
83 100 137
69 89 123
85 102 138
86 102 134
89 106 140
84 100 136
81 100 132
80 100 136
90 108 140
94 111 144
82 98 132
73 92 127
80 99 128
67 87 124
91 109 142
82 103 134
89 106 137
84 103 137
90 110 136
79 102 136
91 110 143
90 113 145
100 122 149
75 97 129
88 110 142
100 120 149
99 121 148
89 107 135
90 112 144
90 114 143
87 106 129
71 95 129
98 118 148
93 117 146
99 121 153
107 129 149
115 138 164
101 123 149
103 128 153
110 130 153
100 124 149
113 136 160
102 124 148
108 130 154
105 129 148
112 136 159
103 129 145
109 134 153
107 132 154
92 121 141
112 138 156
102 126 145
111 137 160
111 136 158
98 126 138
110 136 154
111 139 159
95 124 138
111 137 153
108 135 150
105 132 148
104 132 149
108 134 148
104 131 144
109 135 152
96 123 136
108 137 150
105 133 143
88 121 130
111 140 154
82 113 125
98 126 135
98 130 136
96 125 139
105 134 143
92 124 127
93 126 127
104 133 142
115 139 152
78 111 113
98 126 130
90 121 125
81 117 111
86 118 121
86 117 122
68 100 98
81 112 112
99 130 130
75 105 98
94 120 125
74 104 99
51 89 74
84 113 112
95 124 125
80 113 109
89 120 116
80 115 109
91 124 123
79 112 104
86 116 112
99 130 129
90 123 119
97 129 128
85 124 114
93 129 123
99 127 129
90 125 119
104 131 136
98 129 126
99 131 130
102 137 135
85 117 113
111 140 145
110 142 143
94 128 124
116 148 152
126 153 165
117 148 155
121 149 159
120 151 158
116 145 150
106 144 142
117 144 154
123 156 160
123 153 162
132 161 173
124 155 163
113 148 150
126 155 166
119 153 158
129 161 172
117 152 155
135 164 178
117 149 153
130 159 170
129 159 171
130 158 173
132 162 175
135 162 180
137 165 181
138 166 184
141 168 188
135 163 177
141 168 185
145 170 191
141 168 187
141 167 186
139 167 183
138 166 182
144 169 189
146 172 192
141 167 189
151 174 198
149 172 198
145 170 193
143 170 188
148 173 193
149 174 196
147 172 196
154 177 202
145 171 194
150 174 197
148 172 194
151 175 200
155 176 202
148 173 197
139 167 185
147 172 195
151 175 199
153 170 197
152 166 192
152 167 193
155 172 198
152 166 192
154 170 197
152 166 191
150 158 182
154 169 195
147 159 185
154 170 196
151 165 192
153 165 190
149 163 188
152 166 192
148 158 183
152 166 192
153 171 198
146 156 181
151 163 189
150 160 185
152 166 191
150 162 186
142 146 167
144 148 170
147 158 183
140 144 166
146 156 181
144 151 174
145 151 174
148 159 182
146 152 174
143 152 175
142 146 168
146 151 174
143 151 175
146 150 172
137 137 158
138 136 156
135 136 157
132 129 150
136 132 151
134 129 147
134 133 153
138 134 154
129 124 143
131 127 146
131 127 146
128 125 143
130 133 152
130 119 136
127 118 134
123 115 131
130 127 145
126 119 135
133 130 148
123 117 134
125 117 134
119 115 131
119 101 115
115 107 121
113 98 111
115 100 113
112 106 122
118 112 128
109 98 112
109 98 111
114 95 109
104 85 98
114 104 119
119 106 121
116 105 119
119 111 127
110 93 107
118 112 129
111 103 119
110 106 121
121 113 128
116 112 132
110 103 118
116 103 117
119 113 130
119 119 136
113 103 119
107 98 113
108 104 120
111 103 122
123 114 133
110 108 129
113 110 127
113 111 131
117 113 132
111 105 123
112 107 129
114 122 147
118 116 132
116 121 142
125 130 151
129 126 149
121 126 148
118 122 146
123 126 149
122 131 154
117 120 142
116 126 152
115 121 145
113 118 141
122 132 157
114 115 139
120 128 155
115 127 152
121 125 148
123 128 150
114 123 146
117 133 160
114 124 150
115 126 153
118 125 152
109 120 145
111 120 148
115 123 148
106 114 143
120 129 156
99 112 140
112 124 155
106 117 142
116 128 153
111 124 152
112 125 156
114 133 166
110 125 153
121 135 160
110 124 155
114 131 161
99 111 141
92 108 142
106 122 154
103 116 147
101 117 150
100 116 147
111 127 160
96 115 150
109 122 153
91 104 135
105 123 149
82 101 132
88 105 140
104 117 147
68 86 127
88 107 143
88 105 138
93 110 146
98 116 148
94 112 146
83 97 132
101 116 146
85 104 143
91 110 144
84 104 138
81 102 138
95 114 150
77 95 130
98 116 143
88 107 139
87 106 141
98 115 146
97 115 144
84 101 131
93 111 139
86 106 142
90 110 143
92 110 142
92 112 146
84 107 135
101 121 152
100 119 145
96 121 149
103 129 160
98 117 147
104 126 156
104 126 155
111 131 159
104 124 152
101 123 151
103 125 155
111 134 162
105 129 154
92 116 143
102 125 154
103 128 151
97 125 147
113 135 162
96 120 142
105 130 155
107 130 156
100 127 150
118 143 172
119 143 169
111 136 154
100 126 148
104 128 156
117 140 163
97 122 140
111 136 155
119 143 167
113 140 155
107 134 154
116 140 164
109 136 157
107 135 153
102 128 145
105 136 149
109 135 150
107 131 151
110 135 154
110 140 155
109 138 147
120 145 163
102 130 142
106 136 148
113 139 153
105 137 149
110 137 151
100 128 135
99 130 139
97 126 136
102 131 142
87 123 122
126 151 166
114 139 149
98 131 134
101 132 136
98 127 132
108 137 145
94 124 128
96 126 131
92 123 123
84 117 118
100 131 134
94 123 126
84 120 114
103 131 136
90 122 121
97 131 130
97 125 133
96 125 125
81 114 111
91 122 122
95 129 127
105 134 140
83 119 113
99 133 130
87 122 115
93 122 121
93 124 122
93 123 122
89 124 118
95 126 126
85 118 113
111 139 146
103 133 133
92 121 121
90 124 118
106 138 140
94 128 126
111 142 143
118 145 154
102 138 136
111 145 146
116 149 151
109 142 143
106 140 139
119 146 154
117 147 154
128 157 165
111 144 148
126 153 165
119 151 157
129 158 168
134 160 175
125 155 163
128 157 168
132 159 174
129 157 170
122 153 163
127 158 168
136 163 177
126 156 166
126 159 167
133 161 174
133 163 178
139 165 181
138 165 181
140 169 186
132 162 176
144 170 189
134 162 178
138 167 182
142 169 188
141 167 186
144 168 189
138 167 184
146 171 193
146 170 192
144 169 189
140 168 187
140 169 189
146 171 191
151 174 199
142 168 186
143 169 189
141 168 187
148 173 195
144 170 190
149 173 196
146 171 194
150 174 198
150 174 200
148 173 196
145 171 192
155 172 198
154 170 196
151 164 190
156 173 200
149 164 189
155 173 200
153 167 193
151 160 185
151 156 178
156 172 198
151 162 187
152 166 192
150 166 192
149 159 183
149 159 183
151 162 187
149 163 188
148 160 185
145 152 176
151 164 190
151 158 182
151 161 185
153 169 194
141 148 171
152 157 178
148 155 178
143 147 170
152 170 196
144 151 173
142 149 172
144 145 166
139 138 158
146 149 170
140 140 160
145 150 172
139 138 158
143 152 176
139 143 163
138 137 158
145 143 163
140 141 161
131 124 142
136 137 157
135 133 152
132 131 150
128 121 139
131 119 136
132 130 149
133 128 146
117 104 118
134 129 147
132 129 146
128 118 135
117 111 127
119 112 127
128 121 139
117 104 119
126 115 131
119 112 127
114 106 122
115 102 116
127 118 134
115 107 122
112 98 113
109 91 104
124 118 135
109 99 115
123 119 137
117 105 122
114 100 115
119 108 126
110 98 115
109 94 107
111 104 122
115 101 116
113 105 122
115 106 122
117 112 131
119 114 133
113 107 124
118 116 135
107 93 109
122 113 130
117 117 138
105 83 98
126 127 145
111 110 132
113 105 123
124 128 150
119 119 141
108 103 121
107 101 119
116 122 144
107 110 131
117 114 136
123 129 154
114 119 144
112 109 133
120 131 158
113 115 139
112 116 138
129 131 154
118 122 146
113 114 139
119 127 153
121 132 157
119 125 151
120 128 153
123 136 160
113 116 135
125 138 165
134 148 174
115 130 157
115 132 161
126 139 166
128 136 163
115 125 154
118 132 161
124 134 161
112 123 148
124 135 162
124 137 163
115 126 154
110 124 153
118 129 156
121 132 159
111 122 153
110 125 156
113 128 157
111 127 156
107 120 149
120 134 164
123 139 168
118 134 164
102 114 144
102 113 144
112 128 161
110 127 161
104 119 152
109 124 154
107 121 152
100 117 150
110 125 157
101 117 151
93 111 142
103 119 151
104 120 149
94 110 143
91 110 143
98 110 142
92 109 145
93 112 148
98 118 154
87 104 138
101 120 155
90 109 145
91 112 145
97 114 147
81 104 144
81 99 136
92 110 141
90 110 143
101 120 149
114 132 163
88 107 141
99 117 147
101 120 150
95 116 150
108 125 154
87 109 145
100 119 152
84 106 139
95 118 154
91 113 145
80 104 134
91 110 146
96 117 147
93 113 138
96 118 144
110 133 165
94 115 146
100 124 149
92 117 145
103 125 157
88 113 142
89 112 138
118 138 168
96 122 150
98 122 149
96 118 142
112 135 159
96 123 153
119 138 165
92 119 146
106 129 156
110 134 160
103 133 154
116 139 166
106 130 154
105 132 152
112 137 157
99 128 148
109 133 152
116 139 159
96 119 148
112 139 160
105 131 149
101 130 146
114 141 160
100 126 139
114 138 163
104 132 150
114 141 155
109 138 157
107 134 158
99 124 141
102 130 142
88 119 131
118 144 161
109 137 149
109 138 151
106 138 150
113 140 155
105 131 144
108 137 147
110 141 153
111 139 152
98 128 134
102 132 138
100 131 138
104 136 145
100 132 135
101 132 139
110 135 144
104 133 142
103 135 137
85 119 117
105 134 144
99 132 138
96 129 129
97 127 133
106 132 142
98 133 135
94 127 127
85 120 118
93 127 128
96 128 128
91 127 125
101 130 134
89 123 120
99 129 132
85 122 116
101 133 133
88 124 118
84 121 113
105 136 139
106 132 138
96 127 126
87 122 117
103 137 137
114 142 149
101 133 133
99 133 132
99 130 130
109 140 143
99 134 133
99 134 131
97 126 127
118 148 156
119 148 155
109 141 143
104 142 142
115 147 150
121 152 158
125 152 163
113 145 150
116 148 155
115 145 154
114 145 152
112 144 150
128 155 167
117 150 156
128 156 166
124 154 163
125 156 165
125 156 169
127 155 168
128 158 169
136 161 178
132 161 173
142 168 186
139 166 183
144 169 189
133 162 174
138 166 183
137 163 180
129 159 171
142 168 188
141 168 186
139 167 184
145 171 191
148 172 194
149 174 195
139 166 186
141 168 186
132 162 176
144 169 188
141 168 186
143 168 188
143 168 189
144 170 187
149 173 196
144 171 189
152 175 198
142 168 188
145 170 191
146 171 194
145 171 193
148 173 196
148 172 197
152 169 196
153 166 192
155 172 198
150 163 188
153 166 192
151 167 193
153 167 192
146 154 178
146 151 174
150 160 185
146 155 179
155 168 194
149 159 183
151 160 185
149 160 185
149 158 181
144 153 177
145 155 179
146 156 181
147 161 186
145 149 172
149 159 183
145 151 174
144 152 175
144 150 173
146 156 181
147 159 184
146 152 174
150 153 175
145 147 168
143 148 170
139 139 160
142 147 169
141 150 174
147 150 172
138 138 159
141 138 158
135 130 149
136 137 160
140 140 160
133 128 147
145 150 172
133 129 148
134 128 147
136 137 157
135 132 151
128 119 136
133 125 143
126 121 138
129 123 142
136 134 153
131 128 148
122 107 122
122 117 135
125 121 138
118 111 127
128 124 142
127 117 133
117 114 130
116 107 122
120 108 123
120 113 130
118 110 126
114 105 122
125 116 132
120 112 129
124 117 133
115 101 117
113 105 121
123 123 142
114 106 124
126 127 147
126 128 149
119 121 141
115 107 124
121 110 127
118 110 128
128 125 143
116 109 127
116 109 129
118 112 130
115 113 132
126 125 145
125 128 151
120 121 140
117 113 133
121 121 143
118 116 137
121 120 143
126 129 151
116 118 142
125 130 151
122 126 151
120 129 151
125 131 157
120 119 141
107 105 126
124 122 144
119 117 138
121 121 144
118 128 154
118 123 145
121 130 158
125 126 147
124 131 154
124 136 162
121 130 158
121 130 153
122 127 153
114 118 142
127 134 159
125 133 163
128 136 162
126 137 165
114 123 148
130 139 165
106 112 138
118 128 151
107 123 153
117 130 156
125 137 165
116 130 160
131 145 174
127 142 168
118 132 162
113 129 158
116 130 160
104 119 148
128 141 168
118 132 162
97 115 152
112 123 148
125 136 164
118 131 161
113 126 155
107 126 161
112 130 162
110 127 159
117 132 160
116 133 168
105 122 158
108 121 152
97 109 145
112 131 166
94 110 144
102 121 152
101 118 154
113 132 163
102 122 157
96 115 150
101 122 155
100 114 145
109 125 157
117 135 166
97 117 151
105 125 160
97 115 150
90 109 143
93 114 147
105 121 150
104 123 153
101 120 157
95 113 147
99 117 151
95 114 145
95 115 150
97 116 152
86 106 143
101 122 154
100 120 152
106 127 158
103 121 152
107 125 153
99 122 158
101 123 159
86 106 137
100 123 155
114 137 165
102 126 156
107 130 156
115 138 167
111 133 163
112 133 164
119 142 168
115 138 169
102 126 158
107 131 156
109 134 162
112 133 157
104 129 156
117 140 169
125 147 175
100 123 152
107 131 159
117 140 165
121 145 170
99 123 145
111 137 162
114 135 155
106 132 157
109 136 157
118 143 164
101 126 150
117 141 168
123 147 168
119 141 168
114 140 163
110 137 158
119 145 165
114 142 163
113 139 163
114 140 158
109 137 153
114 141 157
109 137 153
114 140 156
113 141 154
110 138 154
122 149 166
111 141 152
101 128 144
110 141 153
109 135 149
112 140 155
101 131 143
111 138 152
107 137 147
108 132 147
115 141 155
126 151 169
102 131 141
104 135 144
107 140 144
115 144 157
108 137 150
96 126 133
92 124 130
111 138 147
102 132 139
93 128 130
112 144 150
86 120 121
106 135 143
96 127 136
97 131 132
103 133 138
104 136 138
93 128 127
108 139 142
108 136 141
100 131 133
94 125 126
80 115 109
103 132 135
108 139 142
104 136 141
108 136 142
100 134 133
109 140 144
100 131 133
112 142 147
101 134 134
99 134 132
99 128 130
107 137 141
115 144 149
116 147 152
115 145 149
111 146 149
116 145 152
101 136 136
124 151 161
110 145 147
108 143 145
123 152 162
116 144 155
108 140 144
117 149 154
120 150 160
122 151 161
117 148 155
122 152 160
122 152 159
137 161 180
123 154 163
126 157 165
128 157 169
130 158 173
130 159 173
132 160 174
136 164 178
127 157 169
133 162 173
130 161 173
133 161 177
127 158 170
136 165 179
142 167 189
142 168 188
147 170 193
137 164 181
137 165 182
133 162 176
142 169 189
144 171 189
144 169 189
146 172 194
136 163 181
145 170 191
147 171 194
144 172 189
147 172 193
145 170 192
145 169 194
142 169 187
144 169 189
142 168 186
140 167 185
143 170 192
145 169 192
147 155 180
152 167 193
148 161 186
147 158 182
150 163 188
151 163 188
151 163 188
152 163 189
151 163 189
148 158 183
152 165 190
149 154 176
150 163 188
149 160 185
150 158 181
147 154 178
148 160 185
149 157 181
152 165 190
146 156 179
140 142 164
145 155 179
142 150 174
145 152 176
147 157 181
146 146 167
145 148 170
141 144 166
145 156 181
144 149 172
139 140 162
141 142 162
138 142 163
139 138 160
135 136 158
146 151 173
138 140 161
138 137 158
142 149 171
138 139 160
138 140 161
140 141 162
138 141 163
125 122 140
130 122 140
130 122 140
135 131 149
131 126 143
129 127 146
136 134 152
124 120 140
130 126 143
127 128 146
133 130 148
125 111 127
130 128 148
118 105 121
128 122 140
122 118 136
123 119 137
119 106 121
120 118 137
127 125 143
126 114 131
123 113 129
123 112 128
120 111 127
116 108 127
121 117 135
124 118 135
115 114 135
136 139 159
125 116 132
122 116 135
128 125 142
116 111 130
126 125 143
128 127 147
130 128 149
127 123 142
129 129 150
125 124 144
123 123 142
126 129 151
126 131 153
116 113 135
122 119 139
125 125 147
115 121 143
118 117 137
105 99 120
124 124 145
112 111 133
130 142 170
119 121 143
128 135 159
127 137 164
118 127 151
120 127 153
130 134 161
128 136 161
116 120 142
122 128 153
120 126 151
129 141 165
125 136 163
122 129 152
122 131 158
119 128 152
121 132 161
120 131 156
122 133 161
126 139 168
124 135 163
132 144 171
125 136 164
121 137 163
118 130 158
121 135 162
122 140 171
122 139 170
117 131 161
122 134 161
118 130 159
121 139 168
120 136 166
110 125 157
115 129 161
113 129 161
106 121 152
122 137 168
104 121 156
115 135 169
117 130 161
123 141 173
120 133 162
119 131 163
117 134 165
112 128 159
114 130 159
111 127 159
117 133 163
118 136 169
124 137 165
108 124 153
117 135 167
115 129 158
112 127 160
122 135 164
97 113 147
112 133 164
113 132 162
95 113 147
104 124 160
107 128 165
92 113 144
100 120 155
104 125 155
99 120 154
103 123 154
107 128 166
117 134 163
107 128 158
110 131 163
103 122 153
96 113 147
100 121 156
94 115 150
100 125 158
115 132 164
110 129 157
99 120 151
108 129 164
94 113 146
106 127 158
117 139 165
103 126 159
101 124 153
115 137 165
114 135 165
118 140 166
112 135 164
83 109 136
107 130 162
111 134 164
104 127 157
120 142 168
105 127 159
108 134 162
109 131 161
112 134 163
107 129 159
116 141 170
131 153 182
120 144 170
104 128 154
108 133 160
109 134 153
114 139 165
110 136 159
118 140 164
112 140 160
109 134 163
110 135 155
122 144 165
117 143 166
107 133 151
122 148 174
107 133 157
109 133 154
104 129 149
115 141 161
114 141 160
107 131 149
124 148 168
122 150 165
114 142 157
123 147 167
115 142 164
104 133 144
109 135 149
119 144 161
110 137 156
112 140 152
109 139 153
108 136 150
106 137 150
110 135 149
117 145 158
94 131 136
102 130 142
115 140 152
112 141 156
115 147 154
118 147 158
114 148 154
104 137 143
106 135 148
105 131 145
109 137 148
107 139 144
117 147 158
91 130 130
115 143 155
106 139 143
99 133 133
102 131 139
99 136 134
107 141 142
98 133 135
107 138 141
109 140 146
109 139 146
111 141 150
105 139 141
104 134 139
97 134 131
95 129 128
98 135 132
103 135 136
106 136 138
103 139 139
91 127 121
118 147 155
108 139 142
105 136 140
111 139 145
113 141 149
101 132 132
117 145 154
112 144 149
108 141 146
121 152 159
110 140 146
126 158 168
113 146 151
109 144 146
135 163 177
121 153 159
125 155 165
122 151 164
129 157 168
118 148 154
122 151 162
123 154 165
127 156 167
123 155 164
136 163 179
121 155 165
134 162 178
132 161 174
129 159 171
133 163 175
127 158 169
126 157 167
135 163 178
131 162 172
134 162 177
135 163 178
133 160 176
136 164 182
136 164 180
143 170 190
131 159 172
137 164 182
139 166 184
145 170 190
145 172 192
139 164 181
141 168 187
137 166 182
140 169 186
141 170 189
150 173 195
140 167 185
148 174 193
145 171 192
152 175 199
147 171 192
144 170 192
155 171 197
149 163 188
153 167 193
151 165 191
148 159 185
146 159 185
149 161 186
148 154 178
149 159 183
150 162 187
150 159 183
150 160 185
149 159 185
148 157 181
145 152 176
148 162 188
144 154 179
149 161 187
145 153 176
143 150 174
148 160 185
151 161 185
144 147 171
144 153 177
144 156 182
141 147 172
141 144 166
139 142 164
142 143 166
143 144 165
142 148 169
140 147 170
143 144 164
141 147 169
146 154 177
137 137 158
132 131 151
133 129 148
139 140 162
138 136 155
141 147 169
138 140 162
137 133 152
135 129 149
138 139 159
135 133 152
133 128 147
137 140 162
140 145 166
126 120 137
127 126 146
132 132 152
131 131 150
126 120 137
128 123 141
126 124 142
134 130 150
131 125 144
125 115 132
130 125 145
123 122 142
135 135 156
122 122 141
122 116 133
126 127 146
120 113 131
122 118 137
120 110 128
112 102 121
125 121 141
122 124 145
123 121 140
119 121 144
123 117 138
113 106 123
122 118 138
121 120 140
127 130 151
116 111 132
125 124 144
114 112 132
125 130 150
122 122 142
128 127 149
126 129 153
121 123 144
124 133 159
122 126 148
126 133 157
124 127 151
118 122 145
124 125 147
126 128 153
135 140 164
120 128 154
117 123 145
123 132 156
115 123 149
119 124 150
121 129 156
117 125 151
125 134 158
115 119 144
119 132 155
132 148 176
131 140 166
115 127 155
130 141 167
122 132 158
128 140 169
126 137 165
118 131 159
126 134 157
130 143 168
118 123 150
127 138 166
121 135 163
116 131 162
117 133 164
128 140 166
121 133 160
111 126 159
126 144 175
120 134 165
126 139 169
118 132 163
119 134 164
111 119 149
116 133 166
108 122 153
114 130 161
113 124 153
113 128 157
105 121 152
109 126 159
110 128 159
107 123 156
116 136 169
118 131 160
112 133 163
117 137 165
111 126 155
101 120 155
114 132 164
115 132 165
109 124 152
105 119 153
113 130 162
116 133 166
116 134 163
115 133 160
107 122 152
105 121 151
109 127 160
127 145 176
100 121 155
112 131 167
121 140 170
111 132 165
89 106 140
101 123 160
104 125 159
114 134 168
104 128 162
93 115 151
100 120 149
109 130 163
93 114 148
105 129 162
98 118 155
102 121 149
105 124 150
105 127 156
109 134 169
108 132 163
129 149 175
115 139 166
117 137 166
116 138 168
122 143 176
101 123 151
120 143 173
105 128 160
104 128 151
110 133 156
114 137 164
106 130 160
109 132 159
104 126 159
114 137 163
109 133 161
122 145 172
110 135 163
119 143 171
117 142 167
117 141 165
109 135 159
104 133 154
118 144 169
108 134 156
115 139 163
117 140 169
105 133 159
108 135 156
113 140 159
124 148 171
122 146 166
111 140 163
112 137 159
100 125 147
119 142 164
108 136 155
126 151 173
120 147 167
115 140 158
126 151 173
122 147 170
121 146 166
124 149 167
117 143 166
108 136 155
123 148 168
106 136 152
114 142 158
113 141 159
114 142 157
115 143 155
113 142 156
109 137 151
112 141 153
107 135 152
118 145 159
120 148 162
121 149 161
113 141 155
122 147 162
109 137 147
106 136 146
117 149 159
94 130 136
120 149 161
112 142 151
106 136 148
110 138 149
110 134 144
114 143 150
112 143 149
106 141 142
112 142 152
105 137 141
108 141 146
96 131 130
107 139 144
92 126 130
104 133 139
109 140 146
101 133 135
108 140 146
114 143 149
100 134 136
96 136 131
111 145 150
105 139 140
118 146 152
111 140 149
121 152 160
110 140 147
101 139 136
120 149 157
107 141 141
115 145 151
117 147 157
123 151 161
117 147 154
122 152 163
130 158 170
119 149 156
111 143 149
116 150 156
118 153 155
131 159 170
126 156 168
123 155 163
124 154 164
134 161 175
131 158 172
118 151 158
128 156 168
129 159 171
124 158 163
136 166 179
137 164 183
126 157 169
134 163 178
132 163 173
137 164 180
133 160 175
136 165 180
138 166 183
131 159 175
131 159 173
137 166 182
134 162 176
136 162 180
136 164 180
141 167 187
135 165 181
141 167 186
138 167 186
147 171 194
135 166 178
142 167 186
145 171 193
140 166 186
138 166 183
143 169 186
141 168 188
145 170 188
151 174 196
138 166 184
147 158 184
151 167 193
145 153 178
150 162 186
147 155 179
149 162 188
143 154 178
151 162 187
152 164 188
151 164 190
152 164 188
144 152 177
144 153 177
147 157 181
143 150 173
148 159 185
150 164 190
151 158 182
147 154 178
147 158 182
145 150 174
140 143 165
146 152 176
140 147 169
144 143 165
144 150 174
143 149 172
144 143 165
139 138 158
137 140 162
142 145 167
145 154 177
140 142 164
139 141 162
143 149 171
137 138 159
132 132 154
140 142 164
139 136 156
141 137 156
135 134 153
137 136 155
135 134 155
134 130 149
132 131 151
131 123 144
136 139 160
132 123 142
139 141 161
132 130 149
125 113 132
128 127 147
128 129 148
127 119 139
133 131 150
133 138 159
128 122 138
137 141 161
124 120 139
131 126 143
129 124 143
120 113 130
129 125 145
138 141 161
124 124 143
128 131 152
131 134 156
128 126 149
129 125 145
122 117 138
117 113 132
127 129 151
123 122 142
120 117 137
128 130 151
123 124 143
124 124 146
136 139 159
132 133 154
130 134 157
120 124 144
127 129 150
119 116 136
125 126 149
126 130 152
133 139 165
125 126 150
131 141 166
123 127 149
131 139 164
128 134 159
131 138 163
126 129 152
129 138 164
129 136 159
121 129 156
124 138 166
124 137 164
131 138 163
135 145 171
128 138 165
126 138 163
128 141 170
134 142 167
130 139 164
123 139 168
132 143 170
126 140 169
127 137 164
130 143 170
134 140 165
112 119 143
127 139 165
124 135 161
112 125 155
118 128 151
131 145 172
124 139 170
116 126 154
127 143 171
126 140 167
123 133 161
124 138 167
120 135 162
121 139 172
121 137 169
113 127 159
121 140 172
116 131 163
114 128 159
120 135 166
120 139 171
115 131 164
106 124 155
114 125 156
110 128 161
115 129 157
114 129 160
101 119 153
125 141 171
119 138 172
113 123 152
117 134 166
111 128 157
105 125 161
102 127 165
99 120 158
116 131 163
119 139 174
106 126 160
104 123 158
101 120 154
112 134 168
109 128 162
100 116 149
102 122 154
114 133 169
109 129 161
103 125 153
105 125 158
113 132 166
109 131 165
102 122 158
109 129 163
107 129 162
106 126 161
118 140 172
105 125 161
112 133 165
112 132 162
96 117 154
105 123 154
118 139 173
107 126 159
116 138 170
98 125 161
113 134 166
110 132 162
107 129 160
108 130 157
121 143 176
114 135 164
98 123 148
118 142 173
106 127 156
116 141 171
101 124 149
111 133 164
114 138 168
95 121 148
123 146 174
120 143 169
114 139 167
120 143 170
128 151 177
122 144 170
114 141 162
115 140 169
112 140 164
114 138 163
97 124 151
119 143 168
124 148 172
106 132 160
117 142 169
129 151 176
129 152 175
128 151 178
118 142 169
122 148 168
125 154 174
129 152 175
114 138 158
117 145 164
125 151 173
119 145 162
114 139 159
114 143 160
112 140 156
123 147 167
112 136 155
103 132 143
124 150 177
110 137 157
120 146 160
116 143 164
135 159 182
100 132 139
116 145 162
115 143 159
104 139 143
110 141 153
109 136 151
117 143 158
118 145 158
108 138 146
113 142 159
110 139 152
109 139 152
119 146 158
104 133 141
103 140 143
118 147 158
109 142 150
103 135 140
107 140 145
116 145 159
92 124 129
107 141 150
100 133 136
106 136 147
109 139 145
121 149 165
102 138 142
109 140 147
103 136 144
102 137 139
113 146 152
105 137 144
118 147 157
103 134 138
109 143 146
118 149 158
114 144 150
112 144 152
106 139 140
110 141 147
119 147 160
120 151 156
100 134 133
111 148 149
112 144 149
118 149 156
132 159 171
109 144 145
122 148 158
122 153 161
115 147 152
120 152 159
115 147 152
123 153 163
123 153 164
127 156 168
129 156 170
124 155 164
131 158 172
122 153 159
132 160 174
123 154 165
139 165 180
128 160 169
137 163 180
141 165 184
136 165 179
139 166 183
138 167 182
135 163 179
130 160 174
128 156 172
134 159 178
138 166 183
139 165 183
134 162 176
134 163 178
138 167 182
143 169 191
148 171 194
138 165 180
131 162 173
140 166 184
143 170 188
144 170 188
132 162 175
140 167 186
140 167 186
142 167 187
150 174 200
141 166 186
144 168 188
143 170 189
152 166 192
149 162 188
148 157 181
152 167 193
146 157 181
148 157 181
151 160 185
151 162 187
151 165 189
151 164 190
150 158 181
147 157 181
148 155 178
144 156 181
139 142 164
148 154 178
143 146 168
150 163 188
150 159 183
136 128 148
150 162 187
147 153 176
144 145 166
141 147 169
142 148 170
143 152 175
142 143 164
144 148 170
141 147 169
143 149 172
139 143 165
133 129 149
144 147 169
147 152 174
138 145 166
145 150 173
143 144 164
138 139 160
133 132 151
139 138 159
137 134 154
133 126 144
136 133 153
137 129 148
134 135 156
138 139 159
135 136 157
126 123 142
132 129 149
126 121 140
134 136 155
132 126 146
121 109 128
129 132 153
128 124 142
132 130 149
133 130 150
130 129 149
133 128 147
123 115 133
128 121 142
123 120 139
133 130 150
137 137 157
133 131 151
128 124 145
124 122 140
130 131 151
126 123 145
127 125 147
123 119 138
127 127 149
129 131 152
132 135 155
132 132 153
127 128 151
124 130 153
117 115 136
125 120 143
125 132 154
128 130 153
131 137 160
127 128 150
127 130 155
129 133 158
135 140 161
125 136 165
120 125 152
132 140 164
132 141 165
125 127 149
128 139 165
127 137 162
125 132 158
133 144 171
129 136 159
128 130 155
123 129 155
128 140 166
119 122 146
127 139 165
134 146 169
128 139 166
128 135 158
132 140 165
128 136 163
130 148 177
131 142 169
128 137 164
129 139 164
121 134 162
121 137 168
127 146 175
128 140 168
115 127 156
122 139 172
110 120 147
122 136 162
124 139 166
125 142 172
127 142 170
122 132 158
122 134 163
125 142 172
127 144 173
108 123 156
125 139 165
122 137 167
123 140 171
121 136 167
116 131 164
122 137 168
126 143 175
116 127 157
112 124 155
117 133 166
115 133 165
122 137 166
121 137 167
112 131 166
107 126 161
100 118 153
112 133 168
114 132 162
124 141 171
111 129 162
121 139 171
108 127 164
125 144 175
121 139 170
125 144 175
101 122 158
107 125 162
118 134 165
101 120 152
106 128 163
119 139 171
119 138 168
102 125 160
117 136 169
125 144 174
107 128 162
107 124 159
102 122 156
112 133 165
117 137 170
107 128 156
115 134 166
103 125 158
125 146 177
117 139 172
126 146 176
118 141 171
113 138 166
116 140 167
106 130 165
103 128 160
112 136 166
118 138 169
107 127 158
114 138 161
106 131 158
112 138 166
112 135 169
113 135 163
110 137 169
122 146 173
113 138 168
111 134 157
113 139 168
122 147 174
120 142 169
122 147 171
111 134 159
126 146 173
123 149 171
116 142 170
107 136 160
111 132 158
125 149 176
123 148 174
126 151 175
129 155 182
119 144 163
118 143 168
126 150 180
121 145 167
117 146 171
112 138 159
117 146 170
126 151 179
122 147 170
121 146 168
132 155 177
125 150 173
124 150 171
119 146 163
118 145 166
118 146 162
128 154 175
119 146 166
113 141 159
122 146 165
119 147 167
132 156 177
110 141 153
118 147 162
107 136 149
114 141 155
110 141 155
124 149 167
124 149 171
115 146 160
115 144 157
115 144 157
122 150 164
117 143 155
118 149 161
117 146 161
127 153 170
118 145 158
125 152 167
107 140 145
104 137 143
115 145 156
112 144 156
114 140 154
107 143 148
115 147 158
117 145 156
117 148 160
119 148 158
105 136 142
108 145 151
99 131 140
113 144 152
118 146 159
105 136 144
118 148 154
112 144 151
120 147 160
109 140 146
103 136 142
116 148 153
104 138 140
115 146 155
113 147 152
108 141 143
113 146 148
104 137 140
104 140 139
112 146 150
120 152 162
117 148 154
120 151 160
113 147 153
116 147 154
112 147 151
120 150 158
122 152 160
120 151 159
122 152 161
127 155 165
132 160 176
123 155 163
121 156 161
125 155 166
124 153 165
132 161 173
126 156 163
134 161 176
126 155 167
126 156 166
136 165 180
131 160 173
129 157 168
133 163 177
127 158 169
125 157 167
134 163 176
149 172 195
139 166 185
131 161 176
130 161 172
129 161 172
137 164 183
135 164 178
141 167 184
138 165 181
138 167 185
143 168 188
139 165 182
134 163 177
139 166 183
134 160 177
148 173 193
138 168 184
145 170 191
142 170 187
147 171 192
152 169 196
148 156 179
148 158 183
153 164 188
145 155 180
147 157 181
152 167 193
153 168 193
148 154 178
149 161 187
148 158 183
146 148 171
142 148 172
146 154 177
145 155 179
151 159 184
144 153 178
151 161 185
140 147 170
149 156 180
147 154 178
142 146 168
141 144 166
145 153 175
137 139 160
148 156 179
144 148 170
148 159 182
135 135 156
139 147 170
139 139 160
139 147 171
137 138 160
135 137 159
136 136 157
146 152 174
133 130 151
136 142 164
135 136 157
134 134 154
143 146 168
137 137 157
129 128 148
135 133 153
123 108 123
125 120 141
139 146 170
126 121 140
136 143 166
133 134 155
131 134 155
131 129 148
125 122 141
126 124 144
129 124 143
133 138 160
126 121 139
124 117 136
131 130 153
129 127 147
122 120 140
132 135 156
141 145 167
126 123 144
136 142 165
134 138 162
129 128 149
126 123 143
124 122 142
136 146 170
130 126 147
115 109 127
135 141 164
128 123 145
135 145 171
126 127 149
135 140 164
131 134 156
126 134 158
132 139 161
130 126 146
130 136 161
127 129 152
122 128 154
121 132 161
133 141 166
121 126 151
126 133 159
127 135 159
128 136 161
136 144 169
128 133 157
127 128 153
136 144 169
139 153 180
132 140 164
127 135 160
131 136 160
121 133 163
134 143 170
130 139 163
125 132 158
127 137 162
126 139 166
131 135 160
130 139 164
131 142 168
128 137 161
119 130 160
125 135 162
127 135 161
134 151 181
124 135 163
134 150 179
124 140 169
131 151 182
125 140 166
127 145 174
121 138 169
127 141 168
128 146 176
123 135 163
123 140 173
121 134 162
132 145 173
120 137 164
125 140 170
134 151 181
121 140 173
119 132 161
121 140 170
112 128 159
113 128 161
113 126 159
120 137 164
111 124 156
132 151 182
126 143 174
124 139 170
126 145 178
119 140 176
109 130 163
124 141 170
122 141 174
112 128 163
122 140 171
118 140 174
120 135 165
115 135 168
109 129 164
126 144 175
112 127 157
110 132 168
102 123 163
111 129 162
110 127 159
114 133 167
124 145 177
114 133 165
124 142 173
109 128 160
114 138 171
122 144 177
106 124 152
117 139 174
124 147 175
106 130 164
115 133 163
115 135 169
127 146 177
104 125 159
112 136 171
119 138 164
117 139 169
125 145 174
119 142 172
112 133 163
122 141 170
113 135 166
126 150 180
113 139 168
116 137 168
111 134 160
118 139 168
109 134 161
125 148 176
115 139 167
118 139 167
114 139 165
128 149 180
115 139 169
126 149 174
118 142 166
111 137 164
123 144 173
121 145 173
111 137 161
125 150 176
125 148 176
120 144 170
124 149 176
115 140 166
124 149 172
116 142 163
119 142 168
115 139 167
118 142 168
124 147 176
128 153 175
125 147 170
108 135 158
116 143 167
120 147 166
118 143 164
114 145 164
123 148 170
116 143 165
122 148 164
123 148 169
129 158 175
118 147 165
117 141 160
126 150 175
127 152 169
114 146 157
127 153 174
115 141 159
114 145 162
119 143 163
122 152 167
120 146 168
107 144 152
115 142 158
118 144 158
115 145 163
116 143 153
114 139 155
118 149 164
119 147 164
116 145 159
110 143 154
120 146 157
123 151 165
123 153 165
100 133 140
119 148 161
110 141 150
120 147 161
124 156 166
108 141 144
121 150 163
113 145 154
122 151 164
121 149 159
113 147 153
113 145 154
106 140 143
105 138 143
107 135 147
112 144 149
105 137 142
112 143 149
118 147 158
115 143 151
109 144 145
125 154 166
111 143 149
116 146 153
107 146 144
119 150 157
119 152 160
119 148 159
117 149 158
112 147 150
104 138 141
122 152 163
120 149 161
116 148 154
116 147 154
131 159 171
116 151 157
125 154 167
126 153 167
124 157 164
132 162 175
119 150 158
135 161 180
123 154 163
128 157 169
124 153 165
122 151 163
135 160 176
130 160 173
133 161 174
140 164 183
135 163 176
138 162 182
133 160 176
130 160 172
127 157 166
135 163 181
138 166 183
137 165 183
141 167 189
141 167 188
133 164 177
141 166 185
128 158 173
141 167 186
142 169 188
133 164 179
134 164 181
143 169 189
141 168 187
140 166 183
146 171 193
140 167 188
140 166 186
143 168 188
141 169 187
152 164 189
148 158 183
149 163 188
149 161 186
151 164 190
146 156 181
147 153 176
148 156 180
148 161 186
145 151 174
145 159 184
145 152 177
148 158 182
145 149 172
141 146 168
142 149 171
146 155 179
144 153 177
142 151 176
147 161 188
144 148 170
142 142 163
144 155 179
138 137 158
144 152 175
141 140 160
133 138 159
145 151 174
145 149 170
146 153 176
139 144 166
142 143 165
137 143 166
140 139 160
142 146 169
135 136 158
140 143 165
142 142 163
142 147 169
140 141 162
139 143 165
142 146 168
140 138 158
141 148 170
131 131 152
138 136 156
135 140 164
141 146 168
130 129 147
138 140 162
137 140 161
131 134 157
139 142 163
133 131 152
127 127 147
130 125 144
135 142 165
129 122 140
138 142 164
134 135 156
135 143 166
129 127 147
125 122 143
135 142 166
117 113 134
139 148 172
134 140 164
130 125 143
131 133 154
134 136 158
126 127 151
131 136 159
126 123 143
113 117 141
127 130 152
130 133 155
130 130 153
130 135 158
129 133 158
125 127 150
131 138 164
128 133 156
133 135 158
129 137 162
125 129 153
126 130 153
130 131 154
133 136 160
129 141 167
122 132 158
128 136 160
128 134 159
134 144 170
128 135 159
136 145 171
140 152 177
132 143 168
131 147 176
136 149 177
123 135 161
129 138 162
130 136 161
134 144 169
121 125 150
128 141 169
119 135 165
133 148 176
139 155 183
124 138 165
128 143 171
134 148 176
128 142 170
133 150 178
123 135 166
131 144 171
127 140 168
121 135 163
126 141 169
125 143 173
125 143 173
131 149 180
130 150 179
131 146 172
125 142 172
122 136 167
126 145 177
135 150 179
127 144 175
117 134 165
135 153 180
123 142 172
126 140 171
126 147 180
117 139 174
119 135 166
117 133 163
123 135 163
106 126 159
112 133 166
121 142 177
114 130 162
125 146 178
117 136 169
98 117 153
129 147 176
117 136 170
117 135 167
118 135 167
121 141 172
118 136 168
115 133 167
124 144 176
120 139 168
122 137 165
118 137 168
114 138 175
119 136 168
118 136 166
124 143 176
122 143 174
117 140 172
111 132 160
118 137 169
114 134 167
110 130 160
105 127 154
109 129 163
105 123 158
108 130 164
112 137 165
125 145 177
114 137 171
110 133 165
111 134 163
124 149 177
110 134 169
112 135 166
114 137 169
121 145 177
118 140 174
114 137 165
119 142 171
117 139 168
112 138 165
110 133 161
120 145 173
126 147 176
114 137 165
122 147 176
114 137 166
121 142 166
119 141 172
119 143 169
112 134 161
123 148 175
120 142 169
118 143 172
121 147 169
115 139 162
125 151 176
111 137 167
119 143 165
119 146 173
122 145 174
118 145 168
122 148 172
123 148 172
121 146 169
116 138 165
131 156 179
118 142 168
125 149 176
115 142 163
121 147 170
128 153 175
121 147 167
125 148 179
120 145 170
114 141 162
125 149 171
118 145 164
122 148 168
122 147 171
126 150 168
124 151 168
140 163 183
116 145 162
130 154 173
116 148 163
130 155 176
131 155 178
114 145 161
121 148 168
126 151 171
128 155 171
121 148 166
116 144 162
109 141 156
115 143 157
117 146 163
125 152 174
100 132 141
121 151 165
118 147 159
116 146 163
118 147 161
120 147 161
115 149 161
116 147 157
116 146 155
103 136 139
113 145 154
116 146 155
123 152 165
122 154 165
106 139 145
120 149 159
110 142 150
118 147 159
115 146 154
114 146 154
114 147 151
116 146 155
117 146 158
119 149 161
110 144 149
115 149 157
104 140 144
117 147 156
103 138 140
126 153 169
125 156 170
123 154 165
120 154 164
123 151 162
113 145 151
122 152 160
128 158 171
112 143 150
120 150 159
121 148 160
133 159 177
126 158 165
129 158 172
123 153 164
121 152 164
133 160 175
128 154 167
126 156 167
124 153 164
132 160 174
132 160 174
135 161 177
118 152 160
140 166 184
129 161 172
131 158 172
128 157 169
138 164 182
134 162 176
131 160 173
131 162 174
135 162 177
130 162 174
137 163 181
142 169 187
140 166 185
142 167 187
144 169 188
135 163 178
145 170 190
133 162 177
144 169 189
143 169 190
142 169 189
143 167 186
142 168 188
135 164 179
139 167 185
136 166 182
149 157 182
147 160 184
147 158 183
142 146 168
150 159 183
150 167 194
151 162 186
147 159 184
150 155 178
147 156 180
151 162 187
150 158 181
148 155 180
148 158 182
143 148 171
146 156 181
143 149 170
143 154 179
138 136 157
151 161 184
145 153 176
146 154 177
144 154 178
141 142 164
138 140 161
145 153 176
141 144 166
147 157 180
140 138 159
144 151 175
140 144 167
139 137 158
146 157 181
136 138 159
127 124 145
138 137 157
140 142 162
138 136 159
143 146 168
142 146 168
146 155 179
136 138 159
130 128 149
137 143 165
133 136 157
140 139 161
131 132 154
128 127 148
140 145 168
132 129 150
140 148 171
136 141 163
132 135 157
139 149 173
129 127 146
136 135 156
132 137 161
134 137 158
136 135 156
131 126 148
133 133 153
133 128 148
130 130 153
133 136 157
123 129 152
136 143 167
134 137 159
132 137 160
131 135 157
136 147 172
128 133 155
137 141 164
133 135 159
132 136 159
130 143 171
124 123 145
129 136 159
136 141 165
133 142 165
137 143 165
136 146 171
138 149 173
137 140 162
141 150 175
132 140 164
135 144 169
137 146 171
128 133 158
126 138 165
138 150 177
132 141 164
133 141 165
130 144 168
135 145 170
135 147 174
137 148 173
128 144 172
125 142 171
132 142 168
135 148 174
132 147 176
140 153 179
130 144 174
131 147 176
130 138 163
114 126 155
129 145 172
126 139 169
142 158 186
130 144 172
132 142 170
133 148 177
125 139 167
124 136 164
128 145 174
136 153 182
127 145 174
130 148 177
127 146 181
135 153 181
129 147 176
121 139 170
129 145 175
130 147 179
127 143 172
122 142 172
120 137 167
129 145 175
134 150 180
130 148 180
122 137 166
123 140 170
122 139 168
116 133 165
115 131 162
115 133 164
116 134 164
116 136 169
119 136 165
123 138 169
115 133 165
123 143 170
121 141 178
121 140 172
123 145 181
119 138 173
115 135 170
121 138 166
114 135 171
117 132 165
116 135 167
121 141 172
115 134 165
105 124 161
124 144 175
126 147 178
126 143 173
111 135 166
107 128 160
118 140 173
118 138 170
110 134 169
116 138 171
114 137 175
122 144 174
106 129 164
117 138 170
121 141 173
114 133 166
123 146 177
117 137 169
121 141 168
119 144 171
129 152 180
113 138 175
113 138 169
124 147 175
114 137 168
116 140 168
127 150 181
119 142 173
122 144 174
114 141 169
116 139 170
126 151 180
119 143 171
122 147 174
119 144 172
123 145 173
122 146 176
125 149 180
119 140 167
121 144 174
121 147 177
125 147 175
122 145 173
124 148 177
119 144 174
125 147 177
126 150 179
115 142 164
110 136 162
126 149 178
121 148 170
121 145 173
118 147 168
128 152 177
130 156 179
125 151 174
128 151 170
128 152 175
129 156 180
115 145 166
128 150 173
123 150 170
123 151 173
118 145 168
115 144 165
117 144 166
126 150 177
121 147 168
129 154 171
133 156 180
132 156 183
127 153 175
127 151 172
112 144 154
118 147 165
124 150 168
115 142 161
119 146 162
126 152 172
120 148 164
105 136 150
118 145 162
125 150 167
123 153 168
122 150 167
128 156 172
132 157 177
128 153 174
126 153 171
121 150 166
129 155 169
131 158 178
125 154 167
129 156 174
112 144 155
116 144 156
115 147 157
120 150 163
115 147 155
122 153 165
124 151 167
118 150 162
118 149 155
113 147 154
108 144 153
119 147 162
133 157 176
115 149 155
116 144 157
112 144 151
124 155 165
110 144 148
118 149 160
109 141 147
115 148 153
118 146 157
118 148 157
121 151 161
125 154 166
111 142 153
128 156 169
119 150 158
111 148 149
119 151 160
118 150 160
124 152 163
124 154 166
114 152 153
127 155 166
121 150 160
121 149 158
127 156 168
126 154 167
126 154 162
126 155 169
128 156 171
122 154 163
118 149 158
124 155 164
126 157 169
120 153 160
134 161 178
134 163 175
126 156 170
128 159 173
136 163 180
138 165 181
139 166 181
137 162 181
133 161 177
141 166 186
136 163 177
137 164 182
134 160 177
144 169 189
145 170 192
135 163 179
140 166 186
132 161 176
139 165 184
138 166 182
137 165 180
139 166 183
138 165 183
136 164 181
137 166 182
142 167 186
149 162 186
142 146 168
148 155 180
147 154 178
142 146 170
146 158 183
143 153 178
148 156 180
143 151 175
148 151 173
147 158 182
143 152 178
143 154 179
143 148 171
145 150 172
146 151 174
145 153 178
154 168 193
146 152 176
148 161 186
143 149 172
140 150 175
143 145 166
142 149 174
140 144 166
138 142 164
141 151 176
140 142 164
144 155 178
143 150 172
141 139 160
138 140 162
135 137 159
132 135 156
140 147 170
138 142 163
142 150 173
142 144 166
138 140 162
141 147 170
140 144 166
140 145 168
132 132 154
143 150 172
130 131 153
133 138 161
132 128 149
122 123 147
135 140 163
132 135 157
133 132 154
132 135 156
138 138 160
134 137 159
135 135 156
139 142 163
131 130 151
133 133 155
124 124 145
134 135 159
133 140 162
124 123 143
130 130 152
135 137 158
134 134 155
137 144 168
126 133 158
139 148 171
126 126 149
131 137 162
133 138 161
135 143 168
134 145 169
123 120 142
122 122 141
132 138 163
135 139 161
132 142 168
139 146 171
131 142 168
137 150 176
137 147 171
138 146 170
129 136 161
128 134 158
131 141 167
130 136 162
128 138 165
135 149 176
130 143 168
130 142 169
142 155 178
140 151 176
128 135 159
135 147 172
132 146 173
137 150 175
134 146 171
132 142 168
140 152 178
135 146 173
127 141 171
128 138 165
139 154 181
127 142 170
117 128 158
136 153 183
128 141 170
126 140 168
131 143 170
134 148 180
117 128 158
127 141 170
128 138 164
130 144 174
124 140 169
121 134 165
130 148 174
123 140 171
129 147 177
124 139 168
125 143 172
124 145 178
128 148 179
131 148 176
131 147 175
121 140 171
131 149 178
123 142 173
131 151 183
122 139 167
115 133 167
130 146 176
127 146 176
130 151 185
125 145 174
121 139 170
124 144 177
117 136 170
124 141 172
129 149 179
121 139 169
123 142 174
128 146 175
120 134 163
118 139 170
114 137 175
120 137 165
122 141 172
115 137 166
115 134 166
125 145 175
121 137 168
116 135 169
124 147 175
110 132 162
125 146 177
114 134 166
116 137 170
127 149 183
124 144 177
118 138 171
115 134 166
115 136 169
119 137 168
121 144 173
121 141 174
131 152 185
116 139 171
122 147 180
116 138 171
117 138 168
126 148 180
117 138 168
126 147 176
119 141 174
124 146 177
119 142 172
125 147 181
112 134 166
115 139 172
126 148 176
118 142 173
127 151 177
115 137 165
119 141 172
116 141 169
123 146 175
116 141 169
121 145 177
122 143 173
111 136 165
111 136 163
114 137 166
121 148 175
122 146 173
106 134 161
108 133 162
131 154 179
116 143 166
123 146 173
118 142 174
126 150 178
126 152 173
131 153 180
127 152 177
120 145 170
129 153 178
127 154 178
118 143 168
117 144 164
128 155 178
126 152 178
133 157 179
128 153 182
118 149 168
121 146 173
116 146 165
122 149 171
124 150 172
130 157 179
123 148 173
131 154 178
135 160 186
125 152 168
122 150 170
119 146 167
128 156 175
121 148 169
117 144 165
132 158 183
121 153 169
130 156 173
125 151 173
126 152 172
121 150 167
116 148 163
122 151 165
120 149 167
122 151 169
117 150 161
121 150 168
113 147 157
117 147 159
119 149 164
115 145 157
122 151 163
114 144 155
118 147 162
124 151 166
136 161 181
114 145 156
124 151 169
117 146 156
115 146 158
122 152 162
120 151 163
122 149 165
131 157 175
109 142 148
123 153 166
116 147 157
125 153 168
130 156 172
129 158 172
111 142 147
129 157 169
125 152 167
130 158 172
120 151 160
110 143 151
119 149 162
106 140 147
115 148 151
121 149 160
122 152 163
127 157 169
124 153 167
126 155 168
116 149 154
131 160 174
127 157 169
135 161 177
125 156 166
127 157 167
131 159 172
126 154 166
120 149 162
126 154 169
119 150 159
134 160 180
133 160 175
129 158 170
122 151 162
128 156 170
139 164 180
123 154 165
129 160 172
131 162 172
126 157 170
142 166 185
135 163 178
128 158 171
137 164 180
127 157 171
136 165 181
134 162 178
137 163 181
144 169 188
141 166 185
135 163 182
136 164 181
138 165 181
139 165 184
137 165 182
136 162 180
139 167 184
142 167 188
140 165 185
139 167 185
143 145 167
152 164 188
151 163 188
143 153 177
150 163 189
147 159 184
151 163 188
151 163 188
140 147 169
150 162 186
150 161 186
140 145 169
144 149 172
143 147 169
146 154 177
142 149 174
137 139 160
145 151 174
140 144 166
147 154 177
138 141 164
140 150 173
144 154 177
139 139 160
139 145 169
138 143 165
138 139 160
147 158 182
131 128 149
143 148 170
150 161 186
143 150 174
138 142 165
135 135 156
143 148 170
142 147 170
139 141 162
139 146 170
144 147 170
135 142 165
143 143 164
141 145 167
138 138 158
129 133 155
130 134 156
135 134 156
140 149 173
137 140 163
142 149 172
139 145 167
130 131 153
130 132 155
136 135 157
133 134 156
130 133 156
136 141 166
133 137 160
134 141 165
137 143 167
131 130 155
138 142 166
127 129 150
132 136 159
135 135 156
130 132 155
138 147 171
141 149 174
124 127 150
128 129 153
131 135 157
138 138 161
140 149 173
138 147 171
130 135 158
130 140 166
133 140 166
126 129 150
130 142 169
136 148 175
131 136 160
134 141 165
128 132 157
122 134 164
135 138 163
135 143 170
142 155 183
140 148 172
125 129 155
134 142 168
134 143 169
132 138 163
130 142 165
134 145 174
135 145 170
120 135 164
131 141 167
139 149 174
130 143 172
128 137 164
136 148 175
126 139 166
124 132 159
129 142 171
137 150 176
143 156 181
134 149 177
116 125 154
123 134 161
131 147 175
125 140 169
130 147 177
130 145 174
129 146 174
117 135 165
130 146 176
133 153 183
126 144 177
124 138 171
130 148 178
125 142 173
127 140 168
130 146 175
124 140 167
129 150 183
123 144 176
125 141 171
135 155 185
127 145 176
123 142 175
127 147 181
134 152 181
129 148 179
124 141 174
128 148 181
114 132 165
130 147 177
113 129 162
127 144 176
121 141 173
118 138 173
130 151 184
127 143 172
119 141 172
125 143 174
126 148 176
126 146 178
122 140 170
115 134 171
117 133 166
130 149 178
120 138 170
114 135 166
116 136 168
133 154 183
116 135 166
118 137 170
115 136 173
113 133 164
127 143 170
121 140 176
114 135 168
123 145 177
127 151 184
128 150 178
116 135 169
118 142 174
120 145 180
119 140 173
113 136 171
121 140 172
118 139 173
124 145 177
123 146 175
123 145 176
117 138 166
123 145 175
126 149 179
125 147 172
121 144 176
118 144 172
115 136 168
117 142 173
125 147 176
110 128 157
125 149 176
125 149 176
119 144 172
120 144 172
121 144 172
112 137 168
118 141 171
114 139 167
112 135 162
121 143 171
122 146 176
122 145 177
120 142 170
125 150 177
132 156 184
120 146 173
117 139 170
125 150 174
117 143 169
123 149 173
122 146 171
125 147 174
118 145 169
128 151 178
131 156 180
122 150 174
124 147 175
119 143 169
112 138 161
128 154 178
125 152 180
131 155 181
120 148 171
129 152 173
113 139 160
132 155 179
135 160 184
116 142 161
128 154 177
126 151 173
130 154 177
125 149 175
121 146 166
130 156 181
122 149 173
121 148 169
112 143 162
111 140 158
119 148 166
139 164 188
132 158 178
127 153 172
110 137 156
130 155 178
132 159 179
121 148 169
127 156 170
128 153 171
120 147 164
115 143 159
122 149 165
120 151 164
121 149 161
117 147 164
123 149 169
129 157 172
126 153 168
133 163 180
125 153 166
117 150 160
124 154 168
124 153 167
130 156 171
126 154 171
128 155 173
122 151 163
125 155 169
125 152 167
124 153 168
132 156 179
117 147 159
117 146 159
116 148 158
121 148 160
128 155 172
126 154 168
125 155 168
107 145 147
124 156 169
138 162 181
133 160 177
117 146 158
125 156 166
120 150 161
133 161 176
121 154 163
114 146 155
125 152 165
120 149 159
133 160 175
123 153 164
127 157 167
131 160 174
130 158 174
126 158 168
128 158 169
124 152 164
138 164 179
131 160 174
122 153 166
126 156 170
133 161 175
124 154 167
133 161 178
135 161 177
140 167 183
140 167 185
136 160 176
133 161 172
139 165 183
134 162 178
129 158 172
135 163 178
141 167 187
142 168 186
135 164 177
133 163 177
132 162 175
133 164 176
132 162 177
142 167 187
134 162 176
141 169 186
147 172 194
134 163 178
144 170 190
151 167 193
145 152 176
142 145 168
145 152 176
142 152 177
149 155 178
148 160 184
150 155 179
145 152 175
145 157 183
146 154 177
145 151 174
143 147 170
146 155 179
140 144 168
144 153 178
148 160 184
147 156 179
144 154 180
143 146 169
148 157 181
141 144 166
141 147 170
141 147 169
138 142 164
137 143 164
141 148 171
136 141 164
142 150 173
142 150 172
142 145 166
143 150 172
146 154 178
140 142 165
136 139 161
139 147 170
140 145 167
137 140 163
136 139 162
146 153 175
139 148 172
130 130 154
142 147 170
140 148 172
135 132 152
136 133 155
141 148 171
139 148 172
141 146 169
135 141 166
136 139 163
134 137 160
131 132 154
135 135 156
131 127 147
137 142 167
128 131 153
138 145 169
135 135 156
134 147 172
130 134 158
133 142 169
131 133 155
134 140 165
141 149 174
134 138 161
134 141 166
133 136 158
125 140 169
140 147 170
137 150 177
135 142 167
136 141 165
138 146 170
140 146 171
133 133 157
131 137 161
135 145 169
139 149 174
134 141 166
138 148 171
130 144 175
137 147 171
133 144 170
137 146 169
124 127 151
132 144 170
128 135 160
130 140 166
133 145 173
133 146 172
129 138 164
137 149 173
143 155 182
128 138 165
133 146 174
130 142 169
127 129 153
125 137 163
139 152 179
133 145 173
128 141 169
137 155 185
135 152 179
139 152 180
127 139 164
129 144 171
134 149 176
122 137 165
138 154 184
130 139 167
125 141 174
143 158 184
125 142 172
126 138 169
132 146 172
131 148 178
126 144 178
139 156 185
122 135 166
125 142 171
129 143 172
126 141 169
121 140 172
127 141 169
125 140 171
127 142 171
127 144 174
134 152 181
124 142 174
126 143 172
127 146 179
129 145 174
117 136 170
130 149 177
124 142 175
140 160 192
126 147 178
116 134 167
128 149 181
125 147 182
127 147 182
127 148 181
117 133 165
126 146 177
124 146 176
130 150 181
115 138 174
119 140 172
123 142 171
122 142 171
122 143 179
133 155 185
119 137 172
123 143 174
117 137 165
120 137 167
127 147 180
120 139 172
124 146 178
127 149 177
122 144 176
128 150 179
126 147 177
121 140 173
112 133 164
121 142 174
124 148 180
127 147 177
114 135 166
122 145 176
126 150 178
128 151 183
122 143 172
119 140 172
112 138 169
109 134 160
118 142 173
116 143 173
123 145 174
117 143 174
122 145 173
116 137 167
121 142 171
123 150 181
122 143 172
120 145 176
128 151 176
118 144 168
134 157 185
122 144 176
134 156 183
125 149 177
98 124 154
126 148 175
121 144 173
122 147 176
129 153 178
121 147 174
135 158 184
125 150 177
128 150 177
131 153 181
129 152 179
125 148 178
130 153 175
133 155 186
130 152 181
121 146 173
128 153 177
130 153 178
128 153 180
128 152 178
124 151 176
126 150 171
121 149 173
117 146 166
125 151 173
128 151 179
129 155 176
137 161 184
125 149 172
125 153 175
129 156 176
130 156 179
126 154 173
125 149 173
123 150 166
126 153 177
124 151 170
117 147 166
130 155 180
120 147 167
127 152 175
116 147 160
127 155 175
122 150 168
133 158 179
126 154 174
125 150 171
128 156 172
120 150 167
125 153 173
128 156 172
126 155 170
121 150 165
124 151 169
123 152 170
125 154 173
127 151 174
116 146 159
129 153 170
125 153 167
130 157 174
118 146 162
114 146 158
121 148 162
133 159 177
125 150 166
109 142 149
110 143 149
117 146 159
118 149 163
124 153 169
123 154 162
133 161 179
122 153 163
124 154 164
121 151 167
126 156 172
120 154 163
122 150 167
126 157 173
120 150 162
131 156 171
123 154 167
131 160 174
128 157 169
137 165 181
129 157 168
127 156 170
123 151 164
138 164 184
126 156 168
120 152 161
117 146 159
131 161 177
122 152 162
131 157 176
124 154 166
126 157 168
126 155 167
135 159 177
129 156 169
125 155 167
137 165 183
130 160 173
130 159 173
132 157 174
129 159 172
129 158 170
122 156 164
135 164 182
136 163 180
132 158 175
121 152 163
137 165 180
140 166 183
129 159 171
137 163 181
138 165 184
133 163 178
147 172 194
137 164 183
143 171 186
131 160 177
127 157 170
142 169 186
135 164 181
136 164 181
146 153 176
146 153 178
147 159 184
141 144 166
146 155 179
147 159 183
145 154 179
148 159 183
145 152 175
147 153 176
145 150 174
145 151 174
144 150 174
146 158 182
143 153 177
142 143 164
144 157 182
144 153 177
140 150 175
144 154 178
146 148 171
133 129 150
151 159 183
137 136 157
140 145 168
142 152 175
140 141 164
137 140 165
144 146 169
137 134 154
144 154 178
137 133 153
138 138 159
135 142 165
133 136 159
141 148 172
138 144 168
143 149 172
136 142 165
143 154 177
134 142 165
125 125 147
135 141 165
128 131 153
145 154 179
142 143 164
134 142 167
136 144 170
132 137 161
137 143 167
141 151 175
122 120 143
141 145 167
138 142 166
134 135 158
139 147 171
137 146 168
136 135 156
138 148 174
133 132 153
135 140 164
132 141 165
133 133 155
136 142 165
141 151 177
135 141 167
139 137 160
140 145 167
132 137 163
133 146 173
133 135 157
126 129 154
131 144 172
131 140 166
124 135 160
138 149 175
136 141 165
133 138 162
141 151 178
134 140 164
131 146 174
138 149 174
135 141 167
137 145 169
131 135 159
132 138 163
132 142 169
141 156 184
136 153 181
133 144 170
143 160 186
138 149 174
136 146 174
138 152 178
133 146 175
132 146 173
127 141 169
132 150 179
129 142 172
141 154 180
131 144 170
135 146 175
125 135 165
134 146 173
131 143 170
135 153 182
134 151 179
133 150 180
133 149 178
133 146 174
130 145 172
118 134 164
139 155 184
137 153 179
135 155 183
122 137 168
124 142 173
131 146 172
120 136 167
131 146 175
130 147 174
124 141 175
130 150 181
133 152 182
131 150 178
128 144 173
130 147 177
123 142 171
132 149 180
129 148 177
126 141 169
124 141 174
123 143 177
140 157 185
128 144 173
120 141 175
131 152 181
139 153 181
130 152 184
131 151 181
123 137 167
129 148 178
125 148 180
116 133 168
115 135 165
121 138 168
119 139 170
123 142 175
131 152 183
127 148 181
123 145 173
121 143 173
117 137 171
123 144 175
124 146 177
121 142 173
128 151 183
115 132 164
124 145 177
125 147 179
126 146 178
112 135 168
126 145 174
115 139 167
125 147 178
119 140 173
127 150 183
126 147 180
126 147 179
117 137 169
121 143 173
122 144 173
117 139 169
119 145 172
118 143 177
123 146 179
133 154 183
128 149 178
122 143 175
126 148 179
121 142 172
130 153 185
125 150 179
118 146 172
130 153 181
117 139 167
128 152 180
131 155 186
118 144 174
127 148 179
122 144 176
130 153 181
124 147 178
141 163 192
123 148 177
127 150 182
126 152 178
138 158 186
126 150 177
125 150 178
120 144 177
135 158 185
137 160 190
118 146 172
128 153 175
122 147 171
131 156 181
131 157 179
131 156 180
128 153 176
129 154 185
134 158 181
133 155 182
132 156 182
127 151 173
130 155 180
126 151 175
119 144 165
131 155 178
126 155 176
135 158 181
123 149 169
129 152 176
126 150 173
120 144 170
129 155 179
125 154 172
132 157 180
126 152 176
132 157 177
128 154 176
130 154 178
123 147 167
128 155 177
126 154 174
120 148 165
125 151 174
130 154 178
127 152 175
124 152 174
118 146 161
118 146 163
125 151 167
134 160 181
118 150 161
125 154 172
121 151 166
135 163 182
130 156 175
121 149 166
129 157 177
134 159 177
125 154 171
132 158 176
120 150 167
134 160 182
121 149 165
117 149 163
114 146 157
124 152 170
124 154 171
127 154 173
120 151 167
124 154 165
131 159 176
128 154 172
122 152 165
127 157 173
120 151 162
131 159 172
127 157 169
114 144 155
133 160 179
128 156 169
116 146 162
134 159 174
124 154 166
128 156 170
122 153 166
113 150 154
131 161 174
124 154 167
118 150 161
128 156 170
135 164 180
125 151 168
128 158 170
124 153 164
128 157 171
135 162 177
123 154 166
129 158 174
135 161 180
124 153 164
128 158 169
137 163 179
131 160 177
134 159 179
131 163 174
131 160 175
133 162 177
134 160 176
136 163 179
137 164 181
132 163 176
133 162 175
131 159 175
143 166 185
132 162 175
134 162 177
138 166 182
138 166 184
138 166 186
141 168 188
131 162 175
130 160 173
138 165 184
136 163 181
144 169 191
141 168 185
147 157 181
145 153 176
147 157 181
143 152 176
147 160 186
143 148 171
145 154 178
149 159 184
146 154 177
148 156 180
143 154 178
143 151 174
144 153 177
143 150 175
138 144 168
142 147 171
144 153 177
142 149 173
145 153 177
145 155 180
135 140 163
145 154 179
139 146 173
144 153 177
143 153 176
141 151 174
145 151 174
144 155 179
139 138 160
142 146 170
132 134 156
147 156 179
144 151 175
139 145 169
138 144 170
144 155 179
140 144 166
141 141 162
142 152 177
137 142 165
138 149 175
140 152 177
135 138 160
132 137 163
137 140 163
142 145 168
136 146 171
136 136 159
144 150 173
137 143 168
132 136 157
139 149 174
139 148 172
136 147 172
132 140 165
131 130 154
126 130 152
138 146 170
134 143 168
127 130 152
144 158 184
143 154 180
132 143 171
131 136 161
139 153 181
133 143 168
137 145 170
135 141 165
137 145 169
134 146 172
138 146 171
128 130 153
136 147 171
136 151 177
129 137 162
129 142 167
136 148 174
138 148 174
136 142 166
135 139 163
129 140 167
138 150 175
139 148 173
130 138 164
141 155 181
136 142 167
129 141 168
138 155 182
140 149 175
130 141 168
128 138 167
136 148 175
136 150 179
133 145 172
135 149 176
128 141 169
133 151 180
144 159 185
126 142 172
127 139 170
130 148 178
132 150 179
132 146 174
127 146 179
132 144 173
134 150 179
133 147 176
131 147 178
140 154 182
132 146 175
134 151 179
134 149 180
131 147 174
129 148 179
133 148 177
143 162 190
143 158 185
117 131 163
133 147 175
128 143 173
134 151 179
120 140 171
130 147 177
140 159 189
133 146 175
122 145 179
133 151 181
118 139 173
130 146 173
132 149 180
119 137 168
134 157 188
121 140 174
133 154 185
135 151 179
125 145 178
128 148 182
126 145 178
130 150 181
123 143 174
131 152 183
120 140 175
119 137 168
130 148 180
127 143 174
130 148 180
128 148 178
116 137 172
131 149 178
125 140 170
113 133 167
123 142 174
130 150 180
129 149 179
124 143 173
106 130 168
122 143 179
123 147 174
125 142 171
128 151 181
115 138 169
130 151 180
134 153 180
116 140 168
120 145 175
130 151 181
122 142 175
136 155 184
134 155 184
129 152 183
115 136 169
133 154 186
130 154 182
129 151 182
130 151 179
124 148 183
134 155 183
122 147 174
120 143 179
127 152 176
127 149 178
124 146 177
127 151 177
133 156 187
129 149 178
117 141 169
124 145 171
125 148 176
121 142 172
123 148 178
120 142 173
124 150 179
128 152 177
133 155 187
125 148 172
119 144 166
124 148 177
135 158 187
117 141 172
123 151 173
122 146 173
122 146 174
123 146 172
135 160 190
128 153 178
119 146 173
122 147 168
124 149 176
125 148 177
137 161 188
121 149 167
130 155 177
132 156 186
123 150 172
134 160 183
131 153 181
132 155 183
123 151 171
124 150 172
125 152 173
132 158 181
122 149 172
128 151 175
127 155 176
136 161 181
134 156 183
125 152 176
132 158 178
119 146 167
128 152 174
125 153 171
124 152 175
128 155 178
130 156 179
138 161 185
121 147 166
115 144 164
127 154 177
133 157 178
133 157 181
134 157 180
135 159 181
134 161 179
129 156 176
118 149 168
128 156 177
126 154 172
124 152 173
125 153 174
124 151 168
117 152 159
123 150 168
131 157 174
120 148 163
140 165 186
119 147 161
127 156 172
128 157 172
111 147 152
136 163 184
127 155 170
129 158 172
123 153 169
129 155 174
129 157 174
123 153 164
123 153 168
138 163 183
132 160 174
113 147 157
123 153 164
114 145 157
118 149 159
129 158 172
124 154 169
126 156 169
124 154 164
129 157 174
141 166 187
119 152 164
131 160 178
121 152 162
127 156 169
144 167 187
131 161 176
134 161 178
130 158 171
130 158 173
119 148 157
132 160 178
125 154 167
124 156 166
129 159 171
135 161 178
128 156 171
131 160 174
131 159 172
131 158 175
131 161 176
128 159 174
130 162 173
136 164 180
141 165 184
133 163 178
127 158 173
137 166 180
136 163 179
129 158 173
126 159 169
134 161 178
131 158 174
141 166 184
136 163 182
133 161 178
140 166 184
142 168 187
139 164 183
138 164 183
132 163 179
141 166 185
143 147 172
149 162 188
150 161 185
145 154 179
144 155 179
146 157 181
147 156 179
144 145 167
148 160 185
136 140 164
142 142 163
143 150 174
148 163 189
140 148 171
141 147 170
139 143 167
145 152 174
138 145 169
143 148 171
139 142 166
150 158 182
142 151 175
139 145 168
146 157 182
144 145 167
145 153 177
138 143 167
141 146 168
141 148 170
139 138 159
141 148 171
140 147 170
143 155 180
140 146 169
143 148 170
148 158 183
139 147 172
136 139 161
131 127 149
143 152 175
138 142 166
140 148 172
145 153 179
132 132 153
140 149 173
140 150 175
139 144 167
143 151 175
140 144 167
140 152 180
134 144 170
137 149 174
142 148 173
142 154 181
138 149 175
140 145 169
136 142 166
138 147 172
138 152 178
138 146 168
134 138 163
133 146 175
129 136 161
140 147 170
134 142 169
135 145 172
132 139 162
140 147 172
141 154 183
136 144 168
129 143 171
144 160 188
130 142 170
139 151 176
144 159 188
131 142 169
138 148 174
138 150 175
136 149 176
136 145 174
132 137 161
138 151 178
134 145 172
126 139 169
134 146 172
132 143 167
135 150 177
132 139 164
132 141 168
138 151 178
131 146 174
131 144 172
143 160 189
133 150 178
139 155 182
141 153 178
132 145 172
132 148 177
123 131 157
134 150 179
132 139 165
145 163 191
129 147 178
132 152 183
135 148 175
122 132 158
124 135 166
134 149 178
132 148 177
141 159 188
130 149 180
139 157 187
138 156 185
127 141 171
135 154 184
128 142 170
130 153 185
132 151 182
128 145 175
140 157 183
126 143 174
129 148 180
140 152 178
126 145 175
135 151 179
134 154 183
136 152 183
117 136 167
119 137 172
118 140 173
130 148 176
131 149 180
133 151 182
132 147 177
123 135 160
127 142 172
126 147 177
128 146 176
121 140 171
131 149 177
131 152 184
129 150 184
134 154 183
129 151 180
122 141 172
126 145 174
126 145 175
122 142 175
129 148 180
124 141 174
123 143 174
121 143 175
120 141 173
131 152 183
131 147 176
122 142 174
124 143 175
131 154 185
123 147 179
129 148 179
131 152 184
131 153 185
118 142 172
126 147 183
112 135 170
120 142 175
127 148 176
128 149 177
120 145 176
137 158 187
121 141 172
124 147 175
122 145 180
131 151 182
122 144 173
129 153 184
114 135 168
122 146 176
131 151 179
127 149 182
114 141 170
126 146 177
123 149 176
117 140 171
129 152 180
120 141 173
118 143 169
118 143 172
128 154 181
119 143 170
123 147 175
123 148 175
134 158 184
132 152 177
130 152 182
125 150 175
131 154 182
121 145 170
129 151 180
125 149 179
133 155 183
122 146 168
126 150 175
127 151 178
121 148 173
128 151 179
133 157 183
125 151 179
133 158 182
126 150 179
126 148 174
125 151 178
126 149 172
129 155 182
131 155 179
126 150 172
131 157 179
127 151 176
127 151 175
136 161 182
131 157 183
141 164 192
132 155 178
124 149 171
120 149 170
131 156 179
125 153 172
131 157 180
130 156 179
115 144 167
126 154 174
122 147 169
131 155 176
129 154 174
127 154 175
122 151 165
132 159 180
129 157 176
125 151 169
122 152 166
132 160 180
119 147 163
124 153 172
119 145 163
115 144 159
123 147 168
134 162 185
127 154 171
115 143 158
134 160 179
118 148 165
127 153 175
121 153 171
128 155 172
123 152 167
127 155 174
135 162 182
125 155 169
134 161 179
128 156 171
124 156 171
125 154 170
132 158 177
116 146 160
127 156 170
125 150 168
135 163 183
135 163 177
134 159 176
137 163 184
129 156 176
129 156 175
130 158 175
123 153 168
139 165 184
118 151 160
127 156 172
121 148 164
132 159 174
122 153 163
127 159 173
133 160 177
133 160 176
126 154 170
135 162 179
126 158 169
117 148 160
130 157 172
124 155 166
119 150 163
130 160 174
133 162 181
132 159 174
130 159 173
130 160 175
142 169 185
125 155 168
125 159 168
136 163 183
145 170 192
119 154 162
127 157 168
128 158 174
136 165 179
116 149 158
137 163 180
124 155 166
140 167 186
132 161 175
128 158 173
132 163 178
138 162 182
140 166 186
136 164 181
135 163 179
133 161 175
139 165 181
146 171 192
138 164 182
136 162 179
144 152 175
147 161 187
147 161 187
145 153 177
144 147 170
144 151 175
144 152 175
149 160 184
151 162 187
145 158 182
145 155 179
142 152 176
149 159 184
141 148 173
144 154 177
133 135 156
138 144 168
141 149 174
143 144 167
143 154 179
147 152 175
141 150 175
144 155 180
141 152 176
141 146 168
139 143 166
142 151 175
142 155 181
142 152 177
140 150 174
141 151 175
135 142 167
145 154 177
142 148 172
139 146 170
134 140 165
141 153 177
146 159 185
139 142 165
141 152 178
144 151 175
139 146 170
141 150 174
137 149 177
139 145 170
144 156 183
147 154 178
140 142 165
133 141 165
136 143 168
139 149 175
135 142 168
141 153 178
151 158 182
133 143 165
130 132 158
132 140 163
140 153 180
130 134 157
139 152 178
140 150 177
133 145 171
138 149 174
133 143 167
138 142 165
134 138 162
138 146 171
136 146 167
138 146 170
140 151 178
132 136 159
143 156 183
144 160 187
131 136 158
130 137 165
139 141 163
135 145 172
131 142 169
133 140 165
136 147 173
141 158 184
138 153 182
139 154 180
129 144 172
130 144 171
136 149 177
127 143 173
139 153 180
135 152 182
131 148 179
138 154 182
134 142 167
134 144 171
143 163 190
132 146 174
137 154 185
131 142 171
128 142 170
132 145 174
134 148 177
140 158 187
140 159 187
132 146 174
136 154 184
140 159 190
138 148 177
136 150 178
137 155 183
141 154 183
133 147 178
137 153 180
129 145 176
125 140 167
134 154 181
132 146 173
135 151 178
125 141 169
131 150 182
128 145 173
128 148 179
124 142 175
137 154 180
128 146 177
125 144 173
130 148 178
134 154 185
127 146 178
139 156 186
135 150 177
119 139 173
132 146 175
126 143 174
122 141 173
124 142 174
124 141 172
134 152 183
128 150 180
127 147 179
131 148 180
127 149 180
122 143 178
130 149 182
133 154 188
127 145 179
130 148 181
116 136 168
131 150 182
126 146 178
129 151 181
126 146 177
132 147 177
115 137 166
140 158 187
127 151 186
116 137 170
115 135 165
126 148 178
125 147 178
123 144 177
122 139 172
125 146 175
134 154 182
129 152 179
128 146 176
128 148 180
121 144 177
122 145 172
129 150 180
120 142 173
125 146 175
133 154 185
123 142 170
121 143 175
121 144 176
129 148 175
122 144 175
131 154 182
138 158 186
125 149 177
138 159 188
129 153 182
119 143 173
128 151 179
124 147 181
127 150 176
128 153 181
135 159 186
127 148 177
122 146 176
131 154 183
126 146 174
126 147 178
126 152 180
127 149 172
128 153 181
137 161 188
121 146 174
116 140 165
131 153 181
128 152 180
127 152 175
128 150 181
130 154 182
122 147 175
124 150 175
127 152 178
121 146 171
132 156 182
124 149 173
127 151 177
128 154 178
129 154 182
130 155 180
126 151 178
123 146 172
133 157 178
127 152 176
135 159 186
131 156 181
123 146 168
134 157 182
129 155 175
126 150 174
128 154 176
129 155 178
131 157 182
133 157 179
126 151 177
134 158 186
133 158 184
134 161 182
138 163 185
132 159 179
131 157 180
116 147 162
135 159 181
130 156 177
126 157 176
133 157 178
131 157 181
125 153 172
123 151 170
123 148 170
124 153 175
128 158 178
127 154 172
130 155 178
136 159 178
109 140 159
127 154 174
132 160 182
120 151 166
122 151 166
130 159 178
130 158 173
104 136 146
126 153 173
121 152 165
127 156 171
130 155 173
122 152 166
122 151 166
133 158 177
134 161 179
131 159 178
127 155 175
114 144 158
127 157 173
138 164 182
118 150 161
127 155 172
118 148 164
134 159 178
128 157 172
118 148 160
133 161 175
125 155 170
133 162 177
129 158 175
131 161 175
134 160 180
130 159 173
127 154 171
126 155 170
133 159 175
130 160 170
125 155 168
124 154 166
122 154 166
134 163 179
129 157 171
136 163 179
126 155 172
126 156 168
131 160 179
133 162 176
129 157 169
126 156 172
135 164 180
125 155 168
124 152 166
134 160 175
143 169 189
145 169 192
129 158 173
131 160 173
131 163 176
135 161 178
129 159 174
135 162 179
137 164 181
131 161 176
144 171 189
128 156 167
135 161 179
134 162 179
132 161 175
133 164 176
139 164 185
144 171 190
153 170 197
149 162 188
145 154 179
144 157 181
146 154 178
148 156 180
148 158 183
142 147 170
140 140 161
149 156 180
142 148 172
142 153 175
144 154 177
143 143 165
147 162 189
145 155 179
135 138 160
139 144 166
139 146 169
142 148 171
137 143 169
140 142 166
144 149 171
150 158 181
145 154 177
143 157 181
142 146 168
148 159 184
143 149 172
146 157 182
145 156 181
133 139 163
137 143 166
139 143 167
147 155 179
145 156 181
143 148 171
142 151 176
144 154 179
142 146 168
139 148 174
140 144 168
139 148 174
137 143 167
139 151 177
138 149 176
138 142 167
137 147 174
144 158 184
135 135 157
139 145 168
140 149 173
137 142 166
139 151 177
141 148 171
138 148 175
133 134 156
134 139 162
137 152 177
138 150 174
145 158 183
129 138 163
145 159 185
138 150 178
138 146 171
143 153 179
137 150 175
139 147 173
139 151 178
137 145 170
144 156 183
136 140 163
133 146 173
144 160 186
136 147 173
135 149 176
138 152 180
139 153 180
139 150 178
142 155 181
139 151 179
138 148 176
135 143 169
144 163 194
136 143 171
143 156 181
131 146 174
135 149 174
142 153 179
125 136 162
136 152 182
138 149 175
141 156 183
144 160 188
139 158 187
137 154 183
136 152 181
138 156 186
139 157 187
134 151 179
135 147 173
137 154 185
136 151 179
124 141 170
139 154 182
141 157 185
137 157 188
140 159 189
137 153 181
137 152 180
136 151 180
123 141 171
138 156 186
131 144 171
131 148 178
129 147 176
122 138 167
129 145 178
138 153 181
138 151 179
134 152 182
122 142 172
129 145 174
135 152 182
134 153 183
124 135 162
136 152 178
124 143 174
121 143 177
134 151 181
126 145 176
126 143 175
133 152 182
123 139 171
131 150 180
130 149 181
137 157 183
125 147 178
133 156 186
124 139 170
126 147 180
125 147 180
124 144 179
121 140 174
130 150 181
125 143 175
136 156 185
139 159 190
133 151 181
129 152 182
122 147 181
131 156 186
120 139 172
131 151 181
136 159 189
132 154 185
125 146 175
135 154 185
123 145 173
128 149 178
123 143 174
124 147 181
139 160 187
123 147 180
122 148 176
134 153 182
129 153 184
126 149 179
128 150 178
118 141 175
114 138 167
128 153 185
129 151 184
129 151 181
140 161 190
137 158 189
130 154 184
121 144 176
128 149 177
120 144 169
134 156 186
117 142 172
135 157 187
126 147 177
133 156 185
127 150 183
120 146 178
122 145 176
128 151 183
127 151 178
123 147 175
129 151 179
126 154 187
122 149 176
138 161 186
124 149 176
122 143 173
134 159 184
129 152 184
137 159 185
133 154 181
129 151 178
131 155 182
125 150 180
136 158 186
118 143 169
134 159 184
127 151 180
135 158 181
135 159 188
141 165 190
132 156 182
129 154 180
123 147 175
138 160 187
127 146 171
128 151 172
135 158 182
133 158 182
133 156 179
132 159 180
136 160 184
134 159 183
132 155 181
133 160 183
133 158 183
122 149 173
124 150 174
136 162 187
132 157 183
125 151 171
130 157 185
123 150 169
132 158 182
132 156 181
133 160 179
124 152 171
135 162 181
127 154 180
130 154 177
129 156 173
127 156 173
125 150 172
133 161 181
132 159 181
128 154 176
127 156 172
127 153 176
131 161 177
129 158 175
126 157 172
128 156 177
131 158 179
125 154 172
129 153 173
131 159 176
124 153 167
132 158 180
132 159 179
131 160 176
132 161 176
124 151 168
122 154 166
133 160 178
134 159 180
113 146 157
130 158 172
126 152 167
131 157 173
127 157 173
128 159 172
131 158 174
134 160 178
118 150 161
131 159 174
132 160 174
129 157 174
128 157 175
120 152 161
132 161 178
139 165 186
114 147 158
134 162 177
132 157 175
132 160 177
137 164 184
125 154 167
129 158 172
129 157 171
136 161 183
134 161 178
127 156 172
130 158 174
129 159 172
134 161 176
132 158 175
129 158 170
134 161 179
124 155 168
129 157 173
133 160 176
135 163 178
130 158 173
129 157 172
130 158 172
128 159 172
129 157 174
127 157 169
135 164 181
138 163 183
132 160 176
139 166 185
134 162 180
137 166 183
142 169 188
138 164 182
133 161 178
137 165 182
135 163 180
136 164 183
149 159 183
146 155 180
143 150 173
150 161 186
149 159 183
143 151 176
148 158 183
145 152 176
143 151 174
146 160 186
144 155 180
148 156 179
142 153 177
146 156 181
144 150 174
143 151 177
141 142 165
140 141 165
141 147 170
144 154 178
142 148 171
138 145 169
143 151 173
140 143 165
138 146 169
136 139 162
142 149 173
137 145 171
141 152 177
140 145 168
142 150 174
142 149 172
144 155 181
142 153 178
143 151 175
143 150 174
135 138 162
141 150 174
135 136 157
146 156 181
146 150 174
141 152 178
138 148 174
138 149 174
144 155 181
139 142 164
141 147 172
140 152 178
143 151 175
138 146 170
142 156 183
138 149 173
129 132 154
139 151 177
137 144 171
144 154 180
144 155 180
134 141 165
136 141 166
139 149 173
141 150 175
140 150 176
137 143 168
138 144 166
144 158 185
137 147 171
135 148 175
143 156 183
139 154 180
137 152 179
140 149 173
134 149 177
143 156 183
135 150 177
132 144 170
139 152 178
130 136 162
140 156 185
141 154 180
138 153 180
143 160 188
144 157 181
138 148 177
126 131 156
132 141 166
140 152 178
141 156 182
143 156 183
145 156 183
134 147 175
138 151 174
131 150 181
141 156 186
141 153 180
135 149 177
132 146 174
139 155 182
136 152 180
139 157 186
139 152 180
133 146 172
126 139 169
137 154 184
127 143 173
131 148 177
138 154 181
133 154 184
138 153 181
130 145 175
125 144 173
125 139 172
138 155 184
135 150 177
125 140 172
137 159 189
133 148 177
138 156 185
139 157 186
136 152 182
133 150 178
138 156 186
138 158 188
125 142 169
131 150 180
129 147 180
133 152 184
133 148 178
125 141 173
137 158 189
120 139 170
130 152 183
124 141 173
120 142 174
133 149 178
125 146 181
126 144 177
123 143 174
129 151 183
127 148 182
128 144 173
128 147 179
125 145 177
137 157 190
131 150 181
139 161 192
127 150 183
130 154 186
135 152 180
133 153 184
127 149 179
136 155 187
127 146 174
128 145 173
129 150 182
127 148 179
126 147 176
131 151 181
135 154 183
131 151 177
125 146 174
125 146 175
130 153 185
122 143 172
133 158 189
131 154 184
132 151 178
129 152 179
126 146 178
134 156 188
132 154 181
110 133 162
126 150 180
125 146 175
129 150 179
127 149 175
127 150 179
131 153 184
131 152 180
122 145 178
126 150 181
123 144 176
133 156 187
126 147 175
122 145 173
120 145 176
124 147 177
134 158 187
131 153 184
123 148 173
127 150 179
133 156 186
129 153 181
134 154 185
130 155 184
123 147 177
132 156 181
126 151 184
124 148 176
133 155 185
137 160 188
129 153 182
130 157 185
129 151 179
129 152 179
131 156 186
136 160 188
134 158 187
123 149 174
132 156 183
136 158 188
127 152 177
135 156 184
130 154 182
135 159 187
135 156 183
135 158 185
136 161 187
125 154 175
136 159 181
134 159 181
121 147 175
133 158 183
138 159 186
129 155 178
131 158 182
136 161 183
129 155 181
129 154 176
120 147 172
129 156 179
135 160 184
134 161 186
133 158 183
132 159 182
134 159 183
137 162 184
134 161 183
130 157 179
127 156 173
132 155 182
132 160 183
133 159 183
136 160 181
131 158 178
132 158 180
131 158 178
133 159 180
120 147 169
135 163 181
137 162 184
130 156 179
134 160 183
132 160 184
133 162 179
137 163 183
139 165 184
133 160 181
131 157 175
132 161 178
132 157 178
129 157 175
127 157 172
135 164 183
130 158 174
121 150 165
125 151 174
135 162 183
133 161 179
130 158 176
122 153 168
135 160 180
130 160 173
133 161 177
125 155 166
131 162 172
133 162 180
129 159 171
139 160 180
123 152 163
135 163 180
134 161 177
130 157 176
127 155 169
135 162 179
133 163 181
127 154 168
129 159 178
129 159 175
126 154 168
124 154 168
127 154 171
141 168 185
137 163 182
136 164 183
131 159 173
124 155 170
131 157 174
136 164 182
133 160 177
134 161 178
133 162 177
137 165 183
135 162 181
136 163 181
139 167 185
126 158 170
140 165 186
143 170 188
134 162 180
130 161 174
143 168 189
131 161 174
138 164 183
142 166 185
131 159 178
137 163 180
135 164 180
145 169 192
135 163 179
138 163 183
145 156 181
148 160 186
149 161 186
144 153 177
142 151 175
148 161 187
142 149 172
140 145 168
147 160 185
144 153 177
143 152 176
148 162 188
144 154 177
145 153 177
144 159 185
145 153 177
144 154 180
142 155 181
142 147 170
147 158 184
145 150 174
146 156 181
138 139 160
135 142 166
146 160 187
143 152 177
141 147 172
144 154 178
142 150 175
148 155 178
145 156 180
146 161 186
142 150 175
143 147 169
139 153 181
144 154 178
142 149 174
147 156 180
143 153 177
141 149 175
138 142 166
142 150 173
127 133 155
134 139 162
141 148 173
142 147 171
138 146 171
142 154 180
144 159 187
143 150 173
141 151 177
141 149 174
143 152 178
139 153 179
135 139 165
140 151 177
140 146 171
136 148 175
133 136 161
142 149 173
139 152 179
140 154 181
142 154 180
138 148 174
140 151 176
139 152 179
139 152 179
143 159 187
140 152 177
133 145 172
141 157 184
135 145 169
136 149 175
137 152 180
138 146 171
136 147 173
135 154 183
141 156 183
139 150 177
137 149 176
133 147 175
140 153 181
139 153 180
144 157 184
137 153 183
131 145 173
133 148 174
142 158 187
141 157 186
133 148 177
135 153 181
135 149 176
134 149 176
137 152 180
139 150 177
131 141 168
135 151 181
136 148 174
140 161 189
130 143 171
125 140 169
132 145 173
133 149 176
126 142 172
138 149 174
129 146 177
128 143 173
131 147 178
133 148 178
133 148 176
135 152 180
133 153 183
138 153 179
133 150 177
130 148 175
130 150 180
139 159 188
138 158 189
136 151 179
136 152 179
137 157 187
143 159 187
127 143 174
137 160 189
132 150 176
129 148 177
134 153 184
136 155 187
137 156 187
125 145 178
137 160 192
129 146 178
133 152 181
128 147 177
131 149 181
142 161 190
128 151 178
132 152 183
129 150 184
128 147 176
127 148 178
130 148 180
130 150 184
125 146 177
135 156 185
131 152 184
128 148 177
128 145 177
124 147 178
128 148 179
129 151 182
143 163 193
129 150 179
126 145 177
137 158 190
137 156 186
132 155 188
127 151 183
138 159 186
135 152 183
124 144 178
134 154 186
134 153 180
132 151 183
129 150 182
126 147 178
132 154 186
133 154 187
135 155 185
128 148 179
125 146 175
133 153 184
130 150 182
123 145 173
137 162 190
133 155 182
131 154 184
125 146 177
138 158 188
123 144 178
125 150 181
124 148 182
139 161 192
126 148 177
120 143 175
130 153 185
133 157 183
128 152 183
135 158 186
131 154 185
142 162 191
134 155 184
137 159 186
123 150 173
137 160 191
126 147 177
121 145 174
130 152 177
125 146 177
137 162 187
133 157 187
124 149 174
134 158 184
130 153 180
128 152 180
137 163 189
127 152 179
133 155 182
128 153 177
134 156 183
142 164 196
136 162 188
122 147 172
132 157 188
133 157 185
135 159 185
137 161 189
137 161 188
129 153 185
132 157 180
134 155 184
129 153 175
130 158 181
131 157 180
131 156 182
134 158 185
122 152 172
133 158 179
136 162 188
133 157 184
135 161 184
138 163 186
137 161 189
132 158 183
133 157 185
134 161 184
127 157 174
126 153 171
129 157 173
133 160 182
137 163 185
122 150 168
138 163 184
126 154 173
128 155 174
132 157 178
122 154 172
125 152 177
125 152 173
136 159 181
135 160 181
135 162 183
127 154 173
127 156 173
133 159 181
133 160 181
127 154 173
130 158 175
132 158 177
139 164 186
130 159 178
127 156 174
128 155 175
126 156 170
126 154 173
123 152 166
128 156 177
124 152 170
124 154 168
120 148 162
136 163 185
133 163 181
131 158 174
132 159 176
135 160 181
141 167 187
134 162 182
135 163 181
144 167 191
138 164 184
131 159 177
135 161 180
128 156 173
130 158 177
125 156 170
126 156 174
135 162 181
141 166 187
134 160 180
137 166 182
130 159 175
130 157 175
129 159 173
136 161 181
126 156 168
137 163 182
130 159 172
133 161 179
125 154 170
144 168 189
139 164 184
134 161 180
140 166 186
138 162 180
133 161 176
135 162 184
130 160 175
128 158 175
130 159 176
136 164 183
129 159 174
137 163 179
132 162 176
139 165 186
132 161 178
136 165 180
145 169 191
124 156 168
141 169 182
140 168 185
139 146 169
146 155 180
143 157 182
145 155 179
146 157 181
145 158 183
143 149 172
146 154 177
145 155 181
144 157 184
141 147 171
142 154 180
146 154 177
144 154 180
142 149 174
140 149 173
147 162 188
144 151 174
143 148 172
145 157 181
143 148 172
148 159 184
142 153 178
142 152 177
145 154 180
146 158 185
146 154 177
144 152 175
145 155 180
146 157 182
139 145 170
140 146 169
146 159 184
138 144 166
142 148 170
141 152 177
142 147 170
142 151 177
135 140 165
144 154 178
140 148 174
137 145 169
144 157 186
143 154 180
141 152 178
140 149 173
134 143 168
141 143 166
142 155 181
135 144 170
129 137 163
143 158 183
139 148 175
144 158 184
146 156 181
136 146 172
134 140 163
139 146 170
137 147 170
139 154 181
145 157 183
141 152 178
144 157 182
132 138 162
143 158 185
135 143 168
144 157 183
133 144 170
139 147 172
136 149 174
134 148 176
138 154 180
136 147 174
133 146 172
144 161 189
126 137 165
145 158 184
144 154 178
138 150 177
145 160 186
141 154 182
144 163 191
133 147 177
140 157 186
135 145 171
141 157 186
135 144 170
135 146 171
145 160 188
135 149 177
138 147 172
138 152 179
134 151 182
137 150 177
137 154 181
134 151 180
136 156 188
128 144 173
131 148 176
137 154 185
139 155 184
142 160 188
136 151 180
139 156 183
129 151 182
134 151 179
138 153 181
131 149 179
140 160 186
132 147 175
134 148 178
137 150 178
139 157 186
140 153 182
135 152 181
140 157 183
131 149 179
132 149 178
138 155 184
143 158 188
132 150 180
137 154 184
138 158 188
136 155 187
129 145 174
139 158 189
130 141 167
131 151 184
129 145 175
134 154 185
130 150 181
118 137 164
133 153 184
138 158 188
126 145 173
135 156 186
125 143 175
128 151 184
129 148 178
123 144 176
130 146 173
127 146 174
124 143 174
139 161 195
120 140 173
130 152 181
130 152 183
128 147 176
131 150 178
136 155 184
133 154 181
126 144 176
123 143 177
128 150 185
123 144 177
122 141 172
132 151 182
123 143 176
135 155 185
137 155 184
136 155 185
136 156 185
132 154 185
132 155 188
130 151 180
124 147 175
122 144 176
131 153 185
128 152 183
131 151 181
123 145 173
137 160 188
133 153 184
126 147 175
126 150 179
131 151 180
133 153 183
134 157 188
130 152 183
135 158 188
124 143 170
128 150 178
134 158 188
137 157 187
131 153 179
128 150 179
135 157 185
134 157 186
123 150 176
134 156 187
126 150 180
131 153 184
133 154 179
133 157 183
133 155 187
133 155 182
133 156 190
130 152 176
124 150 181
130 153 182
141 162 191
135 158 185
134 158 185
136 158 188
131 156 182
134 158 185
139 162 188
137 160 189
139 163 190
132 158 183
139 164 188
131 153 183
133 157 185
138 162 186
130 154 181
130 155 179
136 157 183
126 148 173
132 154 179
120 145 171
132 156 184
120 150 172
132 159 180
131 156 184
136 158 185
135 160 186
140 163 187
124 148 174
135 160 184
127 153 177
132 157 182
135 160 183
131 155 181
131 159 180
135 158 185
135 162 185
125 152 174
135 161 182
139 163 187
138 165 187
128 154 180
134 160 182
128 154 175
127 152 175
130 155 177
127 150 171
137 163 187
132 161 177
124 149 172
140 164 187
124 152 169
138 162 188
133 157 182
132 160 178
128 153 174
140 168 187
138 165 188
135 163 183
129 158 173
136 162 185
126 153 173
124 152 170
132 158 175
130 159 176
137 162 180
129 157 174
124 152 166
121 149 163
137 163 183
138 163 183
128 157 174
127 153 171
123 152 170
131 159 175
119 151 164
132 159 177
129 157 173
124 153 169
129 158 174
129 160 175
134 161 177
132 160 178
132 161 177
126 153 167
136 162 180
122 151 163
132 162 178
132 160 178
132 159 180
120 153 162
131 160 176
135 162 179
132 162 179
137 165 183
128 156 171
133 161 177
133 162 178
126 156 172
139 164 182
130 160 174
140 166 186
138 164 184
119 151 163
141 165 187
142 168 188
139 164 185
132 160 176
136 162 184
125 159 169
132 162 176
127 156 175
131 161 176
138 165 183
140 167 189
135 163 180
139 164 185
137 163 185
141 168 186
138 165 184
140 166 186
147 159 184
151 165 190
143 156 181
140 150 174
146 156 183
142 155 182
144 152 177
150 162 186
146 157 182
150 158 182
148 160 185
143 153 178
144 154 180
145 159 186
141 153 178
140 149 174
141 151 177
146 155 180
138 152 179
141 152 178
135 144 168
146 157 181
141 149 174
141 152 177
145 154 179
142 152 179
141 153 178
146 159 184
138 143 165
144 158 185
146 159 185
138 150 176
143 154 179
138 149 176
141 154 179
138 144 168
144 158 185
148 161 187
142 153 179
138 148 173
136 146 172
140 153 178
150 167 193
146 157 182
139 148 174
139 149 175
143 155 180
142 151 176
143 157 184
139 149 174
141 151 175
140 148 172
146 159 187
144 158 185
139 146 171
141 153 177
143 159 185
138 149 175
144 157 184
138 142 165
131 147 175
143 157 183
137 151 176
143 158 186
137 151 178
128 138 163
145 154 179
141 157 185
142 158 185
133 149 177
138 154 184
143 159 186
136 146 172
144 162 189
136 153 179
134 151 177
139 154 182
138 152 178
141 157 185
141 152 177
145 160 187
145 159 185
135 151 180
133 149 177
130 145 173
134 151 180
134 150 178
135 140 166
143 161 189
143 160 187
135 151 179
135 151 178
139 157 186
140 154 181
141 155 183
141 160 186
139 157 187
135 144 172
143 163 192
139 155 183
141 158 188
135 152 183
138 158 187
140 159 186
137 156 185
136 152 180
131 140 167
130 149 179
138 157 184
140 159 189
133 155 187
132 150 180
132 146 174
141 160 189
139 157 186
130 149 180
133 155 186
135 156 186
136 151 180
137 155 186
135 150 181
125 144 174
133 153 186
120 136 171
125 145 177
128 148 181
134 154 184
141 160 189
131 151 182
137 156 185
132 154 188
128 147 177
124 143 175
140 159 189
140 162 190
136 156 186
122 141 177
131 147 178
137 157 186
131 150 180
135 151 181
137 156 186
133 152 181
133 154 186
129 149 179
133 154 185
124 145 179
132 153 186
138 159 188
119 141 171
131 152 180
137 157 187
141 162 191
130 150 182
128 150 180
131 154 184
134 154 186
131 155 188
135 157 190
132 153 185
133 152 183
124 144 174
134 154 181
123 147 178
121 142 177
127 150 183
129 149 178
130 151 182
129 150 181
135 156 185
133 156 185
130 151 181
132 156 187
128 151 182
131 149 178
141 164 193
128 152 180
124 147 174
132 155 186
127 149 180
124 149 184
127 150 181
138 161 190
123 147 177
132 155 184
136 158 184
123 145 175
123 145 176
138 160 189
131 153 182
131 153 180
133 151 182
122 144 173
126 147 177
132 157 184
123 149 175
135 159 186
137 158 185
127 150 180
124 147 175
133 158 185
129 152 182
138 161 190
126 150 181
129 153 181
135 160 187
131 155 182
129 151 178
129 154 181
139 161 190
131 154 180
128 154 180
137 161 187
129 153 183
135 159 186
118 142 168
139 166 190
133 159 183
134 158 183
129 155 182
131 154 184
128 154 176
137 162 185
144 166 194
136 160 186
138 161 188
121 148 172
134 159 183
133 156 180
133 156 182
132 159 182
130 157 177
122 150 174
126 154 175
132 154 178
126 153 174
137 163 187
138 162 190
138 161 187
131 157 179
129 154 176
140 163 186
144 168 190
136 161 184
130 156 182
129 155 176
137 162 187
131 158 177
125 153 173
134 157 178
134 158 180
137 161 185
129 157 178
131 158 179
138 164 186
130 157 177
141 163 186
122 152 163
137 162 185
138 161 182
135 162 182
131 160 177
126 155 174
134 159 176
138 163 189
136 162 184
131 159 174
124 155 175
129 156 179
135 160 187
135 161 181
131 157 177
143 169 191
125 154 173
135 162 181
130 158 173
124 150 168
127 154 171
135 161 182
137 164 181
134 159 181
137 164 184
133 159 179
136 163 185
128 156 174
134 162 181
126 156 172
133 159 178
141 167 188
132 161 176
137 164 181
138 165 184
138 165 184
122 155 166
132 158 176
119 150 162
140 166 185
131 162 176
135 163 180
137 164 181
131 159 179
124 155 168
136 162 181
131 158 172
131 158 175
134 163 178
137 164 185
133 161 178
131 161 175
135 163 180
135 163 179
136 163 184
133 161 178
130 159 174
139 165 184
142 169 188
133 160 176
139 166 181
124 155 167
136 162 181
144 155 180
146 158 184
146 158 184
145 158 184
142 154 179
151 164 190
142 151 175
143 155 181
145 161 186
141 149 172
150 162 188
144 155 181
142 151 176
140 146 170
138 151 175
147 162 189
141 148 174
147 158 183
138 145 169
143 150 174
141 150 177
146 157 181
141 148 173
146 158 184
143 151 175
142 150 173
140 150 175
138 146 171
142 152 177
142 151 176
141 149 173
140 147 172
149 164 191
140 151 178
143 154 179
140 152 178
137 145 169
138 150 177
140 152 178
142 152 178
138 141 163
134 145 172
144 154 180
140 149 175
142 149 174
144 155 181
147 166 196
142 149 172
137 149 175
134 141 166
141 149 172
141 149 177
138 142 166
140 155 181
144 153 176
132 143 170
140 153 178
137 150 177
135 149 175
145 160 186
143 156 183
133 142 166
141 154 180
136 149 176
136 146 170
140 155 180
141 160 189
141 149 177
147 159 187
139 154 182
136 151 179
133 147 176
138 151 177
135 147 172
146 158 184
143 159 188
147 164 191
138 156 184
135 147 175
144 158 184
147 162 189
141 155 183
140 151 177
136 152 179
148 167 196
135 149 176
130 149 178
137 153 180
133 152 184
137 157 187
137 150 179
138 155 180
145 164 191
142 155 183
139 157 184
140 158 187
141 160 191
132 147 175
142 159 187
143 156 182
135 149 176
136 155 187
137 156 187
128 143 174
135 152 182
135 149 176
148 168 196
128 142 171
131 148 177
138 156 186
135 154 185
136 152 182
131 147 178
135 153 184
143 161 190
138 157 185
141 161 190
135 153 183
137 155 184
138 156 184
138 158 189
124 141 172
139 160 190
136 151 180
129 148 180
138 157 185
131 151 184
132 152 183
134 156 189
137 156 186
126 146 174
134 154 187
123 141 171
125 148 179
132 147 174
127 145 174
135 155 185
140 160 191
138 159 188
134 155 186
126 146 178
131 152 185
135 157 188
128 150 184
133 153 183
130 152 181
138 159 191
133 151 179
129 149 181
131 154 187
125 145 176
134 159 188
128 143 171
124 144 178
137 156 188
121 145 177
123 142 173
136 153 182
134 158 187
139 157 186
135 155 186
127 148 177
135 153 181
142 161 192
133 154 184
134 156 186
133 149 179
129 153 184
137 159 188
126 149 184
132 150 178
128 152 181
137 159 188
132 151 180
131 153 186
136 159 187
125 146 175
124 150 182
134 157 185
130 151 178
130 152 178
139 162 191
134 155 188
135 158 188
124 144 174
132 155 181
133 154 183
131 155 182
133 155 184
126 149 179
139 162 189
129 155 184
131 154 183
130 152 183
123 146 174
125 147 177
140 164 191
132 156 184
133 154 183
128 151 177
132 154 182
126 149 178
132 157 186
142 164 192
130 155 180
140 164 192
134 157 188
124 150 175
127 149 179
136 160 190
136 157 183
130 156 181
139 162 190
131 158 182
141 165 190
130 154 183
132 158 184
137 160 189
135 160 181
137 161 188
133 158 186
129 155 179
131 157 180
137 163 188
129 155 184
132 158 186
134 161 184
131 155 182
132 156 180
130 156 180
122 151 171
134 159 186
130 154 181
126 154 176
134 160 184
139 163 190
139 162 189
128 156 176
138 163 188
132 157 183
140 167 191
132 158 183
133 157 182
128 157 177
134 159 182
136 162 184
137 162 186
136 159 186
129 156 180
141 165 188
120 148 168
128 155 177
139 162 191
136 161 185
138 162 181
134 157 182
139 164 186
140 165 189
126 151 175
133 163 179
140 164 185
136 160 181
131 157 179
133 160 182
124 156 168
135 160 182
135 163 184
129 157 175
123 155 169
132 159 176
130 157 176
141 166 189
131 155 176
131 157 177
126 154 173
121 151 169
135 163 183
134 159 179
132 160 176
138 163 182
136 162 180
134 161 179
132 162 176
136 164 183
130 159 176
133 161 180
137 163 183
127 158 174
136 164 183
128 154 171
142 168 189
131 157 176
138 164 184
143 168 192
134 161 181
140 164 187
135 161 181
136 162 179
134 162 180
140 166 184
137 165 183
136 164 184
132 158 177
134 163 179
139 167 184
128 160 173
132 163 180
137 163 186
142 166 188
135 163 180
131 161 177
143 168 189
126 157 170
142 168 188
143 167 190
136 165 180
133 162 178
135 163 179
130 157 172
134 163 181
142 152 176
148 157 181
146 158 182
146 158 183
143 152 177
140 150 176
140 150 174
141 150 175
147 160 186
143 145 169
143 158 185
141 154 181
141 151 176
143 152 176
149 157 181
142 152 177
138 147 172
141 151 176
144 160 189
140 154 180
142 154 180
145 158 183
134 139 165
141 151 175
148 159 185
144 150 174
143 149 174
137 146 171
136 142 168
146 159 184
142 153 179
146 152 176
147 156 181
143 150 173
142 159 186
150 163 188
139 149 174
138 151 177
148 161 187
143 156 180
145 154 180
144 156 182
140 147 171
139 148 173
137 141 164
145 159 186
143 156 181
140 156 184
139 146 169
139 148 174
148 163 190
141 152 178
141 155 180
144 159 186
135 143 169
138 153 179
139 148 173
140 155 181
138 152 180
141 160 190
135 145 171
132 144 172
135 146 173
142 157 184
137 145 168
138 150 177
138 152 180
142 150 174
135 155 180
144 160 189
140 155 179
138 154 182
139 152 180
140 151 177
134 147 173
144 160 188
144 159 187
141 152 178
137 152 180
137 150 179
145 159 186
131 146 174
140 155 183
144 157 183
134 151 182
138 152 178
141 156 183
141 157 186
141 160 189
143 159 187
132 147 174
129 141 168
143 161 189
129 144 172
140 155 183
138 157 185
126 144 175
132 149 178
147 164 191
134 149 177
132 151 182
132 149 180
137 156 185
142 160 190
137 158 186
137 154 183
136 149 178
132 150 179
139 158 190
136 153 184
129 147 176
138 159 190
133 151 177
131 148 175
139 152 180
139 158 189
138 158 189
134 148 176
132 153 182
129 146 175
130 148 177
132 149 178
135 156 187
136 155 184
132 151 182
140 157 185
130 149 176
130 146 175
127 146 178
134 153 185
139 159 187
138 156 186
132 149 178
133 153 183
142 160 190
136 154 183
139 160 190
126 143 175
126 148 174
136 156 184
133 156 185
124 145 179
129 147 177
141 159 187
125 145 178
130 150 180
126 147 179
131 151 185
131 154 184
139 160 191
127 148 177
125 146 175
128 149 182
129 150 181
137 158 189
129 152 185
123 140 173
131 152 182
130 153 181
129 152 188
127 150 184
144 163 192
126 151 177
133 154 185
135 157 189
132 153 186
125 147 178
122 146 179
128 147 178
138 159 189
135 156 187
127 149 181
124 149 178
124 148 178
127 153 186
130 154 182
129 151 180
121 146 175
133 154 186
132 155 187
128 154 183
131 155 187
136 159 187
147 167 196
134 158 187
127 150 179
127 152 180
133 157 188
132 153 181
134 157 182
135 159 188
129 151 182
133 155 180
137 161 189
120 145 174
136 158 184
137 158 187
132 156 186
136 158 183
136 158 189
134 158 187
137 160 186
128 154 178
135 160 187
135 158 187
136 159 187
132 157 184
133 159 184
136 160 184
128 150 178
136 157 185
129 153 182
132 156 181
126 152 180
135 155 180
122 150 171
124 149 174
123 151 174
139 162 190
134 155 181
127 153 184
136 158 183
129 157 179
132 154 184
135 162 187
142 166 192
126 151 178
131 158 180
137 161 184
141 164 192
139 164 190
130 156 182
134 159 184
127 152 174
132 155 177
139 163 189
131 156 178
133 159 181
135 161 180
132 157 184
140 164 189
128 153 174
129 157 180
142 165 191
135 159 182
127 154 175
136 160 186
133 159 182
141 166 189
129 153 178
126 154 174
130 156 177
131 155 181
130 156 177
134 160 181
128 157 177
136 163 183
131 159 180
138 162 185
125 153 175
131 159 177
135 163 182
141 164 188
141 167 189
133 158 183
125 158 171
133 157 179
136 164 184
127 154 173
134 160 181
137 160 181
134 159 180
137 165 185
132 160 177
146 170 193
139 164 187
135 161 181
134 160 182
131 158 177
138 164 183
136 163 181
132 159 177
135 161 182
133 160 179
138 165 187
137 166 183
129 157 175
134 162 180
128 159 177
121 154 164
130 161 178
128 157 174
132 159 180
138 165 183
132 158 175
134 163 182
145 169 192
133 157 177
138 165 183
132 159 175
135 162 180
133 161 179
135 162 182
140 166 187
134 161 179
137 165 182
131 161 177
136 162 181
144 168 192
145 171 192
143 170 189
137 165 185
149 172 200
140 165 180
130 161 177
134 162 181
131 160 176
139 163 186
130 158 174
145 169 193
141 150 175
148 161 186
147 157 182
142 153 178
144 154 178
145 155 180
147 157 181
144 159 185
144 154 179
145 154 180
146 156 181
141 152 176
147 160 185
144 155 180
143 153 180
144 154 179
145 154 177
146 155 180
146 156 182
139 152 175
143 152 177
143 152 177
138 151 176
145 155 181
146 155 181
144 161 188
139 150 178
143 152 177
143 152 178
145 155 180
141 153 177
142 149 173
137 147 173
136 142 168
151 166 191
140 152 178
143 151 176
138 149 175
142 151 176
141 155 183
143 154 180
145 153 178
144 157 183
141 154 182
146 155 179
146 162 188
142 149 174
141 156 182
140 152 179
138 149 175
139 153 177
136 146 170
137 149 176
148 162 188
139 151 176
145 158 184
139 146 172
144 158 186
149 160 185
143 156 183
140 158 186
143 160 187
141 153 180
150 167 195
140 155 183
141 155 180
142 155 182
140 151 178
148 164 191
142 153 178
137 141 166
141 158 188
140 154 181
145 160 187
138 149 175
136 149 178
139 154 182
137 152 179
141 155 182
144 157 184
138 153 180
136 152 181
138 153 181
137 149 176
132 150 179
142 159 187
135 149 175
141 151 177
138 154 182
139 154 183
142 160 189
143 162 191
144 163 192
142 158 186
142 157 185
135 156 184
137 149 176
141 159 189
139 154 181
142 157 185
128 142 169
138 154 184
135 148 174
139 156 185
138 155 183
141 158 187
137 154 183
133 146 176
136 156 187
131 151 182
141 164 195
139 159 189
137 158 188
129 144 174
133 151 179
140 160 189
136 154 185
139 158 187
133 152 181
141 158 185
134 150 180
133 154 186
140 153 182
132 151 182
135 153 183
133 155 185
136 153 183
140 160 189
137 154 185
139 159 186
133 155 190
126 145 177
129 150 181
139 159 190
131 151 183
122 144 178
133 153 184
138 157 186
134 153 182
130 151 183
131 154 183
130 151 183
133 155 186
134 153 183
126 147 176
137 159 186
137 156 183
136 158 191
127 149 181
135 155 188
130 150 182
135 157 187
136 159 187
128 147 178
131 150 181
138 159 190
125 145 176
138 158 187
126 148 183
130 152 182
128 150 183
131 155 186
134 154 184
135 156 183
138 157 187
135 156 183
130 151 179
140 163 191
123 145 177
136 156 186
134 156 188
137 159 188
127 146 175
131 152 182
123 147 181
129 152 183
121 147 179
135 158 187
134 157 189
127 150 180
131 154 186
135 160 193
139 161 192
127 152 183
134 159 189
132 156 189
131 153 185
128 149 177
130 156 184
122 143 171
129 153 182
135 157 184
139 163 190
127 150 179
136 159 188
130 154 181
138 160 190
136 157 186
136 157 186
134 156 183
136 161 190
121 146 178
132 156 181
123 147 177
126 152 179
134 158 184
120 146 176
126 150 182
133 159 185
137 160 191
133 156 186
136 160 187
135 161 186
125 150 177
137 161 188
138 161 192
142 163 189
129 156 185
132 160 188
138 163 190
138 162 188
134 158 185
128 153 176
138 165 188
141 165 192
136 160 186
127 152 174
133 156 179
136 159 185
134 161 186
138 161 183
131 156 183
133 158 184
142 167 192
127 154 178
134 159 182
120 151 168
136 162 184
134 162 183
138 163 187
128 155 176
128 154 175
142 168 192
137 160 189
140 165 188
137 160 185
132 158 182
132 158 180
130 154 172
133 159 183
135 159 188
135 160 186
141 168 191
134 160 183
131 155 176
127 157 176
134 158 183
127 153 175
134 158 185
136 162 185
140 166 185
127 154 173
131 158 176
123 151 166
129 154 174
143 169 192
129 157 175
138 163 184
135 158 181
122 155 168
139 165 187
124 153 171
138 162 182
131 159 178
134 161 182
121 152 165
128 155 174
131 159 176
121 151 166
135 159 182
135 164 180
138 162 184
140 165 184
137 165 181
130 158 177
128 155 171
132 158 178
131 158 177
130 160 176
132 158 179
138 163 182
135 162 182
126 155 172
139 166 187
131 158 174
137 160 180
129 158 175
130 158 175
130 161 175
136 161 181
135 164 183
137 164 181
130 159 173
147 169 195
134 161 177
132 160 174
138 166 186
134 162 181
139 167 185
136 164 181
140 166 184
135 163 182
141 163 191
140 167 185
137 163 184
135 163 180
134 162 177
133 161 176
141 168 188
138 166 186
143 155 182
146 161 188
145 156 182
147 159 185
143 159 187
149 162 187
148 160 185
144 150 174
147 160 185
139 142 165
142 150 178
138 142 166
141 154 181
143 149 172
147 160 186
142 150 173
138 150 175
143 156 181
144 158 183
146 159 186
145 155 178
142 152 176
137 146 172
150 163 189
142 153 180
141 148 172
141 148 171
146 159 184
141 148 173
136 140 165
143 152 177
144 155 180
141 155 181
139 149 173
140 153 179
138 143 167
146 161 188
143 158 184
148 158 183
145 158 185
140 151 176
141 153 180
147 160 185
139 148 172
137 148 173
140 149 174
147 162 189
138 151 176
144 158 186
143 152 178
141 150 176
144 161 191
138 154 175
141 152 177
141 156 183
142 155 180
136 145 169
136 152 180
139 148 174
139 150 176
142 157 185
140 149 174
133 146 172
142 156 184
137 152 179
141 154 182
138 153 181
141 157 187
140 155 181
142 159 185
145 157 183
148 166 195
141 157 182
135 150 178
144 155 183
139 158 184
131 138 165
143 160 188
137 154 183
142 156 182
138 155 184
140 155 184
139 147 173
140 154 182
138 151 180
145 163 191
143 158 184
140 154 179
142 160 190
135 148 177
142 163 194
134 152 182
142 159 187
136 154 184
145 159 186
135 157 185
138 154 181
140 158 186
139 151 179
139 155 181
138 159 191
143 160 190
133 152 183
138 154 184
146 163 191
139 156 183
135 155 187
134 150 178
138 155 182
137 154 182
140 160 189
141 160 190
139 157 187
138 159 190
139 161 193
136 155 182
142 158 185
137 155 186
132 152 183
139 159 188
134 154 186
137 155 184
138 157 185
141 158 187
137 157 183
132 150 181
138 159 192
130 150 180
134 155 185
124 142 174
137 154 183
140 157 186
123 144 177
133 153 182
139 158 188
127 139 171
127 141 170
134 152 183
131 152 183
137 158 189
122 142 173
128 149 181
139 159 190
134 156 189
132 149 177
130 151 179
135 158 188
143 163 192
129 150 182
138 159 190
130 153 185
127 145 175
132 152 184
124 145 177
135 158 191
132 153 181
130 153 182
131 150 181
134 157 188
132 153 182
131 153 185
136 157 188
132 156 185
143 164 191
129 152 185
145 165 194
141 161 187
129 152 183
132 155 183
132 153 182
139 162 193
140 162 193
135 157 186
131 156 186
135 156 187
132 151 179
127 150 182
131 154 183
118 140 174
133 158 191
141 162 193
138 159 187
130 152 183
138 161 192
136 160 188
129 153 183
137 158 189
122 146 178
136 158 185
132 153 181
141 163 192
138 160 185
131 155 186
136 160 186
134 157 187
132 157 189
144 166 195
132 155 182
138 160 190
137 161 186
139 162 190
133 155 182
126 149 177
124 145 172
129 155 182
134 157 189
131 154 180
132 156 182
137 161 188
132 158 185
143 166 191
134 159 187
135 157 184
144 167 192
133 155 181
135 158 187
129 154 181
139 162 188
127 153 177
142 167 191
130 155 180
146 168 194
135 159 184
135 156 185
136 161 186
136 160 187
137 165 185
143 166 192
145 169 193
127 155 178
125 151 173
128 154 174
135 159 184
130 156 183
136 158 185
126 153 172
127 153 173
130 155 181
129 155 183
138 162 187
136 157 183
138 163 188
139 165 188
134 160 182
141 166 189
137 163 187
143 168 191
132 156 180
129 155 177
141 164 188
136 161 188
145 168 191
132 159 180
140 164 187
137 161 183
144 167 194
128 158 178
133 159 178
141 167 191
138 164 184
127 156 172
142 166 189
141 166 189
133 159 183
137 163 184
139 166 185
135 162 184
134 160 181
135 161 183
131 157 179
126 156 171
137 163 184
137 163 183
136 161 182
118 149 161
130 157 177
138 165 185
137 164 185
129 158 178
128 157 174
132 160 177
137 162 182
133 159 177
128 155 176
133 160 179
136 161 184
136 166 180
136 163 185
134 163 178
139 162 183
139 166 187
125 155 171
130 158 180
140 166 187
135 159 179
137 164 183
126 156 172
142 169 188
134 160 178
139 165 186
135 160 180
130 158 177
134 162 178
137 164 184
131 159 176
147 171 193
132 159 179
136 164 184
144 169 188
138 165 185
132 159 178
145 169 191
137 163 182
145 168 192
140 167 187
131 161 176
138 166 185
141 168 188
138 165 181
133 160 176
140 150 174
142 147 170
144 158 185
143 154 180
145 155 181
147 163 190
147 160 186
144 158 185
146 164 190
146 158 184
138 146 170
141 153 178
139 147 173
141 147 170
142 149 173
144 155 179
147 161 187
140 148 173
137 140 162
144 153 177
143 152 176
140 149 174
147 157 183
143 153 180
143 156 181
139 144 166
145 155 180
145 160 186
145 156 182
146 158 184
141 151 177
147 162 190
141 151 177
143 155 179
146 160 186
144 157 182
139 145 169
143 155 180
138 145 169
142 152 177
136 143 168
146 160 185
141 150 174
137 151 176
141 156 182
143 150 174
144 153 177
148 158 184
141 159 187
146 159 185
139 154 181
140 157 184
145 161 190
141 151 176
134 145 170
142 159 187
140 151 176
139 156 184
141 156 181
148 168 196
136 153 181
138 155 184
137 154 181
138 153 179
139 154 180
137 150 179
145 158 183
141 157 184
140 151 178
139 154 181
136 150 178
136 154 184
140 157 185
134 153 182
142 156 182
147 162 188
145 161 187
136 152 180
137 153 181
139 152 178
138 153 181
134 151 176
141 158 187
129 147 175
139 156 185
138 152 178
142 156 185
141 161 189
140 158 186
146 160 187
143 160 189
142 158 185
139 157 187
138 156 186
146 164 190
138 157 188
136 153 182
137 154 185
134 148 176
139 156 182
140 157 185
135 152 183
148 160 186
128 145 175
128 147 181
139 155 184
141 159 188
133 151 178
132 147 177
140 157 184
140 159 190
146 166 196
135 151 180
135 155 187
128 148 180
135 155 188
133 150 181
135 150 179
139 159 189
133 152 180
137 157 187
139 158 187
137 161 192
140 160 190
142 161 190
132 149 179
127 148 179
133 152 183
141 162 194
134 153 183
126 146 180
135 155 186
137 157 184
129 147 177
131 153 183
139 158 189
146 160 187
145 164 192
134 154 182
138 158 188
143 165 197
134 155 186
131 151 180
139 161 191
134 157 189
135 154 188
136 155 186
133 151 179
135 154 183
129 149 180
137 155 186
136 156 185
138 158 187
129 150 183
130 148 177
137 155 182
138 158 188
135 158 189
133 158 187
139 163 190
130 150 178
134 155 186
137 159 192
130 153 183
133 156 186
126 148 179
140 161 191
142 162 190
130 151 181
133 156 187
132 155 185
133 158 186
133 155 182
135 157 186
139 159 190
135 158 189
140 161 188
137 160 189
137 160 188
140 166 193
134 156 188
127 152 180
134 157 186
132 158 185
129 152 184
131 153 183
142 164 193
132 154 184
130 152 180
133 156 185
131 156 181
131 155 186
138 158 190
134 156 187
136 160 187
138 161 190
134 154 183
129 151 179
136 159 183
126 151 181
143 165 190
132 153 181
127 151 179
136 158 185
128 151 179
136 159 186
133 157 184
134 158 183
143 165 191
131 157 186
132 158 184
131 158 181
136 158 185
125 151 174
128 151 181
133 157 181
138 161 188
136 160 186
130 154 187
137 158 182
133 157 184
132 156 181
140 163 189
127 153 176
142 166 192
140 162 188
141 164 190
133 157 183
142 166 191
144 168 194
135 157 186
143 166 196
139 163 188
140 163 187
139 164 190
135 159 182
134 156 180
130 155 179
132 159 182
129 155 183
139 164 186
139 165 189
139 163 189
144 167 195
130 157 177
139 162 187
142 166 188
131 158 180
128 154 181
139 165 187
140 165 189
137 160 187
128 158 179
123 154 177
135 157 181
129 155 177
134 157 179
132 159 180
134 159 182
130 155 175
131 159 179
131 157 178
137 159 184
140 167 186
130 158 179
136 163 183
132 159 179
133 160 177
135 163 183
126 154 172
146 170 195
134 161 180
137 161 184
139 164 189
134 159 179
139 164 188
126 156 174
145 169 194
131 159 180
131 161 177
131 157 176
133 160 182
140 167 185
137 163 183
131 159 176
136 163 185
138 165 184
130 157 176
134 161 181
140 166 187
132 157 176
132 158 178
132 159 178
133 158 178
138 162 184
135 161 184
133 161 179
137 163 184
133 161 179
140 165 186
135 162 183
137 163 185
140 164 186
140 167 186
134 161 180
135 164 184
134 161 180
134 161 180
132 161 180
135 162 180
137 164 181
136 162 183
138 165 182
139 165 187
137 165 184
137 164 184
138 163 184
144 170 191
142 167 189
146 170 194
151 164 188
146 161 188
150 158 183
139 152 179
143 151 175
142 150 173
144 155 182
142 156 183
145 160 188
145 153 177
142 152 177
143 154 179
149 157 182
151 165 190
149 162 187
145 154 179
146 161 188
141 149 175
146 158 183
137 151 177
146 161 188
140 146 169
142 154 179
140 150 176
149 163 190
149 159 183
140 157 185
149 163 190
150 162 189
138 149 174
145 156 182
146 161 186
141 157 184
143 158 186
142 155 182
147 159 186
141 156 184
143 154 178
141 151 176
134 147 172
141 150 176
141 154 180
145 158 185
144 160 188
142 159 186
147 157 183
143 159 184
138 148 173
146 161 187
144 156 182
144 158 185
149 166 194
140 154 180
134 142 168
147 164 192
149 165 190
140 152 178
138 148 176
140 154 183
139 154 181
139 150 177
140 154 181
142 156 184
143 161 188
142 156 182
135 152 180
149 162 188
142 155 182
144 154 179
142 158 186
136 152 181
142 160 190
138 156 183
133 149 175
140 154 181
144 161 189
145 161 187
141 156 184
141 156 182
133 147 175
145 159 185
143 161 190
137 153 181
136 152 180
134 150 179
141 159 189
139 153 181
141 158 185
138 157 187
134 152 181
132 146 175
134 145 172
142 158 185
137 156 185
131 144 174
139 157 186
141 160 187
140 159 188
137 154 185
135 152 180
129 147 176
135 152 180
141 158 185
144 161 190
141 156 184
131 151 180
129 149 180
136 157 187
134 152 182
129 149 178
139 158 189
135 155 186
142 160 190
145 162 189
134 156 189
139 158 188
135 155 185
142 163 190
134 153 182
129 151 184
138 157 185
137 156 186
141 159 189
124 142 170
137 152 181
136 154 185
138 157 184
137 159 189
145 163 190
136 156 188
142 163 194
131 148 181
132 154 183
136 157 188
128 150 177
138 158 188
129 150 184
138 159 191
126 146 177
136 155 186
138 160 194
138 161 191
131 151 183
135 155 183
132 150 179
137 160 194
136 155 183
139 161 192
137 160 191
136 158 186
134 154 183
141 162 194
136 158 188
133 153 186
134 155 184
138 160 190
140 163 188
140 161 190
134 156 185
135 156 187
134 153 183
138 159 189
137 158 186
128 152 179
135 155 185
131 155 186
131 154 182
132 150 177
136 157 189
129 150 179
138 159 187
126 150 177
130 152 183
138 161 193
131 150 179
134 155 183
128 151 180
137 157 186
143 163 190
140 161 189
123 145 174
133 155 184
137 156 185
135 158 186
132 152 183
130 152 178
136 159 187
137 161 187
132 155 183
136 159 189
134 156 183
134 157 182
135 157 186
133 156 183
134 154 180
129 154 182
140 162 191
133 155 180
141 165 189
136 158 187
137 160 185
133 158 183
133 157 182
131 157 181
130 155 180
136 162 187
137 160 189
132 158 186
126 148 182
139 162 190
133 157 185
137 160 187
126 152 179
132 155 187
143 167 192
133 157 185
133 157 186
125 150 174
137 162 190
144 167 193
135 158 184
138 162 188
131 155 183
135 161 186
138 162 192
132 158 183
126 154 182
140 163 191
137 162 187
132 159 181
134 161 186
138 162 185
137 162 189
139 164 190
136 160 187
136 159 185
139 162 190
137 163 188
135 160 183
140 165 191
135 159 185
138 164 190
129 157 179
139 164 191
126 151 179
139 164 185
134 159 182
131 160 177
139 164 187
143 169 191
135 159 181
129 155 177
134 162 181
128 155 179
133 159 181
131 157 180
133 159 181
129 154 176
137 162 185
134 159 185
142 165 186
133 158 183
136 163 182
143 164 187
138 163 184
126 155 173
132 159 180
136 161 181
146 170 194
137 161 183
132 158 178
133 159 181
135 161 180
136 163 183
135 163 179
133 157 177
130 158 177
139 164 185
138 163 188
137 163 183
132 160 180
130 158 178
131 154 177
138 164 184
132 160 177
135 162 178
135 162 180
138 165 186
130 158 176
128 158 171
138 166 186
135 161 184
135 162 182
139 165 185
130 157 172
130 159 175
135 165 184
134 162 178
136 161 182
128 157 171
136 163 182
138 164 185
136 163 181
147 170 194
140 165 184
132 160 176
138 165 183
145 168 192
133 160 177
138 163 183
137 163 183
135 162 182
137 163 182
140 165 187
140 166 186
132 158 175
136 162 184
145 170 193
135 162 182
134 162 181
149 163 190
145 153 178
146 162 188
152 169 195
143 149 173
146 162 190
143 156 183
150 161 186
146 159 185
139 150 177
143 153 179
151 166 192
146 157 181
139 143 167
144 157 184
138 147 171
140 156 181
146 152 177
144 158 185
143 153 178
138 148 172
147 164 190
145 158 185
145 154 182
142 153 179
143 156 180
144 157 184
145 160 185
145 155 181
144 158 185
142 151 175
146 154 180
146 155 180
145 161 189
144 157 182
141 152 179
148 160 186
135 148 173
138 149 174
144 152 177
139 154 181
143 156 183
145 156 181
140 153 178
142 149 174
144 159 186
138 147 172
137 153 179
136 149 176
148 166 192
137 155 184
145 158 184
139 146 171
138 152 180
139 155 181
144 158 186
140 154 180
143 155 182
143 154 181
146 160 186
139 155 184
137 155 181
144 163 192
144 157 185
142 160 191
146 162 189
143 157 184
145 161 189
144 162 189
137 153 182
133 148 177
131 142 168
143 159 184
142 156 184
140 157 186
143 159 186
143 158 186
145 162 191
140 155 183
131 144 172
140 158 188
138 156 186
136 152 181
150 164 190
142 156 183
141 155 185
144 163 192
141 162 192
139 159 190
139 158 186
137 157 185
138 150 177
142 163 194
141 159 187
137 152 180
139 158 186
144 163 193
140 158 184
139 159 190
132 150 178
137 156 188
143 159 185
142 160 189
137 153 182
141 156 182
136 151 181
137 154 184
136 157 186
142 160 190
143 158 186
136 153 183
137 156 185
132 155 189
141 160 190
134 155 183
135 151 181
137 155 184
130 150 182
135 151 182
130 149 177
141 162 192
130 145 175
135 155 184
142 161 191
134 155 187
134 152 180
135 151 181
128 149 178
136 156 187
141 161 192
135 152 181
136 153 179
134 154 184
142 163 192
122 139 168
143 163 192
142 164 194
138 158 191
139 158 188
133 152 181
128 150 183
135 155 180
141 163 195
145 166 197
135 155 186
134 154 183
134 156 186
131 150 181
138 158 187
136 156 185
134 155 185
140 160 189
136 154 184
135 157 186
137 157 186
138 158 186
144 165 195
135 158 190
140 161 189
138 158 188
134 155 185
134 155 188
123 146 175
135 155 185
131 155 186
136 157 186
134 157 186
135 154 182
134 155 184
138 162 189
137 159 190
138 160 189
129 153 183
131 156 186
142 162 192
134 158 184
144 165 194
139 162 192
130 152 180
135 157 184
130 152 181
130 149 175
138 160 187
126 148 181
134 156 187
130 153 186
137 160 189
144 166 195
134 158 180
129 154 183
137 163 192
135 159 189
144 165 194
130 154 181
137 160 190
128 151 179
144 165 194
136 158 188
136 161 190
136 160 188
137 157 186
137 158 186
126 151 177
135 158 188
129 155 179
133 157 187
136 159 186
130 156 184
136 159 186
135 160 188
132 155 181
138 161 188
133 155 184
141 164 192
138 163 187
141 164 189
139 160 188
136 159 188
135 158 184
135 160 185
137 161 189
136 159 185
124 148 174
132 157 186
131 155 181
123 151 178
132 158 185
138 164 191
131 156 182
135 159 186
134 158 185
141 166 192
129 155 180
133 155 183
134 157 184
134 162 183
127 153 177
132 159 184
131 157 183
142 165 192
143 167 192
129 157 178
140 163 192
127 154 176
141 165 190
135 160 185
129 153 181
137 160 183
134 159 187
138 163 187
131 157 180
130 157 178
140 164 186
130 157 181
135 160 183
135 160 186
139 163 191
127 154 175
139 163 188
132 156 178
128 156 175
143 167 194
139 164 188
139 166 191
130 156 180
129 154 180
124 151 173
132 160 179
136 164 186
141 168 188
132 158 180
134 159 180
133 159 184
139 163 185
135 162 178
128 154 175
135 162 180
139 166 187
135 162 182
138 162 185
145 170 192
141 164 190
138 163 186
135 160 185
134 160 182
147 172 192
133 159 183
138 162 182
138 163 184
129 158 178
131 160 180
134 161 183
131 159 175
129 158 173
136 161 185
129 158 175
138 163 183
129 156 173
130 160 175
135 160 180
132 160 177
128 157 174
134 159 178
136 161 180
133 161 180
129 158 176
141 166 188
145 168 189
138 164 183
148 172 195
146 171 192
135 164 183
138 164 185
143 167 191
137 164 184
136 163 184
135 164 180
138 164 183
139 165 184
137 164 184
139 151 177
143 153 177
144 148 172
148 159 184
141 155 183
140 151 178
151 160 184
146 160 187
142 154 180
148 166 193
144 157 184
146 161 187
143 155 180
150 160 185
146 161 187
149 159 183
136 148 173
147 158 182
142 155 181
137 140 162
143 155 183
145 157 182
151 166 193
141 151 176
149 162 190
143 156 181
137 151 178
145 154 178
141 151 174
141 152 177
139 154 182
147 156 181
148 165 193
145 155 181
142 158 187
149 163 187
144 154 179
150 167 194
142 157 185
144 158 184
145 161 187
146 162 190
147 162 188
142 155 183
150 166 193
148 162 188
136 145 172
140 152 179
144 156 181
146 161 188
143 162 192
141 154 182
139 149 176
142 158 185
137 149 177
142 155 181
141 157 187
140 156 183
143 158 186
147 162 188
137 149 175
148 162 189
141 154 181
146 160 187
142 159 189
144 159 185
145 159 185
139 154 183
144 159 186
143 155 182
141 152 178
140 155 184
133 148 179
146 161 190
140 159 191
144 158 185
143 164 193
139 157 183
126 139 166
140 158 188
136 151 176
142 162 188
135 154 185
140 157 185
137 153 180
141 157 186
143 164 195
142 161 191
147 165 194
145 162 190
135 154 181
146 165 193
134 151 181
138 153 180
145 163 190
139 157 189
137 153 181
139 157 185
132 151 182
130 144 170
148 166 192
142 160 190
139 157 183
143 161 190
144 160 189
142 158 183
138 156 187
136 155 185
135 151 178
134 152 184
143 161 190
145 165 192
139 155 182
142 158 188
138 154 184
144 159 186
141 164 195
136 157 188
139 162 195
137 155 185
133 147 175
133 151 181
146 167 197
129 153 185
136 152 180
136 155 184
144 163 193
141 164 194
139 157 184
147 169 196
138 159 190
137 158 189
131 153 183
139 158 187
135 152 180
139 160 192
137 156 187
139 161 191
136 158 191
119 138 167
142 164 194
130 151 185
128 148 176
125 145 175
133 150 179
137 157 185
139 157 188
136 158 187
138 159 189
139 161 192
134 158 184
134 156 188
130 147 178
125 141 172
131 152 182
137 160 191
142 162 191
133 156 188
140 159 189
136 157 187
136 157 186
131 154 181
132 154 183
127 150 180
137 156 187
133 156 182
132 154 182
128 151 185
138 160 191
132 152 178
133 155 181
140 158 187
138 160 190
136 159 189
138 160 190
137 160 187
133 154 179
134 154 182
130 152 180
126 148 177
134 155 184
134 156 185
142 161 190
141 162 191
132 156 187
141 161 191
131 154 185
127 151 184
135 156 186
138 161 188
140 163 191
147 168 196
135 156 185
120 147 175
130 152 181
133 157 187
139 160 191
139 163 190
127 152 180
134 157 183
128 152 177
139 163 192
143 167 193
145 167 197
135 157 188
129 153 179
139 163 194
139 162 190
138 163 191
139 163 189
133 158 188
135 161 190
133 158 185
139 161 187
135 160 184
145 165 194
135 158 187
138 162 189
135 160 185
139 164 190
132 156 182
144 169 193
135 158 187
138 161 188
130 154 184
136 161 186
137 162 188
131 155 181
128 156 179
132 159 182
134 160 183
130 155 179
122 149 172
142 164 191
139 163 189
143 167 193
136 160 187
137 159 188
140 164 191
129 154 176
140 163 190
142 166 191
134 161 184
133 156 181
128 156 180
135 160 185
139 163 186
132 157 181
141 165 193
132 158 179
135 159 187
134 160 182
132 154 178
143 168 192
135 161 184
138 163 186
129 156 175
128 155 176
129 158 178
135 162 183
142 165 190
136 161 183
131 159 178
138 163 189
131 157 181
136 163 185
135 161 183
135 160 186
140 167 187
143 167 195
148 171 195
144 168 190
142 168 188
137 163 190
137 162 181
133 159 181
134 156 178
136 163 183
137 161 184
137 163 185
132 158 178
138 163 184
130 159 176
138 163 185
137 165 185
132 160 177
139 164 188
130 156 177
148 171 194
136 162 184
141 165 188
135 160 183
136 162 183
142 168 187
136 161 183
137 164 184
141 165 187
140 166 187
133 159 179
132 162 177
133 160 179
143 169 189
142 167 191
136 162 180
138 163 184
128 156 175
132 160 177
143 166 190
135 163 182
143 168 189
136 163 181
146 170 192
135 163 179
132 161 182
134 162 182
142 165 188
138 163 183
147 171 192
135 162 181
140 165 189
152 162 187
149 163 189
147 160 186
144 158 185
149 162 188
148 164 191
145 156 182
145 162 189
147 163 189
149 161 187
143 150 174
144 155 181
144 154 179
146 162 188
143 157 185
146 159 186
151 170 198
144 158 184
143 154 181
145 155 180
147 161 186
145 157 183
143 157 183
142 155 182
142 151 174
149 159 184
143 155 180
148 162 189
147 156 181
143 157 186
146 161 188
145 155 180
140 151 177
143 154 178
145 157 182
142 154 179
140 152 178
141 152 181
137 151 179
146 157 182
146 154 178
144 158 186
142 153 179
145 158 185
148 164 190
146 162 189
143 156 182
147 163 189
137 150 176
143 159 184
148 165 193
140 154 182
147 165 192
144 160 189
149 162 188
140 156 182
136 150 173
140 153 180
147 164 193
145 159 186
144 161 188
144 160 187
147 162 189
141 158 186
137 150 178
144 160 189
143 164 193
143 159 187
148 165 193
148 166 195
137 156 185
143 159 185
141 150 174
143 163 191
144 159 187
138 151 177
143 159 188
140 160 189
135 146 173
141 156 183
140 158 187
137 155 184
137 151 179
144 159 186
140 156 187
137 155 183
143 161 189
147 164 194
145 163 191
142 158 184
137 151 180
137 154 182
145 162 190
141 158 187
144 162 190
135 151 180
144 161 189
141 158 185
143 161 190
142 163 193
134 150 179
139 157 187
132 150 182
131 146 177
138 156 186
140 158 187
137 151 180
135 156 184
131 148 179
139 162 189
146 167 197
139 153 182
142 158 188
132 155 187
136 153 182
139 160 186
145 165 194
133 153 184
134 152 182
141 163 194
134 149 176
136 158 187
135 155 186
141 161 191
138 152 182
130 150 182
130 151 181
134 156 189
137 157 186
141 161 190
136 157 190
141 159 188
141 162 194
132 153 182
132 151 179
134 156 183
138 157 188
127 145 175
138 159 190
138 158 185
131 150 180
130 152 187
135 157 186
135 157 188
140 162 191
137 159 187
137 160 190
139 160 191
135 158 188
130 148 179
128 149 180
132 152 186
139 159 185
127 150 184
135 158 185
136 157 187
140 162 191
134 156 189
135 157 186
134 155 184
136 158 187
131 153 183
139 156 188
133 153 186
129 152 178
136 157 187
138 158 188
132 152 184
139 156 184
133 155 182
135 158 187
139 160 189
140 160 187
129 153 183
132 154 182
133 155 185
133 156 188
133 155 186
138 162 188
143 164 193
129 151 180
134 156 187
133 154 183
136 158 185
142 164 196
131 155 185
133 156 184
136 156 185
140 165 192
136 159 185
142 165 195
131 153 183
132 154 186
138 160 191
128 152 177
142 165 192
137 160 188
134 157 183
138 160 186
136 158 183
139 161 189
137 161 188
137 160 187
140 162 191
137 160 189
132 157 181
135 158 187
143 165 193
139 162 190
140 162 190
133 155 182
144 166 195
137 163 188
139 162 188
135 158 187
131 156 184
136 160 185
140 164 189
141 164 188
130 154 185
139 162 185
144 165 194
143 165 194
141 165 190
130 157 183
135 159 187
139 165 189
140 164 192
137 161 186
140 164 191
144 169 194
143 168 192
138 162 184
146 168 195
135 159 183
140 166 191
137 163 186
136 159 185
139 163 188
142 166 195
129 156 177
143 166 193
137 162 185
134 159 181
143 169 191
142 166 190
134 157 185
138 160 188
140 166 192
129 153 176
134 160 181
133 158 184
138 161 182
145 170 195
137 162 187
141 165 188
141 166 190
140 164 186
137 162 185
129 157 180
138 163 185
134 162 184
134 158 183
134 157 181
143 166 191
128 156 176
130 157 178
134 160 182
136 161 186
132 158 178
136 163 190
125 152 170
139 163 187
135 162 181
132 159 182
132 158 180
139 164 186
142 167 191
142 169 187
144 169 192
140 162 183
125 153 172
134 161 182
128 156 173
136 161 183
139 161 185
143 165 190
129 159 176
138 162 186
137 162 186
132 158 180
143 166 191
134 161 183
137 164 184
140 166 186
136 164 183
135 161 181
138 164 182
142 168 188
140 166 186
127 159 172
135 163 182
134 159 179
137 164 183
141 166 187
141 167 189
135 163 183
136 163 183
147 171 195
130 158 174
141 166 190
149 170 195
142 166 188
139 166 183
139 166 185
137 165 184
138 162 183
130 156 180
144 169 193
142 166 191
141 148 171
143 156 183
144 158 184
148 161 187
148 162 188
149 160 184
145 158 182
148 160 185
142 151 176
143 153 178
148 160 185
148 160 185
143 153 178
143 159 185
146 157 183
144 159 186
148 160 186
144 159 186
144 155 180
146 161 187
142 153 180
144 161 190
142 148 173
141 150 175
143 154 180
149 163 190
147 156 181
143 157 184
150 166 192
140 153 182
144 157 183
143 152 176
149 166 193
136 147 173
137 153 181
144 153 178
151 167 193
143 154 181
143 156 182
143 162 191
142 156 184
147 162 189
139 154 183
143 155 182
144 160 188
140 154 185
148 162 191
141 156 181
141 158 186
146 164 190
140 154 181
142 151 175
143 156 184
140 151 178
139 152 180
141 154 180
141 155 180
139 156 185
139 149 176
142 157 184
146 160 185
145 162 190
138 155 182
145 158 185
138 152 181
142 156 182
144 161 188
146 167 195
147 161 188
138 154 185
131 148 174
134 150 180
138 152 177
141 157 186
140 156 184
147 166 192
141 153 181
140 156 185
146 163 190
145 160 185
141 158 185
140 162 188
137 152 180
140 159 190
141 160 190
143 162 191
141 160 189
143 163 193
136 156 186
142 154 180
142 159 187
140 157 186
143 156 184
137 155 185
142 160 187
136 157 188
140 155 183
140 160 190
140 158 185
141 158 188
142 158 187
143 158 184
146 165 195
140 159 189
140 160 187
144 163 191
146 163 190
138 155 181
132 150 179
131 150 181
137 157 188
150 170 199
137 153 183
134 153 182
141 159 189
135 156 187
136 154 183
142 164 193
137 159 188
137 155 184
144 165 194
146 166 195
136 148 177
142 161 189
137 156 186
143 163 191
143 165 194
134 153 183
132 150 179
139 159 188
133 152 177
135 152 180
135 156 185
136 155 185
135 156 185
139 158 187
142 163 194
138 160 191
132 152 180
136 160 188
127 149 178
143 164 191
141 161 192
137 155 183
136 159 191
132 150 181
139 158 184
137 158 189
138 159 188
133 150 179
143 162 190
139 163 189
136 156 184
130 150 179
135 154 185
128 148 182
134 157 184
145 166 195
139 159 187
132 153 183
132 153 185
137 158 187
132 155 184
133 155 186
136 158 189
139 161 187
124 145 175
137 157 185
136 158 189
134 157 184
130 150 181
134 158 187
133 157 189
130 154 184
145 165 191
142 163 192
136 157 187
140 159 190
129 151 178
129 152 183
133 154 181
131 152 181
142 161 191
136 159 188
126 149 177
136 155 184
132 157 186
131 154 187
135 157 182
134 156 185
141 162 192
137 161 189
133 156 188
126 149 182
138 159 187
144 166 194
143 163 190
135 156 183
137 160 190
133 154 185
133 156 183
137 161 192
136 159 184
135 158 189
139 163 190
126 152 184
143 165 192
136 161 185
140 160 186
135 160 191
135 158 186
136 157 184
135 157 186
141 162 191
137 158 186
135 158 184
134 160 185
133 158 187
143 166 193
130 154 181
128 154 181
143 164 194
133 156 181
143 166 193
139 163 188
131 158 185
135 160 188
138 160 188
133 160 184
138 160 190
136 160 185
140 164 189
128 155 180
140 164 190
137 160 188
133 160 183
140 164 192
144 167 195
133 159 180
143 165 191
135 160 185
131 153 179
136 161 190
139 163 188
131 157 181
134 157 186
134 160 186
137 164 186
139 164 187
136 162 185
137 162 184
135 163 181
138 163 184
139 164 189
136 161 185
132 159 179
138 163 190
135 159 185
145 168 193
127 156 175
143 165 186
144 168 194
139 162 188
134 162 183
134 158 181
136 158 187
147 170 194
144 168 195
140 165 188
145 168 193
138 161 186
133 158 180
133 159 181
129 158 176
141 167 189
143 168 190
144 167 189
138 163 186
131 159 178
140 166 191
127 158 174
139 166 188
141 166 189
126 155 170
133 159 179
138 166 188
133 159 182
129 157 179
140 165 189
143 167 187
142 169 190
139 164 186
136 160 182
145 169 192
132 158 181
135 159 181
136 162 185
127 156 169
132 159 176
136 162 180
138 165 188
139 166 185
135 162 181
144 169 191
141 168 186
143 169 193
148 169 194
144 170 189
132 159 178
138 163 186
141 166 187
138 166 184
141 166 188
142 168 188
138 164 184
140 167 187
135 164 180
133 160 177
136 164 181
135 162 180
147 156 181
140 151 176
152 166 193
144 158 183
141 155 181
146 155 179
147 162 190
150 162 188
140 152 177
147 162 189
146 155 179
143 157 184
144 152 176
147 161 188
153 171 199
139 150 176
144 158 185
138 144 168
141 157 185
144 155 180
140 149 172
145 157 185
145 159 187
144 153 179
141 157 184
146 160 186
148 163 190
140 150 174
142 154 181
142 158 185
143 161 187
145 160 185
139 151 179
145 158 184
143 156 184
144 155 179
144 154 179
144 157 183
143 156 183
142 161 190
141 156 185
145 162 190
140 152 180
149 161 187
145 158 184
148 162 188
144 157 183
143 155 182
144 157 184
140 154 181
141 156 184
136 148 175
139 151 177
145 161 191
144 161 189
148 162 189
143 156 183
139 155 182
141 159 190
149 169 199
147 166 194
142 159 187
144 162 188
142 156 183
137 157 185
139 152 178
139 156 184
141 159 188
140 156 185
138 152 180
148 167 195
137 151 178
138 157 189
142 158 186
139 155 182
140 158 187
144 162 191
144 163 192
140 159 187
148 162 189
135 156 188
139 153 180
142 156 183
134 154 185
143 159 187
146 166 195
139 154 181
137 157 187
145 164 193
143 162 192
138 156 184
139 159 190
140 162 192
137 153 184
135 155 185
144 160 187
138 158 188
136 155 185
139 159 190
145 166 197
139 157 187
140 157 186
129 146 177
142 160 189
142 160 188
139 158 186
138 156 185
136 155 187
140 164 194
141 156 185
142 164 195
141 161 192
138 157 186
139 156 186
140 160 191
132 148 177
143 164 194
133 147 171
144 163 193
135 153 184
132 152 184
131 152 183
136 160 192
127 150 183
137 158 188
136 153 181
145 164 194
145 165 194
145 163 192
133 156 191
137 157 187
131 152 183
139 159 187
138 160 188
140 163 192
129 152 183
136 152 181
131 149 176
139 155 186
133 154 184
137 158 191
135 154 184
135 154 184
135 154 182
137 156 183
127 147 180
128 150 183
139 162 189
140 161 191
142 164 192
138 158 188
134 153 181
134 151 180
132 156 187
139 157 185
136 157 190
137 159 190
131 153 186
137 160 188
142 164 195
138 157 186
138 156 182
138 157 187
134 154 184
134 156 188
135 155 186
138 160 189
138 157 186
139 161 190
141 163 193
144 164 191
130 149 179
144 165 192
135 157 187
133 151 183
128 150 178
125 148 183
136 158 189
141 162 192
132 154 183
138 160 190
137 159 189
142 164 192
129 152 185
136 158 187
136 157 187
132 154 186
125 149 180
133 157 188
134 157 184
140 161 191
138 161 188
143 167 198
141 161 187
145 168 197
133 158 187
133 157 185
135 157 185
136 159 188
143 166 194
140 162 192
136 158 190
137 162 188
136 159 185
134 161 191
146 167 193
130 154 181
136 159 187
136 161 187
137 164 187
131 156 181
142 163 191
127 148 175
133 154 182
136 160 188
133 154 182
137 161 189
139 162 185
137 162 190
137 159 186
139 162 191
135 159 180
144 167 193
140 163 188
134 158 187
139 161 185
141 164 188
137 161 188
134 158 184
148 170 196
140 165 192
138 162 191
133 158 184
135 162 185
142 166 191
131 157 182
144 165 193
141 165 190
133 156 181
136 160 185
128 153 176
146 169 195
136 159 184
142 168 191
136 161 185
132 158 179
140 165 190
141 164 188
134 159 185
140 165 188
143 166 192
139 164 189
138 164 188
141 164 191
136 163 187
141 164 189
137 163 186
139 165 187
139 163 188
129 156 177
140 164 191
138 165 185
139 162 188
139 164 184
137 163 186
139 162 185
140 165 190
138 162 186
136 163 186
143 169 193
140 165 187
136 161 184
129 156 178
147 171 194
132 159 181
142 168 190
131 158 180
133 158 180
140 165 189
137 164 183
136 161 188
130 155 173
138 165 187
148 172 198
138 166 186
133 161 180
136 160 180
131 155 176
128 156 177
135 160 181
137 164 183
141 164 185
136 162 184
134 162 181
130 157 174
134 161 181
136 162 186
141 165 188
139 165 187
131 163 177
143 169 192
135 160 182
136 163 181
151 174 198
137 163 185
139 165 188
138 163 184
138 165 185
136 164 183
141 165 187
136 162 181
132 157 179
144 168 193
135 163 182
141 167 189
139 164 184
134 162 180
138 163 182
137 165 184
141 167 186
146 156 181
147 161 187
147 160 186
143 155 180
142 156 183
142 153 181
144 156 181
154 169 196
144 153 179
144 154 179
139 149 175
145 160 185
144 153 178
146 162 189
145 155 181
143 154 182
144 157 183
148 160 184
149 161 187
144 153 176
141 154 180
143 157 182
144 161 190
141 153 180
147 160 185
138 153 180
144 155 181
143 156 183
139 153 180
143 154 180
145 158 185
150 164 191
137 155 184
139 156 185
139 149 175
144 156 182
135 148 177
144 159 187
146 160 186
147 163 190
144 157 184
142 156 183
144 159 186
138 152 179
144 157 183
140 154 181
143 160 189
146 163 191
147 164 192
139 154 181
142 160 188
144 157 182
138 153 180
144 160 187
133 149 177
144 162 190
146 164 192
134 147 174
146 162 190
144 160 188
143 150 176
145 161 188
140 158 186
144 162 189
137 151 178
146 164 192
141 157 185
137 152 178
142 156 181
146 160 186
141 159 185
146 166 192
134 152 183
143 160 188
143 165 195
141 155 181
143 159 187
143 158 186
142 159 189
140 158 186
142 160 189
138 155 185
140 154 180
145 163 190
136 151 180
144 160 188
145 167 196
143 161 190
134 152 182
139 154 182
144 165 194
141 160 187
139 158 186
143 162 190
145 164 194
141 163 195
146 165 195
142 162 192
136 157 189
139 159 189
144 164 194
129 148 178
143 163 192
138 156 187
146 161 189
136 155 187
143 162 192
137 157 187
133 154 185
134 151 182
133 150 178
133 155 186
145 165 194
140 160 188
140 161 192
137 156 182
136 157 189
136 154 183
138 156 188
142 162 191
138 159 189
143 164 194
136 157 186
145 164 193
134 154 185
145 165 194
140 158 187
144 162 191
145 167 199
139 159 188
130 151 180
137 158 190
140 162 189
136 155 186
138 160 190
134 155 186
129 149 181
128 150 181
140 158 187
141 163 192
140 160 189
140 161 189
136 156 185
140 160 192
138 154 182
141 164 193
135 157 190
134 156 182
136 155 183
139 159 190
129 154 185
148 168 198
139 161 192
131 151 184
140 161 189
145 167 197
148 167 194
133 154 186
136 158 188
124 142 176
131 151 179
134 154 182
138 160 188
136 158 186
132 156 188
138 156 182
134 154 183
145 169 196
130 152 183
137 157 187
139 161 192
133 154 184
136 161 191
139 162 190
141 159 184
134 157 187
138 161 189
144 164 192
142 163 193
138 159 188
128 151 181
138 160 188
132 152 180
132 157 184
132 157 184
136 159 189
134 155 185
140 159 189
138 160 190
142 163 190
131 154 183
139 164 193
141 166 193
145 167 194
136 159 187
142 164 194
139 163 193
137 159 187
137 159 185
136 158 187
137 161 190
136 159 185
136 161 185
138 163 190
137 160 186
138 158 185
137 159 186
137 160 186
142 166 192
130 155 181
139 162 193
141 161 189
140 161 189
131 155 181
140 164 191
138 162 189
128 153 180
136 161 188
135 161 185
141 165 190
131 155 181
137 160 188
140 162 191
130 155 181
136 159 184
135 160 189
142 167 192
137 163 188
136 161 188
136 161 186
133 159 182
142 165 191
136 161 186
143 167 195
140 164 187
134 160 184
139 162 187
143 166 191
140 164 189
132 157 180
129 153 175
136 160 181
144 168 194
147 170 197
138 163 188
143 168 191
139 164 190
139 165 188
141 166 191
133 159 183
131 159 180
134 160 179
141 165 188
133 158 181
137 163 185
138 163 186
135 161 186
135 160 181
139 165 188
135 159 181
134 159 182
137 164 184
142 165 191
134 161 182
148 171 199
142 165 191
137 163 188
131 157 174
134 160 185
137 164 187
133 156 179
140 164 188
141 165 192
140 164 189
137 161 187
134 159 177
145 170 192
136 162 186
137 163 188
138 161 186
135 162 184
131 160 177
140 167 186
142 167 191
135 162 183
133 162 180
134 161 182
135 162 181
131 158 177
127 158 177
142 168 189
143 168 194
130 156 175
133 160 183
142 166 189
132 160 181
137 164 183
129 157 178
134 161 178
141 165 187
134 162 186
135 162 182
128 156 173
137 167 186
133 161 180
146 170 193
142 166 191
134 161 183
138 165 185
141 167 188
139 165 187
137 165 182
141 167 188
145 169 193
138 165 187
138 164 183
135 162 183
142 169 188
140 165 185
132 162 178
148 163 189
144 158 185
147 160 187
148 165 189
142 154 181
149 156 180
143 148 173
144 158 184
146 157 182
144 158 185
147 157 182
144 155 182
144 159 185
141 154 182
147 159 185
149 166 194
147 161 187
141 149 175
146 160 185
143 156 181
143 156 182
144 158 185
149 161 188
144 155 182
145 159 185
142 154 179
136 150 178
132 144 171
140 155 182
140 156 183
145 162 188
145 158 185
144 158 185
147 165 193
140 149 174
139 151 180
145 161 189
142 153 179
143 159 187
138 149 175
143 158 186
145 155 181
134 147 174
143 159 187
141 153 179
140 150 177
145 165 193
141 152 178
141 159 186
141 153 180
146 161 188
144 157 183
141 153 179
142 154 179
141 153 181
145 161 188
145 161 188
141 159 187
144 160 187
138 154 182
145 163 191
141 153 181
147 165 192
138 157 187
141 157 184
146 163 192
147 162 190
141 161 191
147 164 192
137 156 185
140 154 181
142 160 188
144 162 190
136 155 185
140 154 182
146 164 192
145 160 186
132 147 176
143 160 189
136 154 181
141 158 187
138 154 182
136 153 184
136 154 183
139 154 180
142 162 189
144 161 189
144 163 194
146 163 191
144 160 188
136 153 182
148 168 197
138 159 189
146 165 194
131 150 177
141 156 181
139 158 187
143 165 195
146 164 193
140 161 192
146 165 191
138 157 187
140 160 187
136 154 184
144 163 191
142 161 192
141 159 185
136 156 184
142 161 189
133 149 177
144 162 192
138 156 187
141 157 187
143 162 192
138 157 185
141 157 184
141 159 187
139 158 188
142 164 194
137 157 188
135 151 182
134 151 178
135 156 184
144 162 191
134 156 183
133 151 182
137 159 189
134 155 187
128 144 174
132 153 182
133 155 187
141 160 189
147 168 196
132 155 186
144 165 192
137 158 189
144 163 191
144 167 196
139 160 191
132 153 181
127 148 180
134 155 186
137 158 190
142 163 191
138 158 190
137 157 190
135 157 188
131 152 178
141 162 192
138 158 189
136 158 189
134 154 184
141 162 192
131 155 185
139 161 193
143 162 188
136 158 187
140 162 190
139 161 192
133 153 182
139 160 188
137 157 185
136 156 185
144 166 197
131 154 182
134 157 188
136 159 189
134 159 186
134 156 187
134 156 183
142 165 196
133 155 185
141 162 191
139 161 189
142 163 193
136 160 186
136 153 178
135 160 189
130 149 180
133 155 185
134 156 186
135 155 185
141 162 191
133 155 184
131 154 183
133 152 181
137 157 184
140 161 192
136 157 186
139 164 195
139 159 190
129 153 184
132 155 185
144 164 191
143 166 196
137 160 189
141 164 190
140 162 189
135 157 186
147 167 195
136 160 188
138 162 193
135 160 185
133 157 183
139 162 188
132 158 181
140 162 191
129 153 181
134 158 183
137 160 188
146 167 195
135 158 188
133 157 182
129 155 187
139 161 185
139 163 188
136 161 188
138 160 188
137 160 189
140 164 192
132 158 182
142 162 190
137 160 185
143 166 193
137 162 188
137 161 188
141 163 188
145 168 193
134 159 186
140 162 191
142 166 190
142 165 191
144 167 193
143 168 194
139 166 189
136 161 186
130 155 178
135 157 183
135 160 186
140 162 183
134 157 184
143 165 194
143 166 190
127 157 179
132 157 182
137 162 184
140 165 191
138 163 189
138 164 185
149 172 195
139 163 188
142 166 192
142 166 192
145 169 195
140 164 189
143 166 190
133 157 180
136 160 185
138 161 184
131 157 179
135 159 182
130 157 180
133 159 183
138 162 186
143 168 192
149 172 201
142 167 191
133 157 178
139 164 189
147 171 196
134 160 182
143 168 195
137 162 184
144 169 194
124 154 169
129 158 179
136 161 183
141 165 190
140 165 190
139 162 187
136 162 185
148 171 199
142 165 190
137 163 185
138 165 188
130 160 178
139 164 183
134 158 181
141 166 189
142 168 192
141 165 187
133 160 180
140 167 186
137 161 184
135 162 182
144 168 191
144 166 192
131 159 179
139 163 185
135 161 181
142 168 189
146 169 196
145 167 195
130 160 179
141 167 188
147 170 196
137 161 184
125 156 172
138 164 187
136 162 182
140 165 189
145 168 191
139 163 185
140 166 187
141 167 188
139 165 187
132 160 178
140 165 187
134 162 179
133 161 181
151 168 194
151 162 186
144 151 177
146 156 181
147 161 187
148 169 198
138 148 175
144 157 182
143 153 178
145 161 187
145 159 186
141 153 179
147 161 188
149 162 188
140 153 180
150 164 191
150 168 196
149 162 188
145 156 181
143 159 185
144 160 188
143 154 180
151 165 190
146 162 190
142 155 181
152 168 194
147 157 183
145 161 189
142 151 176
149 162 188
145 162 190
149 166 193
142 156 184
142 159 188
146 160 187
143 161 189
137 144 169
139 152 181
149 164 192
150 165 191
144 157 183
143 152 177
143 157 185
141 151 176
141 158 187
141 151 177
147 168 198
142 156 184
143 161 189
143 159 185
144 159 187
147 160 186
140 155 183
146 164 192
147 163 189
135 153 181
136 152 180
143 158 186
142 156 183
149 165 192
146 164 192
140 157 186
146 162 191
135 146 173
144 160 188
145 162 190
136 153 181
147 163 191
133 150 178
145 162 190
140 159 186
141 157 185
146 164 193
138 155 183
142 156 181
141 160 188
138 153 182
138 155 183
142 161 191
137 154 182
143 156 183
135 152 178
141 158 187
143 161 191
138 155 183
147 166 194
144 162 190
143 160 188
141 162 190
137 153 181
138 157 186
140 158 187
141 160 188
144 164 193
138 157 187
142 160 188
140 161 191
147 164 191
138 154 184
141 158 186
140 155 183
136 156 186
139 158 188
140 160 190
137 157 186
138 158 187
141 158 185
146 161 189
134 152 183
140 157 186
144 164 192
142 161 189
141 160 189
143 163 191
146 164 191
145 164 191
137 156 186
137 158 189
136 156 187
144 165 196
136 159 192
138 158 188
146 168 196
139 161 188
123 142 172
140 158 187
140 162 190
140 161 191
139 160 189
143 162 192
143 164 192
139 159 188
137 155 186
145 164 193
142 163 193
138 156 185
136 159 190
140 160 189
143 164 191
131 152 184
142 159 188
138 158 189
137 157 187
133 152 180
141 163 193
140 162 191
138 159 188
144 165 193
133 151 181
139 162 193
135 154 184
134 157 187
141 163 190
141 165 193
142 164 195
140 161 189
141 163 195
133 156 188
129 151 179
135 156 185
133 155 186
138 158 189
137 159 188
139 162 195
140 160 188
142 162 191
147 168 197
128 150 183
134 159 186
138 159 189
137 161 189
129 151 182
129 152 186
135 155 187
135 158 191
134 157 190
129 150 177
132 152 179
148 167 195
140 162 190
136 157 185
135 155 183
144 168 194
129 153 179
130 153 182
140 161 193
139 160 187
138 160 187
142 164 193
131 154 186
136 160 191
138 157 189
132 154 182
146 167 194
147 167 195
144 167 195
134 158 187
140 161 190
142 164 192
146 166 191
131 153 184
140 161 190
132 154 182
138 161 191
126 151 177
134 160 187
142 166 197
133 158 186
134 159 186
141 164 192
141 164 192
144 165 191
131 158 187
133 157 180
135 157 187
139 160 188
140 163 188
134 157 185
136 157 185
143 165 191
139 161 186
137 161 189
146 170 196
127 154 176
144 166 193
135 160 186
136 159 189
140 162 190
130 155 179
135 159 186
138 161 189
135 160 186
139 163 190
137 160 186
133 159 181
133 160 184
141 163 190
140 164 189
145 168 195
137 162 187
139 163 191
140 164 190
142 166 192
138 164 187
139 163 191
142 167 195
148 172 199
141 163 186
137 164 189
136 162 181
139 163 192
138 162 189
136 163 188
138 165 190
132 156 181
143 166 193
145 168 195
138 163 185
140 164 191
142 166 189
143 167 191
136 162 185
146 170 195
134 161 181
138 163 185
137 160 186
138 162 187
138 165 186
137 162 185
134 160 186
137 163 187
138 161 185
135 162 184
141 165 190
139 164 186
139 164 193
139 162 187
133 161 181
132 160 178
136 164 183
143 168 191
130 158 180
129 157 177
136 161 182
134 161 182
135 163 181
146 170 195
139 164 187
135 162 185
134 162 183
139 164 187
139 164 186
138 164 184
135 163 182
138 163 188
141 165 188
140 164 187
137 164 184
139 163 190
140 167 187
125 152 172
141 166 187
132 160 181
129 156 176
128 158 178
143 167 191
139 165 184
142 166 190
138 162 185
142 167 190
134 163 181
140 164 183
135 162 181
141 167 191
134 162 179
134 161 182
138 166 183
147 170 198
137 165 185
139 165 187
144 154 179
143 159 185
146 157 183
146 161 186
143 158 186
144 159 187
144 158 184
145 159 186
148 160 186
142 150 176
143 160 188
145 158 184
144 163 191
148 161 187
144 162 189
148 161 185
146 158 182
144 158 186
142 155 180
148 166 193
142 156 182
140 150 176
145 156 181
146 160 187
142 157 183
147 164 191
147 160 187
145 157 184
143 154 182
146 162 189
143 154 181
139 153 182
138 151 179
144 157 183
147 163 191
144 158 184
145 156 183
140 150 174
145 163 191
141 152 180
141 156 186
145 159 186
141 157 184
144 158 185
141 158 186
135 147 176
144 158 186
145 160 185
144 158 185
142 161 191
142 158 185
144 157 185
147 165 193
140 156 183
140 150 175
142 155 183
142 155 182
141 153 180
139 154 182
142 159 185
143 153 179
144 160 187
133 142 169
142 159 185
146 163 192
144 159 187
138 156 184
145 158 185
139 153 183
144 161 188
140 158 185
139 158 188
140 158 186
142 161 189
143 157 186
144 159 186
138 158 186
141 155 183
144 162 191
141 160 188
144 164 192
151 167 193
144 158 185
142 163 193
142 163 193
145 160 188
147 166 193
144 161 188
143 161 190
139 154 181
138 152 179
146 165 193
145 164 193
147 165 195
135 150 179
139 159 187
142 159 187
142 162 190
139 150 177
140 158 189
144 161 188
142 163 191
143 157 184
142 163 194
140 158 187
137 155 185
136 156 186
140 158 188
146 167 195
144 162 190
144 163 192
147 166 195
129 145 173
145 165 195
142 157 184
141 161 190
135 155 182
137 159 189
147 166 195
150 172 201
138 155 184
134 153 183
137 158 186
137 156 183
135 153 185
137 157 188
140 158 184
136 157 185
137 156 187
139 160 187
139 156 185
150 170 199
141 162 192
145 165 193
132 154 185
133 153 183
142 161 193
143 164 195
141 162 194
134 154 185
139 160 188
128 150 181
134 155 184
139 162 192
130 153 183
136 157 188
135 155 185
140 160 188
139 162 190
140 162 193
138 159 187
136 155 186
142 163 192
145 165 194
146 167 195
141 162 190
135 158 183
133 154 185
132 155 185
137 157 188
145 163 188
136 156 182
137 158 189
141 161 189
134 157 187
140 163 195
140 160 191
131 154 182
138 157 186
137 158 189
137 158 190
142 164 193
128 151 183
131 154 184
138 161 192
143 165 192
141 161 192
144 164 194
131 156 186
139 161 191
138 160 191
137 161 190
142 165 193
129 153 181
146 168 196
134 155 188
138 157 182
142 165 193
135 157 190
130 152 180
138 162 193
135 160 189
139 159 190
142 164 194
135 158 184
129 155 187
144 168 198
144 167 193
146 169 196
137 162 187
136 160 191
134 159 188
140 163 192
135 161 187
138 161 190
134 156 180
130 154 180
138 161 188
129 155 184
134 156 185
135 159 181
140 165 186
135 159 190
132 156 182
141 163 190
138 163 192
135 162 186
138 160 187
135 159 186
132 158 183
141 164 191
138 162 191
141 164 192
134 155 182
136 160 189
138 162 190
145 165 193
140 164 191
135 159 184
136 162 181
138 162 188
143 168 193
138 162 190
140 164 193
144 167 190
139 163 192
145 169 196
136 160 187
129 155 179
134 158 184
144 168 194
133 159 182
140 163 188
141 163 189
143 166 191
138 160 188
135 161 184
140 162 188
135 160 186
136 160 187
137 162 185
137 163 187
143 167 193
140 164 189
145 169 197
132 161 182
144 167 198
142 166 191
135 159 185
138 163 188
135 160 187
144 167 193
132 160 179
136 161 185
137 162 184
142 162 190
143 166 193
137 161 188
128 156 175
141 167 188
144 170 192
142 165 190
142 166 191
138 164 186
135 162 185
145 169 192
133 159 182
139 163 185
143 167 191
129 159 178
143 167 191
136 163 187
140 164 189
146 169 195
145 170 196
130 157 182
148 172 198
131 157 180
139 166 188
137 162 187
136 163 183
141 165 189
138 163 182
143 165 189
143 169 192
144 170 190
141 167 192
143 169 190
135 161 185
142 167 188
132 160 178
138 164 183
138 164 184
135 163 182
138 164 184
144 168 191
132 160 179
141 165 192
144 168 191
143 168 192
140 164 185
132 161 176
141 165 189
135 163 182
140 166 188
139 165 188
133 160 178
135 163 182
135 161 182
139 165 185
148 161 186
146 162 190
149 161 187
142 156 182
146 164 191
136 146 170
150 161 187
152 169 196
139 147 173
139 150 176
145 158 185
145 160 187
144 159 187
143 161 186
145 157 184
150 161 185
141 151 175
143 158 185
136 148 172
143 158 183
142 154 182
147 164 192
142 162 193
144 159 184
143 156 182
142 154 179
141 152 178
146 165 193
143 161 190
150 166 193
148 166 192
147 161 188
141 155 184
136 150 177
145 163 190
147 158 185
141 158 184
142 154 182
140 158 187
146 159 185
144 160 187
141 157 184
147 164 192
145 160 188
139 155 184
149 164 190
145 159 187
146 158 183
143 160 188
146 163 188
148 164 192
145 159 186
138 155 182
138 154 182
141 157 186
143 158 184
141 161 191
145 163 191
139 152 178
142 157 183
146 162 190
139 157 185
141 158 188
135 148 173
142 155 182
141 155 182
142 155 182
149 166 193
139 153 182
137 154 182
137 152 179
140 155 183
138 152 182
146 165 194
142 154 177
135 151 179
148 165 193
146 160 188
141 158 188
144 165 195
138 156 186
143 162 191
141 161 191
148 163 190
138 157 188
145 160 187
149 168 198
131 152 182
142 159 187
141 160 189
144 161 189
146 160 187
141 158 185
146 164 192
143 161 188
137 155 185
140 157 186
136 154 183
145 165 196
143 165 197
134 154 185
141 159 189
138 157 185
141 159 188
143 159 185
136 156 186
144 158 185
148 164 192
141 156 183
137 156 187
140 163 195
141 161 190
146 166 195
137 158 190
135 151 181
138 155 182
145 161 189
140 161 189
136 157 184
148 169 199
143 159 187
138 159 188
139 159 191
145 162 190
138 159 187
139 161 194
137 156 184
137 157 188
141 158 186
145 166 193
139 159 189
136 156 187
139 156 187
138 158 188
141 163 195
139 161 189
146 169 197
139 160 190
140 159 186
137 157 187
132 153 183
143 160 190
145 167 192
131 148 179
142 164 197
136 155 183
138 160 192
144 165 195
141 160 188
144 164 192
140 159 190
137 160 190
135 155 185
144 162 189
138 160 191
139 160 188
142 164 192
139 162 195
132 153 185
145 165 195
142 162 193
137 158 188
135 157 186
136 157 186
144 164 193
130 156 184
137 160 189
142 161 187
139 161 191
133 156 187
135 155 186
140 163 191
137 161 191
139 161 190
129 151 180
136 159 186
136 156 185
138 160 190
140 163 192
140 163 191
142 162 194
138 161 189
133 155 186
141 164 193
137 157 185
138 160 189
134 155 182
133 157 187
142 160 188
129 151 180
135 160 188
147 167 197
142 165 195
131 153 184
130 154 183
145 166 193
138 157 184
136 160 185
140 161 189
133 158 186
137 158 186
136 159 183
143 164 191
135 158 186
140 164 196
134 154 179
136 158 183
140 163 191
138 162 187
136 158 188
132 154 183
140 161 188
140 165 191
131 156 184
132 155 186
136 160 189
135 159 187
140 164 192
135 159 188
139 162 188
139 163 191
139 164 191
135 158 185
141 165 190
144 166 194
145 169 196
141 165 195
131 159 180
143 165 192
132 156 183
135 160 187
130 154 184
145 166 195
137 161 185
137 158 186
140 164 192
142 163 192
140 165 190
140 164 187
134 159 181
145 171 195
140 165 190
140 164 190
140 165 189
138 161 185
137 161 186
132 157 179
139 163 188
140 164 188
138 163 187
138 163 187
141 166 190
147 170 196
141 167 191
143 169 193
138 163 189
133 158 183
145 168 194
147 169 197
135 163 183
150 172 199
145 167 195
142 167 191
133 161 183
137 163 187
130 154 179
139 166 191
137 161 187
145 170 194
139 163 184
133 159 183
136 163 184
145 171 194
141 166 194
139 163 187
141 167 188
139 164 188
143 168 190
140 166 186
145 171 194
136 161 182
145 170 194
143 168 189
141 164 187
145 170 196
135 160 184
140 168 187
146 168 194
140 165 188
143 167 189
140 164 189
135 163 184
135 165 182
143 168 192
133 161 182
143 170 191
141 168 189
139 165 189
136 161 181
144 167 190
134 161 181
131 159 178
136 161 182
143 167 192
137 163 185
139 165 187
137 162 186
145 168 195
135 162 181
139 167 186
141 166 189
146 171 193
137 164 184
146 171 195
149 172 198
134 163 182
135 161 183
133 161 180
138 165 188
137 164 185
153 166 191
142 156 183
145 163 192
144 158 185
146 161 187
147 158 183
148 165 192
144 155 181
145 158 185
147 159 186
147 166 194
144 159 184
147 164 191
150 164 190
143 155 180
149 162 187
146 159 185
148 163 192
146 164 191
148 161 188
144 158 183
145 158 184
142 153 179
144 162 190
144 153 178
136 151 180
142 153 179
142 156 184
137 150 176
141 158 186
143 155 181
145 160 188
145 159 187
148 164 190
150 168 195
143 159 187
149 168 195
143 159 187
144 164 192
142 156 183
137 153 184
150 160 185
139 152 179
148 164 191
140 158 188
143 153 178
144 161 190
144 159 187
141 157 185
141 157 186
145 160 189
140 153 179
143 158 185
150 170 198
145 159 185
146 161 188
141 161 191
146 160 185
140 157 185
138 153 177
143 160 188
147 165 194
142 159 188
139 155 183
146 160 187
143 158 186
144 158 183
139 157 185
141 156 182
138 157 186
146 165 193
145 162 190
140 152 180
141 158 186
142 162 191
147 164 193
143 156 182
144 158 185
144 163 191
147 165 193
144 163 192
142 159 187
147 167 194
142 161 188
143 160 189
140 161 190
143 161 189
139 156 184
138 157 186
146 168 197
145 164 194
131 151 182
139 159 189
144 164 192
143 164 193
149 167 196
146 166 195
144 159 185
137 159 188
145 164 192
140 159 188
139 156 186
138 156 184
139 161 193
143 163 191
140 157 185
142 162 191
140 162 193
137 155 183
143 160 189
139 158 189
140 160 189
135 157 184
145 163 192
134 152 180
142 163 193
142 160 190
140 161 191
142 161 191
139 157 187
137 158 188
145 162 189
130 152 182
139 158 185
140 156 182
130 150 181
140 159 188
141 161 193
143 163 192
134 158 187
135 154 186
139 160 190
134 154 184
138 160 192
136 156 183
138 159 187
139 160 187
124 142 174
134 155 182
143 165 196
135 159 192
138 154 183
138 158 187
143 164 192
139 161 192
135 156 186
134 154 184
143 164 192
145 164 193
135 156 185
136 158 190
138 158 187
134 157 185
146 163 192
139 161 190
136 156 185
136 159 187
140 163 194
141 164 193
135 157 187
133 156 184
136 157 185
142 163 193
145 165 196
137 158 189
146 169 198
138 159 188
132 154 183
137 157 184
135 157 185
137 158 184
137 161 189
139 159 190
143 163 194
144 164 191
130 152 183
136 159 187
139 160 189
136 160 190
140 162 194
143 165 195
138 163 190
135 157 189
131 153 183
123 149 178
137 159 186
140 164 192
134 158 188
131 153 185
139 160 189
137 160 188
142 164 193
140 162 192
134 157 186
135 159 189
132 156 183
132 156 186
140 163 193
145 168 194
138 161 192
130 151 182
140 160 189
132 158 185
138 161 190
142 165 194
139 162 192
136 161 190
137 158 186
139 162 192
143 168 193
135 159 187
136 160 192
126 153 179
138 162 190
128 155 182
143 165 190
140 163 190
138 160 187
139 160 188
129 155 179
140 163 184
135 158 186
138 162 187
140 163 192
143 166 191
127 153 179
138 161 187
133 156 181
139 162 189
137 161 188
140 164 190
142 168 192
139 163 188
136 159 189
143 166 195
145 169 195
142 165 193
133 157 185
137 161 189
140 164 189
138 161 189
148 170 196
146 169 195
138 164 193
143 167 198
141 165 192
134 161 184
136 163 185
134 157 185
139 164 186
148 171 195
142 167 191
138 162 192
139 161 190
141 164 189
135 163 186
132 158 179
134 161 184
140 164 191
135 161 183
142 165 191
143 166 193
135 161 182
148 169 194
133 160 184
140 164 190
142 168 191
143 166 190
145 167 193
138 165 187
139 162 186
135 160 184
140 162 188
139 165 188
142 169 192
138 164 186
144 167 190
140 166 188
133 160 186
138 162 183
136 164 186
136 164 183
140 166 188
138 164 189
137 163 187
140 164 188
136 161 183
142 164 190
144 166 187
142 167 191
137 162 185
141 165 191
141 165 189
145 167 191
137 161 182
137 163 183
139 165 188
136 162 180
130 161 176
137 163 187
140 167 189
141 167 189
131 159 178
140 164 189
135 161 184
139 163 183
145 169 194
137 163 186
140 163 185
137 164 183
135 161 185
133 161 177
140 165 187
143 168 192
136 162 180
137 161 182
137 163 185
138 164 185
140 163 185
139 164 186
145 160 188
149 165 192
148 164 191
142 157 185
147 161 187
148 162 189
143 156 184
147 160 186
140 151 175
142 154 181
148 167 194
144 158 185
145 161 186
146 164 191
146 156 181
146 159 186
146 163 191
141 157 185
144 163 192
146 160 187
146 160 187
144 161 188
148 161 188
141 156 185
145 161 187
152 168 197
147 164 192
142 159 187
144 159 189
142 159 186
136 151 179
143 159 187
145 163 189
147 163 189
141 155 181
145 161 187
138 154 183
145 161 188
141 153 180
145 159 184
144 158 184
144 157 185
146 161 186
147 165 194
145 160 187
146 161 188
145 164 193
148 164 191
148 166 194
135 151 179
138 155 183
140 154 182
142 162 189
143 160 188
144 160 186
141 160 188
143 161 189
148 165 192
144 160 187
140 158 185
146 163 189
147 167 196
141 160 190
147 166 195
143 161 190
139 159 186
143 163 193
149 168 194
138 152 180
143 154 181
149 168 196
143 155 182
140 151 177
133 150 179
141 157 182
145 162 191
139 156 186
145 162 191
134 153 183
143 160 189
144 162 190
147 167 195
138 159 189
141 161 190
145 165 194
142 162 190
132 149 178
141 156 183
133 151 181
138 155 183
142 158 184
137 155 184
146 162 190
136 155 184
140 161 192
142 160 188
132 150 179
144 162 191
137 153 181
139 161 193
142 163 195
138 158 188
143 160 189
147 166 195
136 157 189
141 161 190
143 163 192
135 153 182
143 162 191
137 157 184
144 167 195
138 158 188
141 161 191
139 157 186
142 160 189
139 159 190
144 160 189
143 161 190
146 165 194
140 161 192
146 166 195
134 156 191
134 152 181
142 159 189
137 159 190
140 161 189
133 153 183
143 162 191
137 157 189
133 151 177
138 157 183
140 164 192
143 165 194
133 154 185
143 165 193
136 159 188
147 168 197
137 152 181
142 163 192
139 161 190
143 167 195
138 160 191
144 166 195
134 156 187
133 156 188
143 164 194
144 166 195
138 159 187
142 165 194
131 152 183
137 162 190
132 152 184
142 165 194
140 157 184
138 158 189
132 150 180
132 153 183
137 156 187
138 155 181
135 155 186
139 160 188
134 155 180
145 165 196
141 163 191
143 165 194
142 164 195
143 165 199
123 142 171
129 148 180
136 159 187
136 157 188
136 158 188
134 155 185
134 156 185
141 162 193
140 164 193
131 152 183
133 156 184
130 153 183
136 159 187
144 165 195
143 165 194
135 157 189
138 161 190
137 158 188
130 153 182
126 150 179
134 159 186
134 159 186
135 156 179
140 164 194
139 163 194
126 150 178
135 158 187
137 161 188
134 158 186
143 164 193
137 157 185
138 159 189
146 166 194
135 157 188
140 161 189
138 161 189
137 161 189
138 162 190
137 160 186
136 161 191
140 162 187
139 162 192
136 160 190
138 163 193
138 160 184
135 158 190
138 161 188
137 160 185
134 159 188
139 159 186
131 159 183
141 162 189
139 161 186
136 161 189
139 162 189
138 163 190
137 160 190
145 168 198
137 159 187
137 163 189
145 168 196
141 167 192
141 166 190
152 172 198
142 166 193
140 163 188
137 163 184
140 164 190
132 158 182
137 161 189
132 158 183
141 167 194
143 165 195
144 166 192
144 166 189
135 162 189
141 167 193
141 162 188
141 166 192
133 158 184
140 164 189
143 167 190
143 166 194
144 166 191
146 169 196
131 158 183
142 166 191
139 163 188
139 164 186
140 166 193
139 164 191
134 160 181
146 169 194
132 159 177
140 163 189
140 165 190
135 160 182
134 159 183
140 163 191
135 159 183
148 171 198
135 161 185
140 165 188
141 165 189
137 163 185
139 164 189
144 170 196
144 169 193
141 165 188
140 165 189
136 157 185
142 167 190
139 164 187
136 161 185
138 163 186
138 166 191
141 167 189
142 168 189
140 165 188
140 165 188
136 164 185
138 162 184
144 168 192
140 165 188
142 168 192
146 169 194
143 167 195
145 169 193
132 158 180
137 160 185
139 162 182
137 163 185
142 168 190
134 162 186
126 156 175
140 165 187
138 163 184
142 167 189
145 170 191
132 161 178
141 168 190
142 168 188
136 162 184
141 166 188
140 165 190
136 165 184
144 169 191
142 166 190
144 168 193
145 168 195
140 164 189
142 167 188
144 168 192
149 166 195
143 161 190
150 167 192
151 165 191
145 162 190
144 156 183
143 158 183
148 165 193
143 161 186
148 163 190
148 160 187
147 164 192
140 151 179
150 163 190
147 159 185
149 164 190
141 154 180
142 155 181
149 163 190
147 157 182
144 161 188
139 148 174
142 154 181
136 151 179
146 159 186
143 158 186
140 153 178
142 157 185
143 156 186
142 154 179
143 156 182
147 160 186
145 158 185
152 171 198
143 159 189
146 169 197
143 156 183
139 152 178
146 162 190
140 155 182
150 164 189
147 164 192
147 164 191
147 162 190
149 167 196
148 162 189
143 160 189
148 167 194
146 162 189
147 161 189
141 160 189
142 159 188
144 158 185
144 164 194
144 160 189
140 159 190
143 160 187
143 154 181
149 164 190
147 165 196
145 163 191
145 162 190
138 157 185
142 160 189
141 156 181
142 158 186
147 166 195
144 161 189
144 165 194
143 160 188
143 159 189
147 164 193
145 161 190
141 160 189
135 154 185
141 161 189
141 157 185
142 162 191
143 164 195
143 160 189
145 165 195
143 161 192
137 156 185
144 164 192
138 155 182
142 163 192
136 153 183
135 157 189
137 159 191
141 159 189
140 156 184
143 165 197
143 161 190
139 159 191
150 170 196
140 158 187
136 152 182
142 161 189
140 156 184
146 162 189
145 163 191
143 161 191
143 162 190
145 166 193
140 160 189
141 159 188
135 155 186
139 158 187
140 160 186
144 166 197
140 159 185
133 151 179
142 162 192
142 160 190
139 162 192
147 168 194
135 157 187
139 159 187
142 161 192
136 158 191
135 157 186
140 161 193
138 161 191
137 160 190
138 153 180
143 163 191
139 158 185
144 164 194
138 157 185
143 161 191
140 162 194
137 155 180
145 166 197
147 168 197
142 163 192
134 153 184
134 153 184
137 157 185
142 162 193
141 166 190
137 156 189
137 160 191
134 157 189
141 163 192
142 164 192
137 158 186
134 155 185
138 162 192
135 158 191
134 154 186
145 167 197
142 163 193
140 162 192
134 156 188
142 164 194
137 159 186
136 159 185
141 160 189
137 157 186
146 169 198
140 157 185
139 160 193
136 156 186
139 162 191
136 155 184
146 167 197
143 167 196
140 161 191
140 163 193
134 155 184
142 163 193
142 165 192
134 158 185
138 157 185
141 163 194
137 159 188
137 159 188
139 162 187
143 166 194
137 159 190
139 162 189
139 162 194
145 167 195
138 160 191
135 154 179
130 154 186
138 163 193
143 164 190
133 156 188
138 160 187
133 156 187
134 156 185
141 162 192
137 161 189
130 154 186
146 167 194
149 168 197
136 162 187
137 161 192
130 155 183
139 161 190
143 164 193
136 160 188
141 161 187
142 165 194
137 161 189
136 159 186
146 170 198
148 171 199
143 165 190
142 166 192
124 150 175
139 162 189
135 159 190
136 160 184
138 161 188
129 153 180
136 158 187
141 165 193
141 164 189
142 166 192
146 170 196
138 163 188
137 164 188
146 171 197
135 156 183
131 155 183
131 157 187
138 163 188
139 160 190
146 169 196
152 173 201
139 165 185
141 164 189
142 165 191
142 167 194
144 165 192
143 166 193
135 159 186
139 161 187
146 169 194
141 166 191
141 164 191
140 164 192
129 153 178
137 163 188
132 158 182
129 156 178
142 167 190
146 168 197
139 162 188
146 168 195
139 162 185
139 165 189
137 163 184
139 164 188
138 164 189
140 162 187
146 168 195
135 157 184
136 161 187
141 165 192
137 163 187
130 158 181
130 156 181
138 163 191
142 168 192
142 167 191
135 160 180
138 162 186
130 157 176
142 167 192
139 165 186
137 162 191
141 169 190
137 162 186
141 163 191
144 170 193
139 164 188
143 167 193
135 162 184
142 167 191
135 161 183
143 167 190
134 160 184
145 171 193
144 169 195
136 162 184
140 165 188
139 164 187
142 167 191
151 174 200
129 155 180
138 165 189
141 164 190
142 167 190
133 160 178
141 165 191
146 168 194
142 168 187
142 167 185
139 163 183
146 170 194
147 172 196
136 160 184
141 167 191
141 169 189
142 168 191
130 157 175
135 159 179
143 169 191
143 169 192
136 163 182
140 166 188
140 168 186
140 166 191
138 163 186
139 164 189
145 169 195
143 167 191
146 164 191
149 165 191
143 154 178
145 156 181
148 167 195
147 160 186
145 159 187
144 155 180
143 160 186
145 162 190
141 158 186
144 161 189
147 163 188
146 161 188
145 161 189
148 164 192
148 161 188
144 157 185
143 159 186
138 149 176
143 159 187
148 157 182
146 157 181
148 165 192
143 153 179
145 158 184
148 164 191
146 163 189
147 163 191
145 162 190
145 155 179
139 155 184
141 152 178
146 164 191
141 156 185
140 154 181
143 154 180
148 168 198
141 158 184
145 159 187
150 170 198
149 166 194
140 155 180
141 158 185
136 149 176
141 159 188
142 158 185
146 167 195
148 166 193
144 162 190
147 162 189
138 154 181
143 162 192
141 159 188
143 160 189
145 162 188
147 166 195
141 157 185
150 170 197
144 160 187
143 157 182
143 158 184
143 158 187
144 163 192
147 159 185
144 159 188
136 150 176
151 168 197
138 155 185
141 158 187
144 157 184
145 163 192
139 160 188
143 162 192
148 166 195
152 169 196
147 167 194
138 153 181
138 153 183
138 156 184
147 165 194
144 163 193
140 160 189
145 163 190
140 153 178
135 155 186
137 156 185
132 148 176
145 165 195
143 159 187
145 163 190
145 166 193
141 161 191
143 160 185
133 149 178
137 157 185
145 163 192
135 155 186
147 164 190
142 164 193
133 155 186
141 162 190
143 160 186
139 155 182
145 160 185
147 166 196
141 160 189
138 155 184
136 151 179
137 158 187
135 156 189
140 158 189
142 161 191
141 163 192
138 158 189
147 165 194
145 163 189
146 168 196
138 158 186
141 161 192
148 168 197
139 157 184
135 154 187
144 164 194
134 154 180
140 161 189
142 162 193
144 159 186
129 150 179
140 161 192
141 162 195
132 151 183
142 166 195
139 158 188
141 162 192
132 151 182
142 163 192
146 163 190
142 159 189
141 158 188
143 163 192
138 160 190
131 155 185
143 165 195
128 148 177
146 168 195
134 155 183
147 167 197
138 160 190
136 157 183
145 165 193
139 160 191
143 165 194
136 158 182
148 167 196
138 161 190
142 163 193
138 160 187
136 160 189
143 162 190
133 155 188
139 163 188
140 163 189
139 160 191
148 170 200
140 164 192
138 159 191
134 156 187
136 156 187
148 170 198
138 160 187
134 153 184
145 167 198
142 165 191
139 165 192
142 164 190
141 163 191
141 162 186
138 161 191
144 166 193
140 164 193
135 158 181
134 159 187
141 164 192
145 167 195
139 164 192
137 158 189
142 165 194
137 162 193
139 162 190
135 154 183
136 159 187
137 160 189
144 167 194
140 163 188
145 168 195
139 161 192
131 154 184
140 162 188
135 158 184
136 160 192
142 166 196
141 165 193
143 164 190
133 154 186
134 159 184
131 155 183
139 161 192
136 159 186
136 160 187
144 165 192
137 159 189
140 163 193
144 165 194
150 173 199
141 165 192
137 160 189
135 157 185
138 163 189
141 163 189
137 161 187
129 152 183
135 157 185
137 161 190
131 159 178
130 155 181
144 169 192
137 163 187
133 157 188
135 163 189
138 163 191
142 166 193
144 168 195
144 167 197
147 169 196
147 170 196
145 169 196
146 168 193
137 160 184
141 165 189
139 163 189
145 168 197
144 166 194
143 168 193
132 158 182
145 167 192
136 161 186
135 161 187
136 159 182
142 166 191
147 169 196
138 160 189
141 163 190
138 162 189
141 167 192
148 171 199
132 156 183
143 167 194
141 165 192
135 161 185
144 168 193
142 167 189
140 163 189
141 164 191
145 168 193
142 166 193
145 168 192
133 159 187
142 165 190
140 167 192
142 165 190
136 161 186
142 164 192
133 160 184
140 165 193
147 170 195
142 168 190
137 163 184
146 170 195
142 166 189
139 167 184
141 166 189
143 167 193
143 168 194
142 166 191
143 167 190
140 165 189
140 169 189
135 162 182
142 166 192
137 163 184
137 164 186
138 163 185
137 163 185
133 160 182
142 165 187
137 164 184
143 166 192
145 169 193
136 162 181
139 166 187
143 168 194
144 169 194
143 168 191
140 165 188
135 164 183
140 165 191
133 157 182
145 169 196
140 165 189
139 166 188
146 170 192
143 169 194
142 169 188
145 169 192
139 166 188
139 164 185
143 168 193
134 161 180
138 167 185
146 157 181
150 166 193
146 157 181
145 156 183
145 162 190
148 163 189
143 156 182
148 159 184
143 156 183
152 167 194
142 158 186
142 155 183
149 164 193
145 162 189
150 158 183
149 166 195
149 164 190
134 145 173
150 167 194
149 167 194
140 155 182
148 165 191
143 160 190
146 161 187
143 158 187
144 157 183
145 160 187
141 156 184
148 162 189
150 166 192
149 164 191
145 158 185
147 163 191
143 162 192
135 142 166
144 163 190
149 168 196
148 164 192
144 159 187
143 161 189
148 163 190
146 156 180
147 165 192
141 160 189
146 165 195
136 149 178
142 156 183
141 159 186
144 161 189
141 162 188
147 161 186
147 164 191
148 169 197
141 155 183
138 155 183
145 162 191
144 160 189
151 168 196
141 159 187
145 161 188
142 159 185
141 156 185
144 163 191
142 159 186
137 152 182
138 157 187
144 161 190
144 164 192
145 162 191
140 161 191
144 159 187
142 157 185
135 154 182
151 172 202
142 157 186
148 166 192
141 158 187
145 162 190
144 162 189
142 159 187
137 154 183
143 162 191
143 159 187
147 163 191
141 160 187
143 164 194
140 155 181
140 160 189
145 166 197
129 148 178
140 155 183
138 153 184
143 158 187
143 164 191
142 156 186
148 166 194
138 158 189
139 158 189
148 166 194
141 158 187
140 162 190
142 158 186
145 166 193
137 157 188
137 158 189
144 164 193
143 164 195
143 163 191
144 162 189
143 164 192
150 169 196
144 163 193
143 164 195
140 159 190
145 162 192
144 164 192
139 159 188
141 161 190
142 164 193
144 164 196
143 165 191
140 160 189
136 153 181
142 159 188
149 169 198
142 160 188
139 161 194
144 165 194
134 152 183
145 161 190
140 160 190
141 162 192
141 162 188
137 157 188
141 163 193
142 161 188
139 160 189
139 158 188
135 158 188
133 156 187
145 169 197
136 157 188
141 162 193
137 156 187
143 165 192
141 163 194
133 157 184
134 153 180
130 152 182
140 162 196
148 168 194
148 170 200
144 166 195
140 159 187
141 162 189
144 168 195
134 157 184
135 152 181
148 169 197
134 157 183
141 163 188
141 162 193
143 164 193
145 167 193
142 162 191
139 159 190
146 165 194
135 158 185
129 151 181
131 153 181
135 157 187
140 161 191
136 156 184
137 156 184
144 167 194
142 167 195
146 168 197
132 155 185
136 160 192
133 158 189
141 166 192
138 157 187
148 170 199
145 167 196
144 166 193
138 159 186
139 161 183
129 152 179
137 161 192
141 162 189
139 160 189
143 166 197
143 164 192
143 164 190
143 166 192
131 155 184
141 164 196
144 164 192
142 165 190
135 157 183
142 163 196
140 164 193
141 162 188
143 163 192
136 160 188
141 163 193
139 162 190
134 158 188
135 159 188
138 160 187
142 166 195
147 169 197
144 168 193
140 165 191
139 162 189
141 164 191
146 166 193
137 162 192
138 161 187
135 160 188
140 163 190
144 166 194
138 163 189
134 159 185
138 162 187
140 162 191
140 165 192
137 160 184
139 162 192
146 171 200
139 162 188
138 160 184
139 162 188
141 163 192
137 161 187
143 166 193
126 151 175
140 164 187
150 171 199
144 165 193
143 168 191
143 165 193
144 164 192
144 165 193
138 163 186
137 162 186
131 156 183
136 159 188
137 162 190
142 164 189
146 169 197
136 161 185
130 157 181
137 162 189
146 169 194
145 168 195
135 161 187
139 165 192
138 163 189
144 168 195
136 159 179
136 160 185
141 162 186
135 163 185
141 166 189
139 164 187
132 156 180
134 159 182
131 158 182
136 162 186
134 161 181
140 164 189
136 160 184
142 166 188
148 171 197
145 170 193
142 166 190
144 168 192
135 159 183
134 160 182
139 162 185
143 165 190
135 159 182
133 161 181
142 168 192
139 162 188
147 169 193
137 163 187
141 168 192
142 165 187
141 165 188
140 166 186
145 168 191
137 162 185
144 167 192
141 166 190
137 163 185
141 166 191
136 165 185
147 170 195
129 157 175
136 163 183
134 160 184
137 162 182
143 168 192
138 162 186
141 166 189
142 166 191
138 164 186
148 172 196
140 166 187
137 164 185
147 170 197
142 168 188
141 166 190
143 167 192
137 163 186
133 160 182
135 163 182
145 167 192
147 161 190
140 151 177
152 169 196
146 155 181
144 161 188
147 162 189
148 164 192
145 161 188
150 166 192
149 165 191
149 163 189
149 166 192
147 160 186
149 158 181
145 162 191
149 166 193
140 156 184
146 162 190
146 160 186
142 152 178
144 155 181
149 169 197
146 160 187
147 163 190
148 165 193
146 159 186
141 153 180
145 158 183
143 154 181
150 169 195
143 153 178
145 162 189
144 155 184
140 154 181
147 160 185
144 157 185
145 157 184
138 153 182
141 160 188
147 162 188
143 160 187
144 161 191
147 164 189
151 164 190
148 166 194
141 158 186
144 156 181
141 157 185
148 165 194
142 160 188
140 158 188
140 155 181
146 160 187
136 155 183
147 162 189
150 167 195
138 155 184
139 152 179
144 163 193
151 168 195
143 161 186
138 155 183
145 159 187
153 173 200
142 160 191
143 160 186
148 167 195
138 154 181
146 164 192
141 159 189
148 169 197
141 162 191
148 169 197
141 158 184
144 162 190
142 156 182
143 161 189
146 164 193
145 160 188
138 154 183
145 165 195
132 153 186
149 169 196
141 159 188
135 154 184
145 161 188
133 149 178
138 154 182
143 163 191
142 162 191
139 159 190
141 159 187
146 165 195
140 157 186
143 162 189
139 160 191
138 155 182
143 162 191
140 159 188
143 165 193
146 164 195
140 162 193
136 158 188
144 163 191
135 158 187
138 161 193
137 154 184
144 162 192
136 153 181
141 160 190
135 151 175
143 164 194
140 158 186
143 163 193
141 161 190
140 159 187
144 163 193
141 163 194
144 164 193
146 168 196
141 160 188
145 166 196
143 166 196
139 161 191
146 168 198
138 154 184
142 162 192
140 160 191
134 155 185
133 153 184
143 162 190
140 160 187
138 156 186
139 161 190
136 157 189
139 159 190
131 154 186
136 156 186
140 162 192
138 157 184
129 146 177
132 152 183
140 160 189
143 164 192
142 162 191
136 157 188
138 159 187
137 158 186
138 156 188
134 156 183
137 155 184
139 161 190
140 166 194
133 160 191
138 162 191
136 160 186
136 157 188
140 160 190
141 164 193
135 156 188
141 163 193
137 158 189
145 167 193
141 159 189
141 165 195
140 157 184
144 167 196
139 160 189
138 161 193
143 164 189
143 165 196
138 159 185
132 156 182
143 166 193
142 161 191
140 161 190
138 156 184
144 164 191
135 153 181
138 161 190
143 164 192
143 164 191
145 165 193
148 168 194
141 163 191
142 162 191
141 161 190
131 153 174
131 152 181
139 162 189
146 164 193
141 162 194
144 165 195
136 159 186
136 158 187
147 167 191
139 160 188
141 164 192
135 159 183
146 169 197
145 167 194
136 161 190
133 156 185
145 167 196
140 164 189
148 169 197
136 160 186
141 166 193
138 160 188
144 166 196
138 160 190
137 163 189
140 163 190
134 156 183
148 169 198
141 166 194
144 166 193
140 162 187
145 168 197
143 166 192
138 163 191
144 167 194
141 161 188
141 165 193
139 165 186
140 163 193
145 166 196
136 158 185
145 167 194
140 161 185
146 169 197
139 160 189
143 166 192
141 165 190
139 160 185
140 164 187
139 162 189
141 165 190
136 160 184
136 161 184
140 163 190
136 160 185
142 166 194
143 167 193
140 164 188
135 160 184
148 169 196
141 164 193
144 169 192
147 169 196
137 160 186
149 171 197
145 168 194
136 160 185
148 172 196
136 159 187
139 165 191
141 166 191
136 159 184
145 167 195
140 165 193
138 166 187
145 169 194
141 164 190
148 171 194
143 166 192
133 155 182
145 169 196
146 170 192
135 159 187
141 165 192
137 163 188
138 163 189
136 162 184
145 169 196
139 163 188
144 165 194
147 168 194
135 161 180
145 169 194
139 164 183
134 162 183
138 164 186
141 166 189
144 169 192
133 160 182
139 164 191
146 172 195
136 163 186
139 163 189
145 168 191
144 166 193
141 164 189
136 162 184
139 166 188
133 160 180
135 162 186
142 166 192
138 165 185
140 165 187
146 169 193
139 164 189
139 164 189
148 170 196
141 166 190
145 169 196
127 157 178
137 163 185
144 168 192
141 166 190
144 167 192
131 157 178
143 169 192
142 168 188
134 162 181
145 170 196
135 161 182
143 167 189
147 173 196
148 171 196
150 164 190
146 159 185
143 152 178
145 163 190
144 161 189
145 160 189
143 159 187
146 158 183
148 162 189
146 162 189
152 170 196
140 155 182
144 156 182
151 169 196
146 159 184
146 162 190
145 154 178
147 158 184
140 158 187
147 163 192
144 160 186
139 152 178
143 159 185
147 161 188
138 155 182
151 169 196
136 149 174
142 157 184
142 155 180
143 162 189
151 166 191
145 162 187
146 164 192
144 161 189
150 161 188
147 164 192
148 168 198
143 159 185
151 167 194
149 163 189
143 159 187
141 155 180
149 165 192
149 166 193
148 164 190
144 157 184
140 159 187
147 164 191
150 166 193
146 162 190
146 164 193
145 161 189
143 159 185
145 163 191
141 158 186
147 167 195
143 162 192
146 162 188
144 161 188
146 165 195
152 173 202
136 148 172
143 160 189
138 159 188
137 151 180
141 157 185
145 161 190
149 169 198
140 157 187
133 149 178
141 159 186
144 161 189
144 161 189
151 168 194
144 166 195
147 166 195
145 166 194
150 169 197
144 162 191
147 164 190
148 163 190
139 157 187
137 157 187
146 164 193
139 157 184
143 162 192
142 158 183
142 159 188
138 155 182
139 156 184
143 159 188
149 168 196
140 162 192
151 169 197
146 165 196
143 161 189
143 161 190
146 165 191
144 165 192
146 166 194
135 154 183
138 155 185
140 159 189
145 164 195
137 152 179
144 163 193
141 159 186
140 160 189
143 161 189
130 149 183
149 167 194
150 169 197
143 165 195
141 164 193
145 162 189
141 159 189
142 161 189
147 164 193
141 163 191
137 160 188
135 155 186
147 169 200
139 158 185
137 157 188
135 154 186
138 160 190
135 152 182
142 164 195
136 158 187
145 165 193
146 164 190
138 161 193
138 158 189
137 159 190
135 156 188
144 166 197
132 155 188
142 160 189
145 162 192
137 157 189
139 160 191
134 155 184
138 159 190
144 163 191
139 161 189
132 154 183
138 160 190
145 163 191
140 159 189
143 160 186
142 166 197
137 158 187
145 167 197
136 157 180
146 166 194
137 159 187
145 166 195
143 162 191
135 157 186
146 165 190
141 163 193
138 159 189
138 160 187
149 169 199
138 159 189
135 159 188
141 164 194
148 168 197
136 156 188
136 158 187
136 161 190
145 166 196
142 165 196
146 166 195
142 164 192
136 159 190
143 166 193
147 168 194
146 169 197
133 155 182
142 164 193
135 157 186
142 162 191
138 160 189
138 161 188
135 158 187
130 155 186
139 162 189
148 169 198
142 164 194
143 166 194
137 158 187
142 163 191
144 164 193
144 167 196
144 164 194
143 164 194
144 164 193
132 155 185
146 170 200
139 162 190
138 161 189
133 157 189
142 164 190
142 163 189
139 161 187
143 163 193
140 162 190
136 159 187
140 166 193
141 165 192
135 162 186
144 166 195
140 162 191
140 162 190
142 165 194
145 167 193
140 162 189
137 160 190
141 164 192
139 162 187
140 163 193
130 154 182
146 168 192
136 161 189
141 165 189
137 160 182
134 158 184
146 169 195
138 161 193
139 163 192
133 156 183
144 168 193
145 166 193
134 158 185
136 161 191
141 163 190
135 158 184
141 163 190
141 164 190
144 166 193
140 161 188
141 166 191
141 164 190
136 160 184
136 162 185
136 163 186
135 161 187
133 159 187
143 166 195
146 167 194
144 165 193
142 165 191
135 161 179
147 172 198
142 165 194
144 167 191
137 163 186
131 156 180
143 168 190
136 159 186
138 164 190
135 158 182
134 160 179
143 168 191
144 169 195
146 171 193
144 168 193
143 166 193
140 164 189
136 161 188
134 159 183
139 163 192
141 165 189
146 169 195
149 172 198
141 166 189
139 166 188
141 162 186
145 170 197
136 160 185
145 171 193
136 164 184
142 166 196
129 156 180
133 158 179
143 168 193
143 169 190
141 164 192
133 158 183
136 162 184
139 165 188
134 161 183
133 158 180
143 167 189
142 166 193
143 169 192
142 167 188
149 170 198
139 165 188
141 166 188
144 166 192
140 163 187
137 162 184
145 169 192
144 167 193
143 168 191
137 163 185
142 166 193
139 165 187
142 166 190
140 165 189
142 168 190
138 161 184
137 163 186
144 169 194
141 167 190
148 171 195
137 163 186
134 162 180
147 164 190
151 170 198
148 159 184
146 159 185
139 152 179
144 156 183
147 162 189
140 156 183
148 163 190
141 151 178
148 168 195
145 159 185
147 157 184
147 163 190
150 169 198
147 162 189
146 162 188
149 166 193
147 162 188
144 162 190
149 165 193
143 159 187
147 162 189
142 157 185
141 155 181
143 161 189
141 155 180
147 162 190
145 162 188
146 160 186
143 158 186
136 155 185
144 161 187
145 158 183
140 157 184
148 169 198
139 155 185
144 159 188
144 164 191
142 158 187
145 159 185
140 159 185
146 164 193
140 155 185
136 146 173
142 160 186
143 155 182
142 162 193
149 165 192
151 165 191
148 167 194
151 171 199
147 162 189
144 157 184
142 159 185
148 165 193
139 158 189
142 161 191
145 164 193
145 162 190
141 158 186
144 159 185
144 161 191
145 162 191
145 161 188
141 156 182
139 154 182
142 160 189
146 166 193
142 158 184
147 166 194
141 160 189
145 163 191
144 163 191
141 158 187
149 165 191
148 168 196
141 159 186
143 162 192
146 164 192
141 159 186
135 156 186
142 161 189
140 156 184
143 161 191
142 165 193
146 164 192
143 161 188
140 160 188
142 161 187
143 163 192
132 156 187
145 162 191
144 162 190
139 154 182
146 166 195
147 164 191
139 160 189
141 160 188
138 160 190
141 161 191
147 167 198
140 163 195
139 157 185
148 169 199
141 161 190
141 161 192
141 157 182
142 162 193
132 154 182
142 161 190
140 163 191
143 166 195
141 158 187
144 166 196
138 159 190
134 150 179
142 161 189
144 163 192
140 161 190
135 156 188
138 159 190
137 158 191
143 166 197
144 165 196
144 165 196
138 156 186
140 160 189
137 159 187
143 164 193
139 159 188
133 154 181
141 162 193
146 165 194
143 161 188
142 161 189
140 159 185
144 166 196
133 154 185
140 163 192
147 169 197
131 152 181
140 162 192
143 165 193
141 163 191
140 160 190
141 161 191
135 158 190
138 160 189
146 168 198
132 153 184
143 164 193
140 159 189
147 169 197
139 160 191
139 160 187
141 163 193
138 157 185
139 163 190
144 167 197
137 159 186
142 161 192
140 163 191
143 161 190
144 165 192
134 156 190
136 158 187
141 161 191
138 160 187
134 158 188
138 161 189
148 168 196
138 160 189
145 165 192
134 158 183
133 156 184
139 162 193
143 165 193
126 149 177
142 162 193
135 156 184
143 166 197
138 161 189
140 162 189
142 165 193
139 164 193
133 157 186
137 160 189
135 157 187
136 158 187
138 162 189
139 160 191
146 168 194
136 159 188
136 159 186
140 162 190
140 161 188
146 169 198
144 165 193
134 156 184
139 162 188
142 166 193
146 166 194
139 162 196
144 165 192
142 165 195
145 170 196
147 170 198
143 166 195
139 160 189
134 159 185
134 159 184
147 168 196
132 154 181
140 165 190
139 161 188
140 161 189
140 162 191
146 168 194
145 167 198
139 161 187
144 169 191
140 162 191
144 167 195
147 170 197
144 168 196
137 160 188
137 159 185
143 167 194
136 161 190
142 166 196
138 161 186
144 166 193
139 163 190
145 168 194
141 165 192
144 166 193
144 167 195
138 164 189
135 161 185
129 154 182
143 167 192
144 165 189
148 170 198
137 163 188
139 165 189
139 164 192
143 167 196
147 168 194
130 157 179
139 163 190
142 167 190
142 165 194
146 167 194
142 165 192
145 167 191
142 166 193
138 163 189
141 165 191
139 164 190
140 163 190
142 163 188
145 169 193
140 164 187
137 162 187
142 167 191
146 169 194
142 166 189
139 163 188
130 159 179
139 164 187
136 162 188
135 161 183
146 168 196
139 163 187
140 165 187
150 173 197
141 166 192
143 168 193
143 170 192
145 169 196
145 169 192
137 163 185
135 164 181
141 165 189
150 173 197
141 165 190
137 165 186
147 171 195
142 168 193
141 164 188
146 168 194
138 165 189
139 165 185
135 160 180
140 167 188
141 165 191
147 169 195
139 166 190
143 167 192
144 167 195
135 162 185
141 164 189
143 167 191
130 156 179
143 169 191
147 171 194
135 160 184
137 164 184
142 169 189
147 171 198
139 164 184
133 161 181
139 166 186
142 167 188
143 168 192
138 165 187
140 166 186
138 164 186
142 166 191
137 146 175
140 155 182
146 160 187
147 162 188
142 154 179
142 156 183
148 164 191
140 151 178
149 168 196
147 162 188
144 158 184
151 162 188
151 167 193
145 162 189
146 159 184
146 163 190
147 163 192
145 157 184
143 153 179
150 166 193
144 158 185
147 165 193
149 168 195
145 159 185
148 165 193
142 156 184
145 159 187
149 164 192
150 165 193
143 161 191
141 157 184
147 164 192
147 162 189
149 167 196
144 156 182
148 163 189
145 163 190
147 163 190
145 164 193
145 163 189
144 159 187
145 161 189
145 163 189
147 163 188
149 162 187
150 166 192
143 159 189
144 161 190
146 162 190
152 171 199
148 165 194
143 158 187
147 165 193
143 160 189
145 164 191
143 160 187
136 154 183
146 161 188
146 164 192
150 167 194
143 161 191
144 163 192
140 158 188
149 168 197
137 157 188
148 168 198
149 165 193
148 167 196
145 161 189
137 152 181
146 164 191
144 163 194
143 159 185
145 163 193
147 168 198
144 165 193
144 162 191
149 170 197
142 162 194
144 165 192
140 157 185
137 154 184
147 168 197
143 160 188
143 162 192
140 158 187
146 167 198
139 156 185
141 159 187
151 171 199
147 164 194
145 162 191
139 161 189
140 156 185
137 154 184
145 164 194
139 159 190
141 160 187
150 167 194
140 160 190
152 172 201
136 157 189
138 157 187
139 160 188
141 159 188
140 160 188
138 160 191
134 154 183
142 163 194
141 163 195
141 161 191
143 163 192
145 163 192
145 167 197
144 163 190
142 164 189
143 163 193
145 167 192
142 162 193
142 162 189
141 160 190
142 166 192
137 156 184
145 166 196
141 161 192
131 153 186
143 160 189
135 156 185
144 166 195
135 154 182
131 151 180
146 166 196
143 163 191
142 159 189
147 168 196
145 161 189
143 165 194
143 165 192
144 167 199
138 155 184
143 163 191
139 159 190
136 156 188
139 159 191
146 168 196
140 161 188
142 159 188
135 158 185
147 166 193
139 159 190
136 157 188
140 163 194
141 162 188
138 161 191
142 163 193
144 162 191
142 162 189
145 167 197
139 159 187
137 160 188
140 164 196
141 164 190
137 160 186
143 165 194
139 158 188
142 164 194
138 158 189
143 163 189
144 164 194
143 163 190
142 160 189
136 158 186
140 164 195
141 162 190
146 166 193
132 155 186
138 160 190
144 165 195
136 161 187
145 165 191
133 156 186
144 165 193
139 160 190
145 166 195
135 158 189
143 165 192
140 161 190
139 162 191
136 162 186
138 162 191
141 163 193
139 163 191
140 161 192
143 166 193
139 164 188
147 169 198
140 161 191
132 156 183
139 163 193
147 170 197
137 160 186
133 158 182
141 164 192
142 163 190
131 154 182
141 164 193
139 162 193
142 165 191
137 161 186
147 168 196
142 166 189
134 157 185
139 160 190
141 165 193
143 164 192
142 165 193
134 158 183
141 165 191
141 163 192
136 161 186
141 162 187
143 164 191
143 167 195
139 163 187
136 158 185
137 162 187
140 164 190
146 168 193
142 165 192
143 168 192
144 168 196
148 168 195
137 163 186
136 158 185
136 160 186
138 164 190
140 164 189
141 165 191
142 166 190
137 161 192
136 162 187
150 171 198
133 160 185
128 153 183
140 160 188
144 168 193
137 161 190
141 166 189
140 163 191
139 162 189
133 156 182
145 169 195
145 168 196
131 155 183
141 165 191
138 162 187
140 163 191
141 166 191
147 169 196
147 169 197
139 165 188
143 168 193
147 171 195
146 169 193
140 162 187
147 170 198
142 166 194
151 173 200
136 162 184
136 159 185
143 167 191
140 164 187
136 163 184
143 168 195
136 164 189
143 168 195
148 171 201
137 162 187
143 167 192
144 168 193
147 171 196
145 170 196
136 163 187
140 164 186
141 166 189
134 161 182
139 164 187
140 165 189
144 169 193
140 163 191
141 165 191
145 168 198
142 167 188
135 160 184
137 161 190
139 166 186
145 168 194
144 168 189
141 166 189
141 166 187
147 172 199
141 165 192
144 169 193
147 170 195
144 170 193
136 161 185
135 162 183
140 164 188
141 164 188
148 172 194
141 167 188
145 169 193
140 166 188
139 166 187
143 169 188
146 170 195
142 168 187
142 167 188
139 166 184
137 164 189
