P3
320 180
255
204 226 255
204 226 255
204 226 255
204 226 255
204 226 255
204 226 255
204 226 255
204 226 255
204 226 255
204 226 255
204 226 255
204 226 255
203 226 255
203 226 255
203 226 255
203 226 255
203 226 255
203 226 255
203 226 255
203 225 255
203 225 255
203 225 255
203 225 255
203 225 255
203 225 255
203 225 255
202 225 255
202 225 255
202 225 255
202 225 255
202 225 255
202 225 255
202 225 255
202 225 255
202 225 255
202 225 255
202 225 255
202 225 255
202 225 255
201 225 255
201 225 255
201 225 255
201 224 255
201 224 255
201 224 255
201 224 255
201 224 255
201 224 255
201 224 255
201 224 255
201 224 255
200 224 255
200 224 255
200 224 255
200 224 255
200 224 255
200 224 255
200 224 255
200 224 255
200 224 255
200 224 255
200 224 255
199 224 255
199 224 255
199 223 255
199 223 255
199 223 255
199 223 255
199 223 255
199 223 255
199 223 255
199 223 255
199 223 255
199 223 255
198 223 255
198 223 255
198 223 255
198 223 255
198 223 255
198 223 255
198 223 255
198 223 255
198 223 255
198 223 255
198 223 255
197 222 255
197 222 255
197 222 255
197 222 255
197 222 255
197 222 255
197 222 255
197 222 255
197 222 255
197 222 255
197 222 255
197 222 255
196 222 255
196 222 255
196 222 255
196 222 255
196 222 255
196 222 255
196 222 255
196 222 255
196 222 255
196 222 255
196 222 255
196 221 255
196 221 255
195 221 255
195 221 255
195 221 255
195 221 255
195 221 255
195 221 255
195 221 255
195 221 255
195 221 255
195 221 255
195 221 255
195 221 255
195 221 255
195 221 255
194 221 255
194 221 255
194 221 255
194 221 255
194 221 255
194 221 255
194 221 255
194 221 255
194 221 255
194 221 255
194 221 255
194 221 255
194 221 255
194 221 255
194 221 255
194 221 255
194 221 255
194 221 255
194 220 255
194 220 255
194 220 255
194 220 255
194 220 255
194 220 255
194 220 255
194 220 255
193 220 255
193 220 255
193 220 255
193 220 255
193 220 255
193 220 255
193 220 255
193 220 255
193 220 255
193 220 255
193 220 255
193 220 255
193 220 255
193 220 255
193 220 255
193 220 255
193 220 255
193 220 255
193 220 255
193 220 255
194 220 255
194 220 255
194 220 255
194 220 255
194 220 255
194 220 255
194 220 255
194 220 255
194 221 255
194 221 255
194 221 255
194 221 255
194 221 255
194 221 255
194 221 255
194 221 255
194 221 255
194 221 255
194 221 255
194 221 255
194 221 255
194 221 255
194 221 255
194 221 255
194 221 255
195 221 255
195 221 255
195 221 255
195 221 255
195 221 255
195 221 255
195 221 255
195 221 255
195 221 255
195 221 255
195 221 255
195 221 255
195 221 255
195 221 255
195 221 255
195 221 255
196 222 255
196 222 255
196 222 255
196 222 255
196 222 255
196 222 255
196 222 255
196 222 255
196 222 255
196 222 255
196 222 255
196 222 255
197 222 255
197 222 255
197 222 255
197 222 255
197 222 255
197 222 255
197 222 255
197 222 255
197 222 255
197 222 255
197 222 255
197 222 255
198 223 255
198 223 255
198 223 255
198 223 255
198 223 255
198 223 255
198 223 255
198 223 255
198 223 255
198 223 255
198 223 255
199 223 255
199 223 255
199 223 255
199 223 255
199 223 255
199 223 255
199 223 255
199 223 255
199 223 255
199 223 255
199 224 255
199 224 255
200 224 255
200 224 255
200 224 255
200 224 255
200 224 255
200 224 255
200 224 255
200 224 255
200 224 255
200 224 255
200 224 255
201 224 255
201 224 255
201 224 255
201 224 255
201 224 255
201 224 255
201 224 255
201 224 255
201 224 255
201 225 255
201 225 255
201 225 255
201 225 255
202 225 255
202 225 255
202 225 255
202 225 255
202 225 255
202 225 255
202 225 255
202 225 255
202 225 255
202 225 255
202 225 255
202 225 255
203 225 255
203 225 255
203 225 255
203 225 255
203 225 255
203 225 255
203 225 255
203 226 255
203 226 255
203 226 255
203 226 255
203 226 255
203 226 255
204 226 255
204 226 255
204 226 255
204 226 255
204 226 255
204 226 255
204 226 255
204 226 255
204 226 255
204 226 255
204 226 255
204 226 255
204 226 255
204 226 255
204 226 255
204 226 255
204 226 255
204 226 255
204 226 255
204 226 255
204 226 255
204 226 255
204 226 255
204 226 255
204 226 255
204 226 255
204 226 255
204 226 255
203 226 255
203 226 255
203 226 255
203 226 255
203 226 255
203 226 255
203 225 255
203 225 255
203 225 255
203 225 255
203 225 255
203 225 255
203 225 255
202 225 255
202 225 255
202 225 255
202 225 255
202 225 255
202 225 255
202 225 255
202 225 255
202 225 255
202 225 255
202 225 255
202 225 255
202 225 255
201 225 255
201 225 255
201 225 255
201 224 255
201 224 255
201 224 255
201 224 255
201 224 255
201 224 255
201 224 255
201 224 255
201 224 255
200 224 255
200 224 255
200 224 255
200 224 255
200 224 255
200 224 255
200 224 255
200 224 255
200 224 255
200 224 255
200 224 255
199 224 255
199 224 255
199 223 255
199 223 255
199 223 255
199 223 255
199 223 255
199 223 255
199 223 255
199 223 255
199 223 255
199 223 255
198 223 255
198 223 255
198 223 255
198 223 255
198 223 255
198 223 255
198 223 255
198 223 255
198 223 255
198 223 255
198 223 255
197 222 255
197 222 255
197 222 255
197 222 255
197 222 255
197 222 255
197 222 255
197 222 255
197 222 255
197 222 255
197 222 255
197 222 255
196 222 255
196 222 255
196 222 255
196 222 255
196 222 255
196 222 255
196 222 255
196 222 255
196 222 255
196 222 255
196 222 255
196 222 255
196 221 255
195 221 255
195 221 255
195 221 255
195 221 255
195 221 255
195 221 255
195 221 255
195 221 255
195 221 255
195 221 255
195 221 255
195 221 255
195 221 255
195 221 255
195 221 255
195 221 255
194 221 255
194 221 255
194 221 255
194 221 255
194 221 255
194 221 255
194 221 255
194 221 255
194 221 255
194 221 255
194 221 255
194 221 255
194 221 255
194 221 255
194 221 255
194 221 255
194 221 255
194 221 255
194 221 255
194 221 255
194 221 255
194 220 255
194 220 255
194 220 255
194 220 255
194 220 255
194 220 255
194 220 255
194 220 255
194 220 255
194 220 255
194 220 255
194 220 255
194 220 255
194 220 255
194 220 255
194 220 255
194 220 255
194 220 255
194 220 255
194 220 255
194 220 255
194 220 255
194 220 255
194 221 255
194 221 255
194 221 255
194 221 255
194 221 255
194 221 255
194 221 255
194 221 255
194 221 255
194 221 255
194 221 255
194 221 255
194 221 255
194 221 255
194 221 255
194 221 255
194 221 255
194 221 255
194 221 255
194 221 255
195 221 255
195 221 255
195 221 255
195 221 255
195 221 255
195 221 255
195 221 255
195 221 255
195 221 255
195 221 255
195 221 255
195 221 255
195 221 255
195 221 255
195 221 255
195 221 255
196 221 255
196 222 255
196 222 255
196 222 255
196 222 255
196 222 255
196 222 255
196 222 255
196 222 255
196 222 255
196 222 255
196 222 255
196 222 255
197 222 255
197 222 255
197 222 255
197 222 255
197 222 255
197 222 255
197 222 255
197 222 255
197 222 255
197 222 255
197 222 255
197 222 255
198 223 255
198 223 255
198 223 255
198 223 255
198 223 255
198 223 255
198 223 255
198 223 255
198 223 255
198 223 255
198 223 255
199 223 255
199 223 255
199 223 255
199 223 255
199 223 255
199 223 255
199 223 255
199 223 255
199 223 255
199 223 255
199 224 255
199 224 255
200 224 255
200 224 255
200 224 255
200 224 255
200 224 255
200 224 255
200 224 255
200 224 255
200 224 255
200 224 255
200 224 255
201 224 255
201 224 255
201 224 255
201 224 255
201 224 255
201 224 255
201 224 255
201 224 255
201 224 255
201 225 255
201 225 255
201 225 255
202 225 255
202 225 255
202 225 255
202 225 255
202 225 255
202 225 255
202 225 255
202 225 255
202 225 255
202 225 255
202 225 255
202 225 255
202 225 255
203 225 255
203 225 255
203 225 255
203 225 255
203 225 255
203 225 255
203 225 255
203 226 255
203 226 255
203 226 255
203 226 255
203 226 255
203 226 255
204 226 255
204 226 255
204 226 255
204 226 255
204 226 255
204 226 255
204 226 255
204 226 255
204 226 255
204 226 255
204 226 255
204 226 255
204 226 255
204 226 255
204 226 255
205 226 255
205 226 255
205 226 255
204 226 255
204 226 255
204 226 255
204 226 255
204 226 255
204 226 255
204 226 255
204 226 255
204 226 255
204 226 255
204 226 255
204 226 255
204 226 255
204 226 255
203 226 255
203 226 255
203 226 255
203 226 255
203 226 255
203 226 255
203 225 255
203 225 255
203 225 255
203 225 255
203 225 255
203 225 255
203 225 255
202 225 255
202 225 255
202 225 255
202 225 255
202 225 255
202 225 255
202 225 255
202 225 255
202 225 255
202 225 255
202 225 255
202 225 255
202 225 255
201 225 255
201 225 255
201 225 255
201 224 255
201 224 255
201 224 255
201 224 255
201 224 255
201 224 255
201 224 255
201 224 255
201 224 255
200 224 255
200 224 255
200 224 255
200 224 255
200 224 255
200 224 255
200 224 255
200 224 255
200 224 255
200 224 255
200 224 255
199 224 255
199 224 255
199 223 255
199 223 255
199 223 255
199 223 255
199 223 255
199 223 255
199 223 255
199 223 255
199 223 255
199 223 255
198 223 255
198 223 255
198 223 255
198 223 255
198 223 255
198 223 255
198 223 255
198 223 255
198 223 255
198 223 255
198 223 255
197 223 255
197 222 255
197 222 255
197 222 255
197 222 255
197 222 255
197 222 255
197 222 255
197 222 255
197 222 255
197 222 255
197 222 255
196 222 255
196 222 255
196 222 255
196 222 255
196 222 255
196 222 255
196 222 255
196 222 255
196 222 255
196 222 255
196 222 255
196 222 255
196 221 255
196 221 255
195 221 255
195 221 255
195 221 255
195 221 255
195 221 255
195 221 255
195 221 255
195 221 255
195 221 255
195 221 255
195 221 255
195 221 255
195 221 255
195 221 255
195 221 255
195 221 255
194 221 255
194 221 255
194 221 255
194 221 255
194 221 255
194 221 255
194 221 255
194 221 255
194 221 255
194 221 255
194 221 255
194 221 255
194 221 255
194 221 255
194 221 255
194 221 255
194 221 255
194 221 255
194 221 255
194 221 255
194 221 255
194 221 255
194 221 255
194 221 255
194 221 255
194 221 255
194 221 255
194 221 255
194 221 255
194 221 255
194 221 255
194 221 255
194 221 255
194 221 255
194 221 255
194 221 255
194 221 255
194 221 255
194 221 255
194 221 255
194 221 255
194 221 255
194 221 255
194 221 255
194 221 255
194 221 255
194 221 255
194 221 255
194 221 255
194 221 255
194 221 255
194 221 255
194 221 255
194 221 255
194 221 255
194 221 255
194 221 255
194 221 255
195 221 255
195 221 255
195 221 255
195 221 255
195 221 255
195 221 255
195 221 255
195 221 255
195 221 255
195 221 255
195 221 255
195 221 255
195 221 255
195 221 255
195 221 255
195 221 255
195 221 255
196 221 255
196 222 255
196 222 255
196 222 255
196 222 255
196 222 255
196 222 255
196 222 255
196 222 255
196 222 255
196 222 255
196 222 255
196 222 255
197 222 255
197 222 255
197 222 255
197 222 255
197 222 255
197 222 255
197 222 255
197 222 255
197 222 255
197 222 255
197 222 255
197 222 255
198 223 255
198 223 255
198 223 255
198 223 255
198 223 255
198 223 255
198 223 255
198 223 255
198 223 255
198 223 255
198 223 255
199 223 255
199 223 255
199 223 255
199 223 255
199 223 255
199 223 255
199 223 255
199 223 255
199 223 255
199 223 255
199 224 255
199 224 255
200 224 255
200 224 255
200 224 255
200 224 255
200 224 255
200 224 255
200 224 255
200 224 255
200 224 255
200 224 255
200 224 255
201 224 255
201 224 255
201 224 255
201 224 255
201 224 255
201 224 255
201 224 255
201 224 255
201 225 255
201 225 255
201 225 255
201 225 255
202 225 255
202 225 255
202 225 255
202 225 255
202 225 255
202 225 255
202 225 255
202 225 255
202 225 255
202 225 255
202 225 255
202 225 255
202 225 255
203 225 255
203 225 255
203 225 255
203 225 255
203 225 255
203 225 255
203 225 255
203 226 255
203 226 255
203 226 255
203 226 255
203 226 255
203 226 255
204 226 255
204 226 255
204 226 255
204 226 255
204 226 255
204 226 255
204 226 255
204 226 255
204 226 255
204 226 255
204 226 255
204 226 255
204 226 255
204 226 255
205 226 255
205 226 255
205 226 255
205 226 255
205 226 255
205 226 255
205 226 255
205 226 255
204 226 255
204 226 255
204 226 255
204 226 255
204 226 255
204 226 255
204 226 255
204 226 255
204 226 255
204 226 255
204 226 255
204 226 255
204 226 255
204 226 255
203 226 255
203 226 255
203 226 255
203 226 255
203 226 255
203 226 255
203 225 255
203 225 255
203 225 255
203 225 255
203 225 255
203 225 255
203 225 255
203 225 255
202 225 255
202 225 255
202 225 255
202 225 255
202 225 255
202 225 255
202 225 255
202 225 255
202 225 255
202 225 255
202 225 255
202 225 255
201 225 255
201 225 255
201 225 255
201 224 255
201 224 255
201 224 255
201 224 255
201 224 255
201 224 255
201 224 255
201 224 255
201 224 255
200 224 255
200 224 255
200 224 255
200 224 255
200 224 255
200 224 255
200 224 255
200 224 255
200 224 255
200 224 255
200 224 255
199 224 255
199 224 255
199 223 255
199 223 255
199 223 255
199 223 255
199 223 255
199 223 255
199 223 255
199 223 255
199 223 255
199 223 255
198 223 255
198 223 255
198 223 255
198 223 255
198 223 255
198 223 255
198 223 255
198 223 255
198 223 255
198 223 255
198 223 255
197 223 255
197 222 255
197 222 255
197 222 255
197 222 255
197 222 255
197 222 255
197 222 255
197 222 255
197 222 255
197 222 255
197 222 255
196 222 255
196 222 255
196 222 255
196 222 255
196 222 255
196 222 255
196 222 255
196 222 255
196 222 255
196 222 255
196 222 255
196 222 255
196 222 255
196 221 255
195 221 255
195 221 255
195 221 255
195 221 255
195 221 255
195 221 255
195 221 255
195 221 255
195 221 255
195 221 255
195 221 255
195 221 255
195 221 255
195 221 255
195 221 255
195 221 255
195 221 255
195 221 255
194 221 255
194 221 255
194 221 255
194 221 255
194 221 255
194 221 255
194 221 255
194 221 255
194 221 255
194 221 255
194 221 255
194 221 255
194 221 255
194 221 255
194 221 255
194 221 255
194 221 255
194 221 255
194 221 255
194 221 255
194 221 255
194 221 255
194 221 255
194 221 255
194 221 255
194 221 255
194 221 255
194 221 255
194 221 255
194 221 255
194 221 255
194 221 255
194 221 255
194 221 255
194 221 255
194 221 255
194 221 255
194 221 255
194 221 255
194 221 255
194 221 255
194 221 255
194 221 255
194 221 255
194 221 255
194 221 255
194 221 255
194 221 255
194 221 255
194 221 255
195 221 255
195 221 255
195 221 255
195 221 255
195 221 255
195 221 255
195 221 255
195 221 255
195 221 255
195 221 255
195 221 255
195 221 255
195 221 255
195 221 255
195 221 255
195 221 255
195 221 255
195 221 255
196 221 255
196 222 255
196 222 255
196 222 255
196 222 255
196 222 255
196 222 255
196 222 255
196 222 255
196 222 255
196 222 255
196 222 255
196 222 255
196 222 255
197 222 255
197 222 255
197 222 255
197 222 255
197 222 255
197 222 255
197 222 255
197 222 255
197 222 255
197 222 255
197 222 255
197 223 255
198 223 255
198 223 255
198 223 255
198 223 255
198 223 255
198 223 255
198 223 255
198 223 255
198 223 255
198 223 255
198 223 255
199 223 255
199 223 255
199 223 255
199 223 255
199 223 255
199 223 255
199 223 255
199 223 255
199 223 255
199 223 255
199 224 255
199 224 255
200 224 255
200 224 255
200 224 255
200 224 255
200 224 255
200 224 255
200 224 255
200 224 255
200 224 255
200 224 255
200 224 255
201 224 255
201 224 255
201 224 255
201 224 255
201 224 255
201 224 255
201 224 255
201 224 255
201 225 255
201 225 255
201 225 255
201 225 255
202 225 255
202 225 255
202 225 255
202 225 255
202 225 255
202 225 255
202 225 255
202 225 255
202 225 255
202 225 255
202 225 255
202 225 255
203 225 255
203 225 255
203 225 255
203 225 255
203 225 255
203 225 255
203 225 255
203 225 255
203 226 255
203 226 255
203 226 255
203 226 255
203 226 255
203 226 255
204 226 255
204 226 255
204 226 255
204 226 255
204 226 255
204 226 255
204 226 255
204 226 255
204 226 255
204 226 255
204 226 255
204 226 255
204 226 255
204 226 255
205 226 255
205 226 255
205 226 255
205 226 255
205 226 255
205 227 255
205 226 255
205 226 255
205 226 255
205 226 255
205 226 255
205 226 255
205 226 255
204 226 255
204 226 255
204 226 255
204 226 255
204 226 255
204 226 255
204 226 255
204 226 255
204 226 255
204 226 255
204 226 255
204 226 255
204 226 255
204 226 255
203 226 255
203 226 255
203 226 255
203 226 255
203 226 255
203 225 255
203 225 255
203 225 255
203 225 255
203 225 255
203 225 255
203 225 255
203 225 255
202 225 255
202 225 255
202 225 255
202 225 255
202 225 255
202 225 255
202 225 255
202 225 255
202 225 255
202 225 255
202 225 255
202 225 255
201 225 255
201 225 255
201 225 255
201 225 255
201 224 255
201 224 255
201 224 255
201 224 255
201 224 255
201 224 255
201 224 255
201 224 255
200 224 255
200 224 255
200 224 255
200 224 255
200 224 255
200 224 255
200 224 255
200 224 255
200 224 255
200 224 255
200 224 255
199 224 255
199 224 255
199 223 255
199 223 255
199 223 255
199 223 255
199 223 255
199 223 255
199 223 255
199 223 255
199 223 255
199 223 255
198 223 255
198 223 255
198 223 255
198 223 255
198 223 255
198 223 255
198 223 255
198 223 255
198 223 255
198 223 255
198 223 255
197 223 255
197 222 255
197 222 255
197 222 255
197 222 255
197 222 255
197 222 255
197 222 255
197 222 255
197 222 255
197 222 255
197 222 255
197 222 255
196 222 255
196 222 255
196 222 255
196 222 255
196 222 255
196 222 255
196 222 255
196 222 255
196 222 255
196 222 255
196 222 255
196 222 255
196 222 255
196 221 255
195 221 255
195 221 255
195 221 255
195 221 255
195 221 255
195 221 255
195 221 255
195 221 255
195 221 255
195 221 255
195 221 255
195 221 255
195 221 255
195 221 255
195 221 255
195 221 255
195 221 255
195 221 255
195 221 255
194 221 255
194 221 255
194 221 255
194 221 255
194 221 255
194 221 255
194 221 255
194 221 255
194 221 255
194 221 255
194 221 255
194 221 255
194 221 255
194 221 255
194 221 255
194 221 255
194 221 255
194 221 255
194 221 255
194 221 255
194 221 255
194 221 255
194 221 255
194 221 255
194 221 255
194 221 255
194 221 255
194 221 255
194 221 255
194 221 255
194 221 255
194 221 255
194 221 255
194 221 255
194 221 255
194 221 255
194 221 255
194 221 255
194 221 255
194 221 255
194 221 255
194 221 255
195 221 255
195 221 255
195 221 255
195 221 255
195 221 255
195 221 255
195 221 255
195 221 255
195 221 255
195 221 255
195 221 255
195 221 255
195 221 255
195 221 255
195 221 255
195 221 255
195 221 255
195 221 255
195 221 255
196 221 255
196 222 255
196 222 255
196 222 255
196 222 255
196 222 255
196 222 255
196 222 255
196 222 255
196 222 255
196 222 255
196 222 255
196 222 255
196 222 255
197 222 255
197 222 255
197 222 255
197 222 255
197 222 255
197 222 255
197 222 255
197 222 255
197 222 255
197 222 255
197 222 255
197 222 255
198 223 255
198 223 255
198 223 255
198 223 255
198 223 255
198 223 255
198 223 255
198 223 255
198 223 255
198 223 255
198 223 255
198 223 255
199 223 255
199 223 255
199 223 255
199 223 255
199 223 255
199 223 255
199 223 255
199 223 255
199 223 255
199 223 255
199 224 255
199 224 255
200 224 255
200 224 255
200 224 255
200 224 255
200 224 255
200 224 255
200 224 255
200 224 255
200 224 255
200 224 255
200 224 255
201 224 255
201 224 255
201 224 255
201 224 255
201 224 255
201 224 255
201 224 255
201 224 255
201 225 255
201 225 255
201 225 255
201 225 255
202 225 255
202 225 255
202 225 255
202 225 255
202 225 255
202 225 255
202 225 255
202 225 255
202 225 255
202 225 255
202 225 255
202 225 255
203 225 255
203 225 255
203 225 255
203 225 255
203 225 255
203 225 255
203 225 255
203 225 255
203 226 255
203 226 255
203 226 255
203 226 255
203 226 255
204 226 255
204 226 255
204 226 255
204 226 255
204 226 255
204 226 255
204 226 255
204 226 255
204 226 255
204 226 255
204 226 255
204 226 255
204 226 255
204 226 255
205 226 255
205 226 255
205 226 255
205 226 255
205 226 255
205 226 255
205 227 255
205 227 255
205 227 255
205 227 255
205 227 255
205 227 255
205 226 255
205 226 255
205 226 255
205 226 255
205 226 255
205 226 255
204 226 255
204 226 255
204 226 255
204 226 255
204 226 255
204 226 255
204 226 255
204 226 255
204 226 255
204 226 255
204 226 255
204 226 255
204 226 255
204 226 255
203 226 255
203 226 255
203 226 255
203 226 255
203 226 255
203 226 255
203 225 255
203 225 255
203 225 255
203 225 255
203 225 255
203 225 255
203 225 255
202 225 255
202 225 255
202 225 255
202 225 255
202 225 255
202 225 255
202 225 255
202 225 255
202 225 255
202 225 255
202 225 255
202 225 255
201 225 255
201 225 255
201 225 255
201 225 255
201 224 255
201 224 255
201 224 255
201 224 255
201 224 255
201 224 255
201 224 255
201 224 255
200 224 255
200 224 255
200 224 255
200 224 255
200 224 255
200 224 255
200 224 255
200 224 255
200 224 255
200 224 255
200 224 255
200 224 255
199 224 255
199 224 255
199 223 255
199 223 255
199 223 255
199 223 255
199 223 255
199 223 255
199 223 255
199 223 255
199 223 255
198 223 255
198 223 255
198 223 255
198 223 255
198 223 255
198 223 255
198 223 255
198 223 255
198 223 255
198 223 255
198 223 255
198 223 255
197 222 255
197 222 255
197 222 255
197 222 255
197 222 255
197 222 255
197 222 255
197 222 255
197 222 255
197 222 255
197 222 255
197 222 255
196 222 255
196 222 255
196 222 255
196 222 255
196 222 255
196 222 255
196 222 255
196 222 255
196 222 255
196 222 255
196 222 255
196 222 255
196 222 255
196 222 255
196 221 255
195 221 255
195 221 255
195 221 255
195 221 255
195 221 255
195 221 255
195 221 255
195 221 255
195 221 255
195 221 255
195 221 255
195 221 255
195 221 255
195 221 255
195 221 255
195 221 255
195 221 255
195 221 255
195 221 255
195 221 255
195 221 255
194 221 255
194 221 255
194 221 255
194 221 255
194 221 255
194 221 255
194 221 255
194 221 255
194 221 255
194 221 255
194 221 255
194 221 255
194 221 255
194 221 255
194 221 255
194 221 255
194 221 255
194 221 255
194 221 255
194 221 255
194 221 255
194 221 255
194 221 255
194 221 255
194 221 255
194 221 255
194 221 255
194 221 255
194 221 255
194 221 255
194 221 255
195 221 255
195 221 255
195 221 255
195 221 255
195 221 255
195 221 255
195 221 255
195 221 255
195 221 255
195 221 255
195 221 255
195 221 255
195 221 255
195 221 255
195 221 255
195 221 255
195 221 255
195 221 255
195 221 255
195 221 255
195 221 255
195 221 255
196 221 255
196 221 255
196 222 255
196 222 255
196 222 255
196 222 255
196 222 255
196 222 255
196 222 255
196 222 255
196 222 255
196 222 255
196 222 255
196 222 255
196 222 255
197 222 255
197 222 255
197 222 255
197 222 255
197 222 255
197 222 255
197 222 255
197 222 255
197 222 255
197 222 255
197 222 255
197 222 255
198 223 255
198 223 255
198 223 255
198 223 255
198 223 255
198 223 255
198 223 255
198 223 255
198 223 255
198 223 255
198 223 255
198 223 255
199 223 255
199 223 255
199 223 255
199 223 255
199 223 255
199 223 255
199 223 255
199 223 255
199 223 255
199 223 255
199 224 255
200 224 255
200 224 255
200 224 255
200 224 255
200 224 255
200 224 255
200 224 255
200 224 255
200 224 255
200 224 255
200 224 255
200 224 255
201 224 255
201 224 255
201 224 255
201 224 255
201 224 255
201 224 255
201 224 255
201 224 255
201 225 255
201 225 255
201 225 255
201 225 255
202 225 255
202 225 255
202 225 255
202 225 255
202 225 255
202 225 255
202 225 255
202 225 255
202 225 255
202 225 255
202 225 255
202 225 255
203 225 255
203 225 255
203 225 255
203 225 255
203 225 255
203 225 255
203 225 255
203 226 255
203 226 255
203 226 255
203 226 255
203 226 255
203 226 255
204 226 255
204 226 255
204 226 255
204 226 255
204 226 255
204 226 255
204 226 255
204 226 255
204 226 255
204 226 255
204 226 255
204 226 255
204 226 255
204 226 255
205 226 255
205 226 255
205 226 255
205 226 255
205 226 255
205 226 255
205 227 255
205 227 255
205 227 255
205 227 255
205 227 255
205 227 255
205 227 255
205 227 255
205 227 255
205 227 255
205 227 255
205 226 255
205 226 255
205 226 255
205 226 255
205 226 255
204 226 255
204 226 255
204 226 255
204 226 255
204 226 255
204 226 255
204 226 255
204 226 255
204 226 255
204 226 255
204 226 255
204 226 255
204 226 255
204 226 255
203 226 255
203 226 255
203 226 255
203 226 255
203 226 255
203 226 255
203 225 255
203 225 255
203 225 255
203 225 255
203 225 255
203 225 255
203 225 255
202 225 255
202 225 255
202 225 255
202 225 255
202 225 255
202 225 255
202 225 255
202 225 255
202 225 255
202 225 255
202 225 255
202 225 255
201 225 255
201 225 255
201 225 255
201 225 255
201 224 255
201 224 255
201 224 255
201 224 255
201 224 255
201 224 255
201 224 255
201 224 255
200 224 255
200 224 255
200 224 255
200 224 255
200 224 255
200 224 255
200 224 255
200 224 255
200 224 255
200 224 255
200 224 255
200 224 255
199 224 255
199 224 255
199 223 255
199 223 255
199 223 255
199 223 255
199 223 255
199 223 255
199 223 255
199 223 255
199 223 255
198 223 255
198 223 255
198 223 255
198 223 255
198 223 255
198 223 255
198 223 255
198 223 255
198 223 255
198 223 255
198 223 255
198 223 255
197 222 255
197 222 255
197 222 255
197 222 255
197 222 255
197 222 255
197 222 255
197 222 255
197 222 255
197 222 255
197 222 255
197 222 255
197 222 255
196 222 255
196 222 255
196 222 255
196 222 255
196 222 255
196 222 255
196 222 255
196 222 255
196 222 255
196 222 255
196 222 255
196 222 255
196 222 255
196 222 255
196 221 255
195 221 255
195 221 255
195 221 255
195 221 255
195 221 255
195 221 255
195 221 255
195 221 255
195 221 255
195 221 255
195 221 255
195 221 255
195 221 255
195 221 255
195 221 255
195 221 255
195 221 255
195 221 255
195 221 255
195 221 255
195 221 255
195 221 255
195 221 255
195 221 255
195 221 255
195 221 255
195 221 255
194 221 255
194 221 255
194 221 255
194 221 255
194 221 255
194 221 255
194 221 255
194 221 255
194 221 255
194 221 255
194 221 255
194 221 255
194 221 255
194 221 255
195 221 255
195 221 255
195 221 255
195 221 255
195 221 255
195 221 255
195 221 255
195 221 255
195 221 255
195 221 255
195 221 255
195 221 255
195 221 255
195 221 255
195 221 255
195 221 255
195 221 255
195 221 255
195 221 255
195 221 255
195 221 255
195 221 255
195 221 255
195 221 255
195 221 255
195 221 255
195 221 255
196 221 255
196 221 255
196 222 255
196 222 255
196 222 255
196 222 255
196 222 255
196 222 255
196 222 255
196 222 255
196 222 255
196 222 255
196 222 255
196 222 255
196 222 255
197 222 255
197 222 255
197 222 255
197 222 255
197 222 255
197 222 255
197 222 255
197 222 255
197 222 255
197 222 255
197 222 255
197 222 255
197 222 255
198 223 255
198 223 255
198 223 255
198 223 255
198 223 255
198 223 255
198 223 255
198 223 255
198 223 255
198 223 255
198 223 255
198 223 255
199 223 255
199 223 255
199 223 255
199 223 255
199 223 255
199 223 255
199 223 255
199 223 255
199 223 255
199 224 255
199 224 255
200 224 255
200 224 255
200 224 255
200 224 255
200 224 255
200 224 255
200 224 255
200 224 255
200 224 255
200 224 255
200 224 255
200 224 255
201 224 255
201 224 255
201 224 255
201 224 255
201 224 255
201 224 255
201 224 255
201 224 255
201 225 255
201 225 255
201 225 255
201 225 255
202 225 255
202 225 255
202 225 255
202 225 255
202 225 255
202 225 255
202 225 255
202 225 255
202 225 255
202 225 255
202 225 255
202 225 255
203 225 255
203 225 255
203 225 255
203 225 255
203 225 255
203 225 255
203 225 255
203 226 255
203 226 255
203 226 255
203 226 255
203 226 255
203 226 255
204 226 255
204 226 255
204 226 255
204 226 255
204 226 255
204 226 255
204 226 255
204 226 255
204 226 255
204 226 255
204 226 255
204 226 255
204 226 255
204 226 255
205 226 255
205 226 255
205 226 255
205 226 255
205 226 255
205 226 255
205 227 255
205 227 255
205 227 255
205 227 255
205 227 255
205 227 255
205 227 255
205 227 255
205 227 255
205 227 255
205 227 255
205 227 255
205 227 255
205 227 255
205 227 255
205 226 255
205 226 255
205 226 255
205 226 255
205 226 255
205 226 255
204 226 255
204 226 255
204 226 255
204 226 255
204 226 255
204 226 255
204 226 255
204 226 255
204 226 255
204 226 255
204 226 255
204 226 255
204 226 255
204 226 255
203 226 255
203 226 255
203 226 255
203 226 255
203 226 255
203 225 255
203 225 255
203 225 255
203 225 255
203 225 255
203 225 255
203 225 255
202 225 255
202 225 255
202 225 255
202 225 255
202 225 255
202 225 255
202 225 255
202 225 255
202 225 255
202 225 255
202 225 255
202 225 255
202 225 255
201 225 255
201 225 255
201 225 255
201 224 255
201 224 255
201 224 255
201 224 255
201 224 255
201 224 255
201 224 255
201 224 255
200 224 255
200 224 255
200 224 255
200 224 255
200 224 255
200 224 255
200 224 255
200 224 255
200 224 255
200 224 255
200 224 255
200 224 255
199 224 255
199 224 255
199 223 255
199 223 255
199 223 255
199 223 255
199 223 255
199 223 255
199 223 255
199 223 255
199 223 255
198 223 255
198 223 255
198 223 255
198 223 255
198 223 255
198 223 255
198 223 255
198 223 255
198 223 255
198 223 255
198 223 255
198 223 255
197 223 255
197 222 255
197 222 255
197 222 255
197 222 255
197 222 255
197 222 255
197 222 255
197 222 255
197 222 255
197 222 255
197 222 255
197 222 255
196 222 255
196 222 255
196 222 255
196 222 255
196 222 255
196 222 255
196 222 255
196 222 255
196 222 255
196 222 255
196 222 255
196 222 255
196 222 255
196 222 255
196 222 255
196 221 255
195 221 255
195 221 255
195 221 255
195 221 255
195 221 255
195 221 255
195 221 255
195 221 255
195 221 255
195 221 255
195 221 255
195 221 255
195 221 255
195 221 255
195 221 255
195 221 255
195 221 255
195 221 255
195 221 255
195 221 255
195 221 255
195 221 255
195 221 255
195 221 255
195 221 255
195 221 255
195 221 255
195 221 255
195 221 255
195 221 255
195 221 255
195 221 255
195 221 255
195 221 255
195 221 255
195 221 255
195 221 255
195 221 255
195 221 255
195 221 255
195 221 255
195 221 255
195 221 255
195 221 255
195 221 255
195 221 255
195 221 255
195 221 255
195 221 255
195 221 255
195 221 255
195 221 255
195 221 255
195 221 255
195 221 255
195 221 255
195 221 255
195 221 255
195 221 255
195 221 255
195 221 255
195 221 255
196 221 255
196 222 255
196 222 255
196 222 255
196 222 255
196 222 255
196 222 255
196 222 255
196 222 255
196 222 255
196 222 255
196 222 255
196 222 255
196 222 255
196 222 255
197 222 255
197 222 255
197 222 255
197 222 255
197 222 255
197 222 255
197 222 255
197 222 255
197 222 255
197 222 255
197 222 255
197 222 255
197 222 255
197 223 255
198 223 255
198 223 255
198 223 255
198 223 255
198 223 255
198 223 255
198 223 255
198 223 255
198 223 255
198 223 255
198 223 255
199 223 255
199 223 255
199 223 255
199 223 255
199 223 255
199 223 255
199 223 255
199 223 255
199 223 255
199 223 255
199 224 255
199 224 255
200 224 255
200 224 255
200 224 255
200 224 255
200 224 255
200 224 255
200 224 255
200 224 255
200 224 255
200 224 255
200 224 255
200 224 255
201 224 255
201 224 255
201 224 255
201 224 255
201 224 255
201 224 255
201 224 255
201 224 255
201 225 255
201 225 255
201 225 255
202 225 255
202 225 255
202 225 255
202 225 255
202 225 255
202 225 255
202 225 255
202 225 255
202 225 255
202 225 255
202 225 255
202 225 255
203 225 255
203 225 255
203 225 255
203 225 255
203 225 255
203 225 255
203 225 255
203 225 255
203 226 255
203 226 255
203 226 255
203 226 255
203 226 255
204 226 255
204 226 255
204 226 255
204 226 255
204 226 255
204 226 255
204 226 255
204 226 255
204 226 255
204 226 255
204 226 255
204 226 255
204 226 255
204 226 255
205 226 255
205 226 255
205 226 255
205 226 255
205 226 255
205 226 255
205 227 255
205 227 255
205 227 255
205 227 255
205 227 255
205 227 255
205 227 255
205 227 255
205 227 255
206 227 255
206 227 255
206 227 255
205 227 255
205 227 255
205 227 255
205 227 255
205 227 255
205 227 255
205 227 255
205 227 255
205 227 255
205 226 255
205 226 255
205 226 255
205 226 255
205 226 255
204 226 255
204 226 255
204 226 255
204 226 255
204 226 255
204 226 255
204 226 255
204 226 255
204 226 255
204 226 255
204 226 255
204 226 255
204 226 255
204 226 255
203 226 255
203 226 255
203 226 255
203 226 255
203 226 255
203 225 255
203 225 255
203 225 255
203 225 255
203 225 255
203 225 255
203 225 255
203 225 255
202 225 255
202 225 255
202 225 255
202 225 255
202 225 255
202 225 255
202 225 255
202 225 255
202 225 255
202 225 255
202 225 255
202 225 255
201 225 255
201 225 255
201 225 255
201 224 255
201 224 255
201 224 255
201 224 255
201 224 255
201 224 255
201 224 255
201 224 255
200 224 255
200 224 255
200 224 255
200 224 255
200 224 255
200 224 255
200 224 255
200 224 255
200 224 255
200 224 255
200 224 255
200 224 255
199 224 255
199 224 255
199 223 255
199 223 255
199 223 255
199 223 255
199 223 255
199 223 255
199 223 255
199 223 255
199 223 255
199 223 255
198 223 255
198 223 255
198 223 255
198 223 255
198 223 255
198 223 255
198 223 255
198 223 255
198 223 255
198 223 255
198 223 255
198 223 255
197 222 255
197 222 255
197 222 255
197 222 255
197 222 255
197 222 255
197 222 255
197 222 255
197 222 255
197 222 255
197 222 255
197 222 255
197 222 255
196 222 255
196 222 255
196 222 255
196 222 255
196 222 255
196 222 255
196 222 255
196 222 255
196 222 255
196 222 255
196 222 255
196 222 255
196 222 255
196 222 255
196 222 255
196 221 255
196 221 255
195 221 255
195 221 255
195 221 255
195 221 255
195 221 255
195 221 255
195 221 255
195 221 255
195 221 255
195 221 255
195 221 255
195 221 255
195 221 255
195 221 255
195 221 255
195 221 255
195 221 255
195 221 255
195 221 255
195 221 255
195 221 255
195 221 255
195 221 255
195 221 255
195 221 255
195 221 255
195 221 255
195 221 255
195 221 255
195 221 255
195 221 255
195 221 255
195 221 255
195 221 255
195 221 255
195 221 255
195 221 255
195 221 255
195 221 255
195 221 255
195 221 255
195 221 255
195 221 255
195 221 255
195 221 255
195 221 255
195 221 255
195 221 255
195 221 255
195 221 255
195 221 255
195 221 255
195 221 255
195 221 255
196 221 255
196 221 255
196 222 255
196 222 255
196 222 255
196 222 255
196 222 255
196 222 255
196 222 255
196 222 255
196 222 255
196 222 255
196 222 255
196 222 255
196 222 255
196 222 255
196 222 255
197 222 255
197 222 255
197 222 255
197 222 255
197 222 255
197 222 255
197 222 255
197 222 255
197 222 255
197 222 255
197 222 255
197 222 255
197 222 255
198 223 255
198 223 255
198 223 255
198 223 255
198 223 255
198 223 255
198 223 255
198 223 255
198 223 255
198 223 255
198 223 255
198 223 255
199 223 255
199 223 255
199 223 255
199 223 255
199 223 255
199 223 255
199 223 255
199 223 255
199 223 255
199 223 255
199 224 255
199 224 255
200 224 255
200 224 255
200 224 255
200 224 255
200 224 255
200 224 255
200 224 255
200 224 255
200 224 255
200 224 255
200 224 255
200 224 255
201 224 255
201 224 255
201 224 255
201 224 255
201 224 255
201 224 255
201 224 255
201 224 255
201 225 255
201 225 255
201 225 255
202 225 255
202 225 255
202 225 255
202 225 255
202 225 255
202 225 255
202 225 255
202 225 255
202 225 255
202 225 255
202 225 255
202 225 255
203 225 255
203 225 255
203 225 255
203 225 255
203 225 255
203 225 255
203 225 255
203 225 255
203 226 255
203 226 255
203 226 255
203 226 255
203 226 255
204 226 255
204 226 255
204 226 255
204 226 255
204 226 255
204 226 255
204 226 255
204 226 255
204 226 255
204 226 255
204 226 255
204 226 255
204 226 255
204 226 255
205 226 255
205 226 255
205 226 255
205 226 255
205 226 255
205 226 255
205 227 255
205 227 255
205 227 255
205 227 255
205 227 255
205 227 255
205 227 255
205 227 255
206 227 255
206 227 255
206 227 255
206 227 255
206 227 255
206 227 255
206 227 255
206 227 255
205 227 255
205 227 255
205 227 255
205 227 255
205 227 255
205 227 255
205 227 255
205 227 255
205 227 255
205 226 255
205 226 255
205 226 255
205 226 255
205 226 255
205 226 255
204 226 255
204 226 255
204 226 255
204 226 255
204 226 255
204 226 255
204 226 255
204 226 255
204 226 255
204 226 255
204 226 255
204 226 255
204 226 255
203 226 255
203 226 255
203 226 255
203 226 255
203 226 255
203 226 255
203 225 255
203 225 255
203 225 255
203 225 255
203 225 255
203 225 255
203 225 255
202 225 255
202 225 255
202 225 255
202 225 255
202 225 255
202 225 255
202 225 255
202 225 255
202 225 255
202 225 255
202 225 255
202 225 255
201 225 255
201 225 255
201 225 255
201 225 255
201 224 255
201 224 255
201 224 255
201 224 255
201 224 255
201 224 255
201 224 255
201 224 255
200 224 255
200 224 255
200 224 255
200 224 255
200 224 255
200 224 255
200 224 255
200 224 255
200 224 255
200 224 255
200 224 255
199 224 255
199 224 255
199 223 255
199 223 255
199 223 255
199 223 255
199 223 255
199 223 255
199 223 255
199 223 255
199 223 255
199 223 255
198 223 255
198 223 255
198 223 255
198 223 255
198 223 255
198 223 255
198 223 255
198 223 255
198 223 255
198 223 255
198 223 255
198 223 255
197 223 255
197 222 255
197 222 255
197 222 255
197 222 255
197 222 255
197 222 255
197 222 255
197 222 255
197 222 255
197 222 255
197 222 255
197 222 255
197 222 255
196 222 255
196 222 255
196 222 255
196 222 255
196 222 255
196 222 255
196 222 255
196 222 255
196 222 255
196 222 255
196 222 255
196 222 255
196 222 255
196 222 255
196 222 255
196 222 255
196 222 255
196 221 255
196 221 255
195 221 255
195 221 255
195 221 255
195 221 255
195 221 255
195 221 255
195 221 255
195 221 255
195 221 255
195 221 255
195 221 255
195 221 255
195 221 255
195 221 255
195 221 255
195 221 255
195 221 255
195 221 255
195 221 255
195 221 255
195 221 255
195 221 255
195 221 255
195 221 255
195 221 255
195 221 255
195 221 255
195 221 255
195 221 255
195 221 255
195 221 255
195 221 255
195 221 255
195 221 255
195 221 255
195 221 255
195 221 255
195 221 255
195 221 255
195 221 255
195 221 255
195 221 255
195 221 255
195 221 255
195 221 255
196 221 255
196 221 255
196 222 255
196 222 255
196 222 255
196 222 255
196 222 255
196 222 255
196 222 255
196 222 255
196 222 255
196 222 255
196 222 255
196 222 255
196 222 255
196 222 255
196 222 255
196 222 255
197 222 255
197 222 255
197 222 255
197 222 255
197 222 255
197 222 255
197 222 255
197 222 255
197 222 255
197 222 255
197 222 255
197 222 255
197 222 255
197 223 255
198 223 255
198 223 255
198 223 255
198 223 255
198 223 255
198 223 255
198 223 255
198 223 255
198 223 255
198 223 255
198 223 255
198 223 255
199 223 255
199 223 255
199 223 255
199 223 255
199 223 255
199 223 255
199 223 255
199 223 255
199 223 255
199 223 255
199 224 255
199 224 255
200 224 255
200 224 255
200 224 255
200 224 255
200 224 255
200 224 255
200 224 255
200 224 255
200 224 255
200 224 255
200 224 255
201 224 255
201 224 255
201 224 255
201 224 255
201 224 255
201 224 255
201 224 255
201 224 255
201 224 255
201 225 255
201 225 255
201 225 255
202 225 255
202 225 255
202 225 255
202 225 255
202 225 255
202 225 255
202 225 255
202 225 255
202 225 255
202 225 255
202 225 255
202 225 255
203 225 255
203 225 255
203 225 255
203 225 255
203 225 255
203 225 255
203 225 255
203 226 255
203 226 255
203 226 255
203 226 255
203 226 255
203 226 255
204 226 255
204 226 255
204 226 255
204 226 255
204 226 255
204 226 255
204 226 255
204 226 255
204 226 255
204 226 255
204 226 255
204 226 255
204 226 255
205 226 255
205 226 255
205 226 255
205 226 255
205 226 255
205 226 255
205 227 255
205 227 255
205 227 255
205 227 255
205 227 255
205 227 255
205 227 255
205 227 255
205 227 255
206 227 255
206 227 255
206 227 255
206 227 255
206 227 255
206 227 255
206 227 255
206 227 255
206 227 255
206 227 255
206 227 255
206 227 255
206 227 255
205 227 255
205 227 255
205 227 255
205 227 255
205 227 255
205 227 255
205 227 255
205 227 255
205 227 255
205 226 255
205 226 255
205 226 255
205 226 255
205 226 255
204 226 255
204 226 255
204 226 255
204 226 255
204 226 255
204 226 255
204 226 255
204 226 255
204 226 255
204 226 255
204 226 255
204 226 255
204 226 255
204 226 255
203 226 255
203 226 255
203 226 255
203 226 255
203 226 255
203 225 255
203 225 255
203 225 255
203 225 255
203 225 255
203 225 255
203 225 255
202 225 255
202 225 255
202 225 255
202 225 255
202 225 255
202 225 255
202 225 255
202 225 255
202 225 255
202 225 255
202 225 255
202 225 255
201 225 255
201 225 255
201 225 255
201 225 255
201 224 255
201 224 255
201 224 255
201 224 255
201 224 255
201 224 255
201 224 255
201 224 255
200 224 255
200 224 255
200 224 255
200 224 255
200 224 255
200 224 255
200 224 255
200 224 255
200 224 255
200 224 255
200 224 255
200 224 255
199 224 255
199 224 255
199 223 255
199 223 255
199 223 255
199 223 255
199 223 255
199 223 255
199 223 255
199 223 255
199 223 255
199 223 255
198 223 255
198 223 255
198 223 255
198 223 255
198 223 255
198 223 255
198 223 255
198 223 255
198 223 255
198 223 255
198 223 255
198 223 255
197 222 255
197 222 255
197 222 255
197 222 255
197 222 255
197 222 255
197 222 255
197 222 255
197 222 255
197 222 255
197 222 255
197 222 255
197 222 255
197 222 255
196 222 255
196 222 255
196 222 255
196 222 255
196 222 255
196 222 255
196 222 255
196 222 255
196 222 255
196 222 255
196 222 255
196 222 255
196 222 255
196 222 255
196 222 255
196 222 255
196 222 255
196 222 255
196 221 255
196 221 255
196 221 255
195 221 255
195 221 255
195 221 255
195 221 255
195 221 255
195 221 255
195 221 255
195 221 255
195 221 255
195 221 255
195 221 255
195 221 255
195 221 255
195 221 255
195 221 255
195 221 255
195 221 255
195 221 255
195 221 255
195 221 255
195 221 255
195 221 255
195 221 255
195 221 255
195 221 255
195 221 255
195 221 255
195 221 255
195 221 255
195 221 255
195 221 255
195 221 255
195 221 255
195 221 255
196 221 255
196 221 255
196 221 255
196 222 255
196 222 255
196 222 255
196 222 255
196 222 255
196 222 255
196 222 255
196 222 255
196 222 255
196 222 255
196 222 255
196 222 255
196 222 255
196 222 255
196 222 255
196 222 255
196 222 255
196 222 255
197 222 255
197 222 255
197 222 255
197 222 255
197 222 255
197 222 255
197 222 255
197 222 255
197 222 255
197 222 255
197 222 255
197 222 255
197 222 255
197 222 255
198 223 255
198 223 255
198 223 255
198 223 255
198 223 255
198 223 255
198 223 255
198 223 255
198 223 255
198 223 255
198 223 255
198 223 255
198 223 255
199 223 255
199 223 255
199 223 255
199 223 255
199 223 255
199 223 255
199 223 255
199 223 255
199 223 255
199 224 255
199 224 255
200 224 255
200 224 255
200 224 255
200 224 255
200 224 255
200 224 255
200 224 255
200 224 255
200 224 255
200 224 255
200 224 255
200 224 255
201 224 255
201 224 255
201 224 255
201 224 255
201 224 255
201 224 255
201 224 255
201 224 255
201 225 255
201 225 255
201 225 255
201 225 255
202 225 255
202 225 255
202 225 255
202 225 255
202 225 255
202 225 255
202 225 255
202 225 255
202 225 255
202 225 255
202 225 255
202 225 255
203 225 255
203 225 255
203 225 255
203 225 255
203 225 255
203 225 255
203 225 255
203 226 255
203 226 255
203 226 255
203 226 255
203 226 255
204 226 255
204 226 255
204 226 255
204 226 255
204 226 255
204 226 255
204 226 255
204 226 255
204 226 255
204 226 255
204 226 255
204 226 255
204 226 255
204 226 255
205 226 255
205 226 255
205 226 255
205 226 255
205 226 255
205 226 255
205 227 255
205 227 255
205 227 255
205 227 255
205 227 255
205 227 255
205 227 255
205 227 255
206 227 255
206 227 255
206 227 255
206 227 255
206 227 255
206 227 255
206 227 255
206 227 255
206 227 255
206 227 255
206 227 255
206 227 255
206 227 255
206 227 255
206 227 255
206 227 255
206 227 255
206 227 255
205 227 255
205 227 255
205 227 255
205 227 255
205 227 255
205 227 255
205 227 255
205 227 255
205 227 255
205 226 255
205 226 255
205 226 255
205 226 255
205 226 255
205 226 255
204 226 255
204 226 255
204 226 255
204 226 255
204 226 255
204 226 255
204 226 255
204 226 255
204 226 255
204 226 255
204 226 255
204 226 255
204 226 255
203 226 255
203 226 255
203 226 255
203 226 255
203 226 255
203 226 255
203 225 255
203 225 255
203 225 255
203 225 255
203 225 255
203 225 255
203 225 255
202 225 255
202 225 255
202 225 255
202 225 255
202 225 255
202 225 255
202 225 255
202 225 255
202 225 255
202 225 255
202 225 255
202 225 255
201 225 255
201 225 255
201 225 255
201 224 255
201 224 255
201 224 255
201 224 255
201 224 255
201 224 255
201 224 255
201 224 255
200 224 255
200 224 255
200 224 255
200 224 255
200 224 255
200 224 255
200 224 255
200 224 255
200 224 255
200 224 255
200 224 255
200 224 255
199 224 255
199 224 255
199 223 255
199 223 255
199 223 255
199 223 255
199 223 255
199 223 255
199 223 255
199 223 255
199 223 255
199 223 255
198 223 255
198 223 255
198 223 255
198 223 255
198 223 255
198 223 255
198 223 255
198 223 255
198 223 255
198 223 255
198 223 255
198 223 255
198 223 255
197 222 255
197 222 255
197 222 255
197 222 255
197 222 255
197 222 255
197 222 255
197 222 255
197 222 255
197 222 255
197 222 255
197 222 255
197 222 255
197 222 255
196 222 255
196 222 255
196 222 255
196 222 255
196 222 255
196 222 255
196 222 255
196 222 255
196 222 255
196 222 255
196 222 255
196 222 255
196 222 255
196 222 255
196 222 255
196 222 255
196 222 255
196 222 255
196 222 255
196 222 255
196 222 255
196 221 255
196 221 255
196 221 255
196 221 255
196 221 255
195 221 255
195 221 255
195 221 255
195 221 255
195 221 255
195 221 255
195 221 255
195 221 255
195 221 255
195 221 255
195 221 255
195 221 255
195 221 255
195 221 255
195 221 255
195 221 255
195 221 255
196 221 255
196 221 255
196 221 255
196 221 255
196 221 255
196 221 255
196 222 255
196 222 255
196 222 255
196 222 255
196 222 255
196 222 255
196 222 255
196 222 255
196 222 255
196 222 255
196 222 255
196 222 255
196 222 255
196 222 255
196 222 255
196 222 255
196 222 255
196 222 255
196 222 255
196 222 255
196 222 255
197 222 255
197 222 255
197 222 255
197 222 255
197 222 255
197 222 255
197 222 255
197 222 255
197 222 255
197 222 255
197 222 255
197 222 255
197 222 255
197 222 255
197 223 255
198 223 255
198 223 255
198 223 255
198 223 255
198 223 255
198 223 255
198 223 255
198 223 255
198 223 255
198 223 255
198 223 255
198 223 255
199 223 255
199 223 255
199 223 255
199 223 255
199 223 255
199 223 255
199 223 255
199 223 255
199 223 255
199 223 255
199 224 255
199 224 255
200 224 255
200 224 255
200 224 255
200 224 255
200 224 255
200 224 255
200 224 255
200 224 255
200 224 255
200 224 255
200 224 255
200 224 255
201 224 255
201 224 255
201 224 255
201 224 255
201 224 255
201 224 255
201 224 255
201 224 255
201 225 255
201 225 255
201 225 255
202 225 255
202 225 255
202 225 255
202 225 255
202 225 255
202 225 255
202 225 255
202 225 255
202 225 255
202 225 255
202 225 255
202 225 255
203 225 255
203 225 255
203 225 255
203 225 255
203 225 255
203 225 255
203 225 255
203 226 255
203 226 255
203 226 255
203 226 255
203 226 255
203 226 255
204 226 255
204 226 255
204 226 255
204 226 255
204 226 255
204 226 255
204 226 255
204 226 255
204 226 255
204 226 255
204 226 255
204 226 255
204 226 255
205 226 255
205 226 255
205 226 255
205 226 255
205 226 255
205 226 255
205 227 255
205 227 255
205 227 255
205 227 255
205 227 255
205 227 255
205 227 255
205 227 255
205 227 255
206 227 255
206 227 255
206 227 255
206 227 255
206 227 255
206 227 255
206 227 255
206 227 255
206 227 255
206 227 255
206 227 255
206 227 255
206 227 255
206 227 255
206 227 255
206 227 255
206 227 255
206 227 255
206 227 255
206 227 255
206 227 255
206 227 255
206 227 255
205 227 255
205 227 255
205 227 255
205 227 255
205 227 255
205 227 255
205 227 255
205 227 255
205 227 255
205 226 255
205 226 255
205 226 255
205 226 255
205 226 255
204 226 255
204 226 255
204 226 255
204 226 255
204 226 255
204 226 255
204 226 255
204 226 255
204 226 255
204 226 255
204 226 255
204 226 255
204 226 255
203 226 255
203 226 255
203 226 255
203 226 255
203 226 255
203 226 255
203 225 255
203 225 255
203 225 255
203 225 255
203 225 255
203 225 255
203 225 255
202 225 255
202 225 255
202 225 255
202 225 255
202 225 255
202 225 255
202 225 255
202 225 255
202 225 255
202 225 255
202 225 255
202 225 255
201 225 255
201 225 255
201 225 255
201 225 255
201 224 255
201 224 255
201 224 255
201 224 255
201 224 255
201 224 255
201 224 255
201 224 255
200 224 255
200 224 255
200 224 255
200 224 255
200 224 255
200 224 255
200 224 255
200 224 255
200 224 255
200 224 255
200 224 255
199 224 255
199 224 255
199 223 255
199 223 255
199 223 255
199 223 255
199 223 255
199 223 255
199 223 255
199 223 255
199 223 255
199 223 255
198 223 255
198 223 255
198 223 255
198 223 255
198 223 255
198 223 255
198 223 255
198 223 255
198 223 255
198 223 255
198 223 255
198 223 255
198 223 255
197 223 255
197 222 255
197 222 255
197 222 255
197 222 255
197 222 255
197 222 255
197 222 255
197 222 255
197 222 255
197 222 255
197 222 255
197 222 255
197 222 255
197 222 255
197 222 255
196 222 255
196 222 255
196 222 255
196 222 255
196 222 255
196 222 255
196 222 255
196 222 255
196 222 255
196 222 255
196 222 255
196 222 255
196 222 255
196 222 255
196 222 255
196 222 255
196 222 255
196 222 255
196 222 255
196 222 255
196 222 255
196 222 255
196 222 255
196 222 255
196 222 255
196 222 255
196 222 255
196 222 255
196 222 255
196 222 255
196 222 255
196 222 255
196 222 255
196 222 255
196 222 255
196 222 255
196 222 255
196 222 255
196 222 255
196 222 255
196 222 255
196 222 255
196 222 255
196 222 255
196 222 255
196 222 255
196 222 255
196 222 255
196 222 255
196 222 255
196 222 255
196 222 255
196 222 255
196 222 255
196 222 255
196 222 255
196 222 255
196 222 255
196 222 255
196 222 255
196 222 255
196 222 255
197 222 255
197 222 255
197 222 255
197 222 255
197 222 255
197 222 255
197 222 255
197 222 255
197 222 255
197 222 255
197 222 255
197 222 255
197 222 255
197 222 255
197 222 255
197 223 255
198 223 255
198 223 255
198 223 255
198 223 255
198 223 255
198 223 255
198 223 255
198 223 255
198 223 255
198 223 255
198 223 255
198 223 255
198 223 255
199 223 255
199 223 255
199 223 255
199 223 255
199 223 255
199 223 255
199 223 255
199 223 255
199 223 255
199 223 255
199 224 255
199 224 255
200 224 255
200 224 255
200 224 255
200 224 255
200 224 255
200 224 255
200 224 255
200 224 255
200 224 255
200 224 255
200 224 255
201 224 255
201 224 255
201 224 255
201 224 255
201 224 255
201 224 255
201 224 255
201 224 255
201 224 255
201 225 255
201 225 255
201 225 255
202 225 255
202 225 255
202 225 255
202 225 255
202 225 255
202 225 255
202 225 255
202 225 255
202 225 255
202 225 255
202 225 255
202 225 255
203 225 255
203 225 255
203 225 255
203 225 255
203 225 255
203 225 255
203 225 255
203 226 255
203 226 255
203 226 255
203 226 255
203 226 255
203 226 255
204 226 255
204 226 255
204 226 255
204 226 255
204 226 255
204 226 255
204 226 255
204 226 255
204 226 255
204 226 255
204 226 255
204 226 255
204 226 255
205 226 255
205 226 255
205 226 255
205 226 255
205 226 255
205 227 255
205 227 255
205 227 255
205 227 255
205 227 255
205 227 255
205 227 255
205 227 255
205 227 255
206 227 255
206 227 255
206 227 255
206 227 255
206 227 255
206 227 255
206 227 255
206 227 255
206 227 255
206 227 255
206 227 255
206 227 255
206 227 255
206 227 255
206 227 255
206 227 255
206 227 255
206 227 255
206 227 255
206 227 255
206 227 255
206 227 255
206 227 255
206 227 255
206 227 255
206 227 255
206 227 255
206 227 255
205 227 255
205 227 255
205 227 255
205 227 255
205 227 255
205 227 255
205 227 255
205 227 255
205 227 255
205 226 255
205 226 255
205 226 255
205 226 255
205 226 255
205 226 255
204 226 255
204 226 255
204 226 255
204 226 255
204 226 255
204 226 255
204 226 255
204 226 255
204 226 255
204 226 255
204 226 255
204 226 255
204 226 255
203 226 255
203 226 255
203 226 255
203 226 255
203 226 255
203 226 255
203 225 255
203 225 255
203 225 255
203 225 255
203 225 255
203 225 255
202 225 255
202 225 255
202 225 255
202 225 255
202 225 255
202 225 255
202 225 255
202 225 255
202 225 255
202 225 255
202 225 255
202 225 255
201 225 255
201 225 255
201 225 255
201 225 255
201 224 255
201 224 255
201 224 255
201 224 255
201 224 255
201 224 255
201 224 255
201 224 255
200 224 255
200 224 255
200 224 255
200 224 255
200 224 255
200 224 255
200 224 255
200 224 255
200 224 255
200 224 255
200 224 255
200 224 255
199 224 255
199 223 255
199 223 255
199 223 255
199 223 255
199 223 255
199 223 255
199 223 255
199 223 255
199 223 255
199 223 255
199 223 255
198 223 255
198 223 255
198 223 255
198 223 255
198 223 255
198 223 255
198 223 255
198 223 255
198 223 255
198 223 255
198 223 255
198 223 255
198 223 255
197 223 255
197 222 255
197 222 255
197 222 255
197 222 255
197 222 255
197 222 255
197 222 255
197 222 255
197 222 255
197 222 255
197 222 255
197 222 255
197 222 255
197 222 255
197 222 255
197 222 255
196 222 255
196 222 255
196 222 255
196 222 255
196 222 255
196 222 255
196 222 255
196 222 255
196 222 255
196 222 255
196 222 255
196 222 255
196 222 255
196 222 255
196 222 255
196 222 255
196 222 255
196 222 255
196 222 255
196 222 255
196 222 255
196 222 255
196 222 255
196 222 255
196 222 255
196 222 255
196 222 255
196 222 255
196 222 255
196 222 255
196 222 255
196 222 255
196 222 255
196 222 255
196 222 255
196 222 255
196 222 255
196 222 255
196 222 255
196 222 255
196 222 255
196 222 255
196 222 255
196 222 255
196 222 255
196 222 255
196 222 255
196 222 255
196 222 255
196 222 255
196 222 255
196 222 255
196 222 255
196 222 255
197 222 255
197 222 255
197 222 255
197 222 255
197 222 255
197 222 255
197 222 255
197 222 255
197 222 255
197 222 255
197 222 255
197 222 255
197 222 255
197 222 255
197 222 255
197 222 255
197 223 255
198 223 255
198 223 255
198 223 255
198 223 255
198 223 255
198 223 255
198 223 255
198 223 255
198 223 255
198 223 255
198 223 255
198 223 255
198 223 255
199 223 255
199 223 255
199 223 255
199 223 255
199 223 255
199 223 255
199 223 255
199 223 255
199 223 255
199 223 255
199 223 255
199 224 255
200 224 255
200 224 255
200 224 255
200 224 255
200 224 255
200 224 255
200 224 255
200 224 255
200 224 255
200 224 255
200 224 255
200 224 255
201 224 255
201 224 255
201 224 255
201 224 255
201 224 255
201 224 255
201 224 255
201 224 255
201 225 255
201 225 255
201 225 255
201 225 255
202 225 255
202 225 255
202 225 255
202 225 255
202 225 255
202 225 255
202 225 255
202 225 255
202 225 255
202 225 255
202 225 255
202 225 255
203 225 255
203 225 255
203 225 255
203 225 255
203 225 255
203 225 255
203 226 255
203 226 255
203 226 255
203 226 255
203 226 255
203 226 255
204 226 255
204 226 255
204 226 255
204 226 255
204 226 255
204 226 255
204 226 255
204 226 255
204 226 255
204 226 255
204 226 255
204 226 255
204 226 255
205 226 255
205 226 255
205 226 255
205 226 255
205 226 255
205 226 255
205 227 255
205 227 255
205 227 255
205 227 255
205 227 255
205 227 255
205 227 255
205 227 255
205 227 255
206 227 255
206 227 255
206 227 255
206 227 255
206 227 255
206 227 255
206 227 255
206 227 255
206 227 255
206 227 255
206 227 255
206 227 255
206 227 255
206 227 255
206 227 255
207 227 255
207 227 255
207 227 255
206 227 255
206 227 255
206 227 255
206 227 255
206 227 255
206 227 255
206 227 255
206 227 255
206 227 255
206 227 255
206 227 255
206 227 255
206 227 255
206 227 255
206 227 255
205 227 255
205 227 255
205 227 255
205 227 255
205 227 255
205 227 255
205 227 255
205 227 255
205 227 255
205 226 255
205 226 255
205 226 255
205 226 255
205 226 255
204 226 255
204 226 255
204 226 255
204 226 255
204 226 255
204 226 255
204 226 255
204 226 255
204 226 255
204 226 255
204 226 255
204 226 255
204 226 255
203 226 255
203 226 255
203 226 255
203 226 255
203 226 255
203 226 255
203 225 255
203 225 255
203 225 255
203 225 255
203 225 255
203 225 255
203 225 255
202 225 255
202 225 255
202 225 255
202 225 255
202 225 255
202 225 255
202 225 255
202 225 255
202 225 255
202 225 255
202 225 255
202 225 255
201 225 255
201 225 255
201 225 255
201 224 255
201 224 255
201 224 255
201 224 255
201 224 255
201 224 255
201 224 255
201 224 255
200 224 255
200 224 255
200 224 255
200 224 255
200 224 255
200 224 255
200 224 255
200 224 255
200 224 255
200 224 255
200 224 255
200 224 255
199 224 255
199 224 255
199 223 255
199 223 255
199 223 255
199 223 255
199 223 255
199 223 255
199 223 255
199 223 255
199 223 255
199 223 255
198 223 255
198 223 255
198 223 255
198 223 255
198 223 255
198 223 255
198 223 255
198 223 255
198 223 255
198 223 255
198 223 255
198 223 255
198 223 255
198 223 255
197 223 255
197 222 255
197 222 255
197 222 255
197 222 255
197 222 255
197 222 255
197 222 255
197 222 255
197 222 255
197 222 255
197 222 255
197 222 255
197 222 255
197 222 255
197 222 255
197 222 255
197 222 255
196 222 255
196 222 255
196 222 255
196 222 255
196 222 255
196 222 255
196 222 255
196 222 255
196 222 255
196 222 255
196 222 255
196 222 255
196 222 255
196 222 255
196 222 255
196 222 255
196 222 255
196 222 255
196 222 255
196 222 255
196 222 255
196 222 255
196 222 255
196 222 255
196 222 255
196 222 255
196 222 255
196 222 255
196 222 255
196 222 255
196 222 255
196 222 255
196 222 255
196 222 255
196 222 255
196 222 255
196 222 255
196 222 255
196 222 255
196 222 255
196 222 255
196 222 255
196 222 255
196 222 255
196 222 255
196 222 255
197 222 255
197 222 255
197 222 255
197 222 255
197 222 255
197 222 255
197 222 255
197 222 255
197 222 255
197 222 255
197 222 255
197 222 255
197 222 255
197 222 255
197 222 255
197 222 255
197 222 255
197 223 255
198 223 255
198 223 255
198 223 255
198 223 255
198 223 255
198 223 255
198 223 255
198 223 255
198 223 255
198 223 255
198 223 255
198 223 255
198 223 255
199 223 255
199 223 255
199 223 255
199 223 255
199 223 255
199 223 255
199 223 255
199 223 255
199 223 255
199 223 255
199 223 255
199 224 255
199 224 255
200 224 255
200 224 255
200 224 255
200 224 255
200 224 255
200 224 255
200 224 255
200 224 255
200 224 255
200 224 255
200 224 255
200 224 255
201 224 255
201 224 255
201 224 255
201 224 255
201 224 255
201 224 255
201 224 255
201 224 255
201 225 255
201 225 255
201 225 255
202 225 255
202 225 255
202 225 255
202 225 255
202 225 255
202 225 255
202 225 255
202 225 255
202 225 255
202 225 255
202 225 255
202 225 255
203 225 255
203 225 255
203 225 255
203 225 255
203 225 255
203 225 255
203 225 255
203 226 255
203 226 255
203 226 255
203 226 255
203 226 255
203 226 255
204 226 255
204 226 255
204 226 255
204 226 255
204 226 255
204 226 255
204 226 255
204 226 255
204 226 255
204 226 255
204 226 255
204 226 255
204 226 255
205 226 255
205 226 255
205 226 255
205 226 255
205 226 255
205 227 255
205 227 255
205 227 255
205 227 255
205 227 255
205 227 255
205 227 255
205 227 255
205 227 255
206 227 255
206 227 255
206 227 255
206 227 255
206 227 255
206 227 255
206 227 255
206 227 255
206 227 255
206 227 255
206 227 255
206 227 255
206 227 255
206 227 255
206 227 255
207 227 255
207 227 255
207 227 255
207 228 255
207 228 255
207 227 255
207 227 255
207 227 255
207 227 255
206 227 255
206 227 255
206 227 255
206 227 255
206 227 255
206 227 255
206 227 255
206 227 255
206 227 255
206 227 255
206 227 255
206 227 255
206 227 255
206 227 255
206 227 255
205 227 255
205 227 255
205 227 255
205 227 255
205 227 255
205 227 255
205 227 255
205 227 255
205 226 255
205 226 255
205 226 255
205 226 255
205 226 255
205 226 255
204 226 255
204 226 255
204 226 255
204 226 255
204 226 255
204 226 255
204 226 255
204 226 255
204 226 255
204 226 255
204 226 255
204 226 255
204 226 255
203 226 255
203 226 255
203 226 255
203 226 255
203 226 255
203 226 255
203 225 255
203 225 255
203 225 255
203 225 255
203 225 255
203 225 255
202 225 255
202 225 255
202 225 255
202 225 255
202 225 255
202 225 255
202 225 255
202 225 255
202 225 255
202 225 255
202 225 255
202 225 255
201 225 255
201 225 255
201 225 255
201 225 255
201 224 255
201 224 255
201 224 255
201 224 255
201 224 255
201 224 255
201 224 255
201 224 255
200 224 255
200 224 255
200 224 255
200 224 255
200 224 255
200 224 255
200 224 255
200 224 255
200 224 255
200 224 255
200 224 255
200 224 255
199 224 255
199 224 255
199 223 255
199 223 255
199 223 255
199 223 255
199 223 255
199 223 255
199 223 255
199 223 255
199 223 255
199 223 255
198 223 255
198 223 255
198 223 255
198 223 255
198 223 255
198 223 255
198 223 255
198 223 255
198 223 255
198 223 255
198 223 255
198 223 255
198 223 255
198 223 255
198 223 255
197 222 255
197 222 255
197 222 255
197 222 255
197 222 255
197 222 255
197 222 255
197 222 255
197 222 255
197 222 255
197 222 255
197 222 255
197 222 255
197 222 255
197 222 255
197 222 255
197 222 255
197 222 255
197 222 255
197 222 255
196 222 255
196 222 255
196 222 255
196 222 255
196 222 255
196 222 255
196 222 255
196 222 255
196 222 255
196 222 255
196 222 255
196 222 255
196 222 255
196 222 255
196 222 255
196 222 255
196 222 255
196 222 255
196 222 255
196 222 255
196 222 255
196 222 255
196 222 255
196 222 255
196 222 255
196 222 255
196 222 255
196 222 255
196 222 255
196 222 255
196 222 255
196 222 255
196 222 255
196 222 255
197 222 255
197 222 255
197 222 255
197 222 255
197 222 255
197 222 255
197 222 255
197 222 255
197 222 255
197 222 255
197 222 255
197 222 255
197 222 255
197 222 255
197 222 255
197 222 255
197 222 255
197 222 255
197 222 255
197 222 255
198 223 255
198 223 255
198 223 255
198 223 255
198 223 255
198 223 255
198 223 255
198 223 255
198 223 255
198 223 255
198 223 255
198 223 255
198 223 255
198 223 255
198 223 255
199 223 255
199 223 255
199 223 255
199 223 255
199 223 255
199 223 255
199 223 255
199 223 255
199 223 255
199 223 255
199 224 255
199 224 255
200 224 255
200 224 255
200 224 255
200 224 255
200 224 255
200 224 255
200 224 255
200 224 255
200 224 255
200 224 255
200 224 255
200 224 255
201 224 255
201 224 255
201 224 255
201 224 255
201 224 255
201 224 255
201 224 255
201 224 255
201 225 255
201 225 255
201 225 255
201 225 255
202 225 255
202 225 255
202 225 255
202 225 255
202 225 255
202 225 255
202 225 255
202 225 255
202 225 255
202 225 255
202 225 255
202 225 255
203 225 255
203 225 255
203 225 255
203 225 255
203 225 255
203 225 255
203 225 255
203 226 255
203 226 255
203 226 255
203 226 255
203 226 255
204 226 255
204 226 255
204 226 255
204 226 255
204 226 255
204 226 255
204 226 255
204 226 255
204 226 255
204 226 255
204 226 255
204 226 255
204 226 255
205 226 255
205 226 255
205 226 255
205 226 255
205 226 255
205 226 255
205 227 255
205 227 255
205 227 255
205 227 255
205 227 255
205 227 255
205 227 255
205 227 255
206 227 255
206 227 255
206 227 255
206 227 255
206 227 255
206 227 255
206 227 255
206 227 255
206 227 255
206 227 255
206 227 255
206 227 255
206 227 255
206 227 255
206 227 255
206 227 255
207 227 255
207 227 255
207 227 255
207 228 255
207 228 255
207 228 255
207 228 255
207 228 255
207 228 255
207 228 255
207 227 255
207 227 255
207 227 255
206 227 255
206 227 255
206 227 255
206 227 255
206 227 255
206 227 255
206 227 255
206 227 255
206 227 255
206 227 255
206 227 255
206 227 255
206 227 255
206 227 255
206 227 255
205 227 255
205 227 255
205 227 255
205 227 255
205 227 255
205 227 255
205 227 255
205 227 255
205 227 255
205 226 255
205 226 255
205 226 255
205 226 255
205 226 255
204 226 255
204 226 255
204 226 255
204 226 255
204 226 255
204 226 255
204 226 255
204 226 255
204 226 255
204 226 255
204 226 255
204 226 255
204 226 255
204 226 255
203 226 255
203 226 255
203 226 255
203 226 255
203 226 255
203 225 255
203 225 255
203 225 255
203 225 255
203 225 255
203 225 255
202 225 255
202 225 255
202 225 255
202 225 255
202 225 255
202 225 255
202 225 255
202 225 255
202 225 255
202 225 255
202 225 255
202 225 255
202 225 255
201 225 255
201 225 255
201 225 255
201 224 255
201 224 255
201 224 255
201 224 255
201 224 255
201 224 255
201 224 255
201 224 255
200 224 255
200 224 255
200 224 255
200 224 255
200 224 255
200 224 255
200 224 255
200 224 255
200 224 255
200 224 255
200 224 255
200 224 255
199 224 255
199 224 255
199 223 255
199 223 255
199 223 255
199 223 255
199 223 255
199 223 255
199 223 255
199 223 255
199 223 255
199 223 255
199 223 255
198 223 255
198 223 255
198 223 255
198 223 255
198 223 255
198 223 255
198 223 255
198 223 255
198 223 255
198 223 255
198 223 255
198 223 255
198 223 255
198 223 255
198 223 255
197 223 255
197 222 255
197 222 255
197 222 255
197 222 255
197 222 255
197 222 255
197 222 255
197 222 255
197 222 255
197 222 255
197 222 255
197 222 255
197 222 255
197 222 255
197 222 255
197 222 255
197 222 255
197 222 255
197 222 255
197 222 255
197 222 255
197 222 255
197 222 255
197 222 255
197 222 255
196 222 255
196 222 255
196 222 255
196 222 255
196 222 255
196 222 255
196 222 255
196 222 255
196 222 255
196 222 255
196 222 255
196 222 255
196 222 255
196 222 255
196 222 255
196 222 255
197 222 255
197 222 255
197 222 255
197 222 255
197 222 255
197 222 255
197 222 255
197 222 255
197 222 255
197 222 255
197 222 255
197 222 255
197 222 255
197 222 255
197 222 255
197 222 255
197 222 255
197 222 255
197 222 255
197 222 255
197 222 255
197 222 255
197 222 255
197 222 255
197 222 255
197 222 255
198 223 255
198 223 255
198 223 255
198 223 255
198 223 255
198 223 255
198 223 255
198 223 255
198 223 255
198 223 255
198 223 255
198 223 255
198 223 255
198 223 255
198 223 255
199 223 255
199 223 255
199 223 255
199 223 255
199 223 255
199 223 255
199 223 255
199 223 255
199 223 255
199 223 255
199 223 255
199 224 255
199 224 255
200 224 255
200 224 255
200 224 255
200 224 255
200 224 255
200 224 255
200 224 255
200 224 255
200 224 255
200 224 255
200 224 255
200 224 255
201 224 255
201 224 255
201 224 255
201 224 255
201 224 255
201 224 255
201 224 255
201 224 255
201 225 255
201 225 255
201 225 255
202 225 255
202 225 255
202 225 255
202 225 255
202 225 255
202 225 255
202 225 255
202 225 255
202 225 255
202 225 255
202 225 255
202 225 255
203 225 255
203 225 255
203 225 255
203 225 255
203 225 255
203 225 255
203 225 255
203 226 255
203 226 255
203 226 255
203 226 255
203 226 255
203 226 255
204 226 255
204 226 255
204 226 255
204 226 255
204 226 255
204 226 255
204 226 255
204 226 255
204 226 255
204 226 255
204 226 255
204 226 255
204 226 255
205 226 255
205 226 255
205 226 255
205 226 255
205 226 255
205 227 255
205 227 255
205 227 255
205 227 255
205 227 255
205 227 255
205 227 255
205 227 255
206 227 255
206 227 255
206 227 255
206 227 255
206 227 255
206 227 255
206 227 255
206 227 255
206 227 255
206 227 255
206 227 255
206 227 255
206 227 255
206 227 255
206 227 255
206 227 255
207 227 255
207 227 255
207 227 255
207 228 255
207 228 255
207 228 255
207 228 255
207 228 255
207 228 255
207 228 255
207 228 255
207 228 255
207 228 255
207 228 255
207 228 255
207 227 255
207 227 255
207 227 255
207 227 255
206 227 255
206 227 255
206 227 255
206 227 255
206 227 255
206 227 255
206 227 255
206 227 255
206 227 255
206 227 255
206 227 255
206 227 255
206 227 255
206 227 255
206 227 255
205 227 255
205 227 255
205 227 255
205 227 255
205 227 255
205 227 255
205 227 255
205 227 255
205 226 255
205 226 255
205 226 255
205 226 255
205 226 255
205 226 255
204 226 255
204 226 255
204 226 255
204 226 255
204 226 255
204 226 255
204 226 255
204 226 255
204 226 255
204 226 255
204 226 255
204 226 255
204 226 255
203 226 255
203 226 255
203 226 255
203 226 255
203 226 255
203 225 255
203 225 255
203 225 255
203 225 255
203 225 255
203 225 255
203 225 255
202 225 255
202 225 255
202 225 255
202 225 255
202 225 255
202 225 255
202 225 255
202 225 255
202 225 255
202 225 255
202 225 255
202 225 255
201 225 255
201 225 255
201 225 255
201 224 255
201 224 255
201 224 255
201 224 255
201 224 255
201 224 255
201 224 255
201 224 255
201 224 255
200 224 255
200 224 255
200 224 255
200 224 255
200 224 255
200 224 255
200 224 255
200 224 255
200 224 255
200 224 255
200 224 255
200 224 255
199 224 255
199 224 255
199 223 255
199 223 255
199 223 255
199 223 255
199 223 255
199 223 255
199 223 255
199 223 255
199 223 255
199 223 255
199 223 255
198 223 255
198 223 255
198 223 255
198 223 255
198 223 255
198 223 255
198 223 255
198 223 255
198 223 255
198 223 255
198 223 255
198 223 255
198 223 255
198 223 255
198 223 255
198 223 255
197 223 255
197 222 255
197 222 255
197 222 255
197 222 255
197 222 255
197 222 255
197 222 255
197 222 255
197 222 255
197 222 255
197 222 255
197 222 255
197 222 255
197 222 255
197 222 255
197 222 255
197 222 255
197 222 255
197 222 255
197 222 255
197 222 255
197 222 255
197 222 255
197 222 255
197 222 255
197 222 255
197 222 255
197 222 255
197 222 255
197 222 255
197 222 255
197 222 255
197 222 255
197 222 255
197 222 255
197 222 255
197 222 255
197 222 255
197 222 255
197 222 255
197 222 255
197 222 255
197 222 255
197 222 255
197 222 255
197 222 255
197 222 255
197 222 255
197 222 255
197 222 255
197 222 255
197 222 255
197 222 255
197 222 255
197 222 255
197 222 255
197 222 255
197 222 255
197 222 255
198 223 255
198 223 255
198 223 255
198 223 255
198 223 255
198 223 255
198 223 255
198 223 255
198 223 255
198 223 255
198 223 255
198 223 255
198 223 255
198 223 255
198 223 255
198 223 255
199 223 255
199 223 255
199 223 255
199 223 255
199 223 255
199 223 255
199 223 255
199 223 255
199 223 255
199 223 255
199 223 255
199 224 255
199 224 255
200 224 255
200 224 255
200 224 255
200 224 255
200 224 255
200 224 255
200 224 255
200 224 255
200 224 255
200 224 255
200 224 255
200 224 255
201 224 255
201 224 255
201 224 255
201 224 255
201 224 255
201 224 255
201 224 255
201 224 255
201 225 255
201 225 255
201 225 255
201 225 255
202 225 255
202 225 255
202 225 255
202 225 255
202 225 255
202 225 255
202 225 255
202 225 255
202 225 255
202 225 255
202 225 255
202 225 255
203 225 255
203 225 255
203 225 255
203 225 255
203 225 255
203 225 255
203 225 255
203 226 255
203 226 255
203 226 255
203 226 255
203 226 255
204 226 255
204 226 255
204 226 255
204 226 255
204 226 255
204 226 255
204 226 255
204 226 255
204 226 255
204 226 255
204 226 255
204 226 255
204 226 255
205 226 255
205 226 255
205 226 255
205 226 255
205 226 255
205 226 255
205 227 255
205 227 255
205 227 255
205 227 255
205 227 255
205 227 255
205 227 255
205 227 255
206 227 255
206 227 255
206 227 255
206 227 255
206 227 255
206 227 255
206 227 255
206 227 255
206 227 255
206 227 255
206 227 255
206 227 255
206 227 255
206 227 255
206 227 255
207 227 255
207 227 255
207 227 255
207 227 255
207 228 255
207 228 255
207 228 255
207 228 255
207 228 255
207 228 255
207 228 255
207 228 255
207 228 255
207 228 255
207 228 255
207 228 255
207 228 255
207 228 255
207 228 255
207 228 255
207 228 255
207 227 255
207 227 255
207 227 255
207 227 255
206 227 255
206 227 255
206 227 255
206 227 255
206 227 255
206 227 255
206 227 255
206 227 255
206 227 255
206 227 255
206 227 255
206 227 255
206 227 255
206 227 255
206 227 255
205 227 255
205 227 255
205 227 255
205 227 255
205 227 255
205 227 255
205 227 255
205 227 255
205 226 255
205 226 255
205 226 255
205 226 255
205 226 255
204 226 255
204 226 255
204 226 255
204 226 255
204 226 255
204 226 255
204 226 255
204 226 255
204 226 255
204 226 255
204 226 255
204 226 255
204 226 255
203 226 255
203 226 255
203 226 255
203 226 255
203 226 255
203 226 255
203 225 255
203 225 255
203 225 255
203 225 255
203 225 255
203 225 255
203 225 255
202 225 255
202 225 255
202 225 255
202 225 255
202 225 255
202 225 255
202 225 255
202 225 255
202 225 255
202 225 255
202 225 255
202 225 255
201 225 255
201 225 255
201 225 255
201 224 255
201 224 255
201 224 255
201 224 255
201 224 255
201 224 255
201 224 255
201 224 255
201 224 255
200 224 255
200 224 255
200 224 255
200 224 255
200 224 255
200 224 255
200 224 255
200 224 255
200 224 255
200 224 255
200 224 255
200 224 255
199 224 255
199 224 255
199 223 255
199 223 255
199 223 255
199 223 255
199 223 255
199 223 255
199 223 255
199 223 255
199 223 255
199 223 255
199 223 255
198 223 255
198 223 255
198 223 255
198 223 255
198 223 255
198 223 255
198 223 255
198 223 255
198 223 255
198 223 255
198 223 255
198 223 255
198 223 255
198 223 255
198 223 255
198 223 255
198 223 255
197 223 255
197 222 255
197 222 255
197 222 255
197 222 255
197 222 255
197 222 255
197 222 255
197 222 255
197 222 255
197 222 255
197 222 255
197 222 255
197 222 255
197 222 255
197 222 255
197 222 255
197 222 255
197 222 255
197 222 255
197 222 255
197 222 255
197 222 255
197 222 255
197 222 255
197 222 255
197 222 255
197 222 255
197 222 255
197 222 255
197 222 255
197 222 255
197 222 255
197 222 255
197 222 255
197 222 255
197 222 255
197 222 255
197 222 255
197 222 255
197 222 255
197 222 255
197 222 255
197 222 255
197 222 255
197 222 255
197 222 255
197 222 255
197 222 255
197 222 255
197 222 255
197 223 255
198 223 255
198 223 255
198 223 255
198 223 255
198 223 255
198 223 255
198 223 255
198 223 255
198 223 255
198 223 255
198 223 255
198 223 255
198 223 255
198 223 255
198 223 255
198 223 255
198 223 255
199 223 255
199 223 255
199 223 255
199 223 255
199 223 255
199 223 255
199 223 255
199 223 255
199 223 255
199 223 255
199 223 255
199 224 255
199 224 255
200 224 255
200 224 255
200 224 255
200 224 255
200 224 255
200 224 255
200 224 255
200 224 255
200 224 255
200 224 255
200 224 255
200 224 255
200 224 255
201 224 255
201 224 255
201 224 255
201 224 255
201 224 255
201 224 255
201 224 255
201 224 255
201 225 255
201 225 255
201 225 255
202 225 255
202 225 255
202 225 255
202 225 255
202 225 255
202 225 255
202 225 255
202 225 255
202 225 255
202 225 255
202 225 255
202 225 255
203 225 255
203 225 255
203 225 255
203 225 255
203 225 255
203 225 255
203 225 255
203 226 255
203 226 255
203 226 255
203 226 255
203 226 255
203 226 255
204 226 255
204 226 255
204 226 255
204 226 255
204 226 255
204 226 255
204 226 255
204 226 255
204 226 255
204 226 255
204 226 255
204 226 255
205 226 255
205 226 255
205 226 255
205 226 255
205 226 255
205 226 255
205 227 255
205 227 255
205 227 255
205 227 255
205 227 255
205 227 255
205 227 255
205 227 255
206 227 255
206 227 255
206 227 255
206 227 255
206 227 255
206 227 255
206 227 255
206 227 255
206 227 255
206 227 255
206 227 255
206 227 255
206 227 255
206 227 255
206 227 255
207 227 255
207 227 255
207 227 255
207 227 255
207 228 255
207 228 255
207 228 255
207 228 255
207 228 255
207 228 255
207 228 255
207 228 255
207 228 255
207 228 255
208 228 255
207 228 255
207 228 255
207 228 255
207 228 255
207 228 255
207 228 255
207 228 255
207 228 255
207 228 255
207 228 255
207 228 255
207 228 255
207 227 255
207 227 255
207 227 255
207 227 255
206 227 255
206 227 255
206 227 255
206 227 255
206 227 255
206 227 255
206 227 255
206 227 255
206 227 255
206 227 255
206 227 255
206 227 255
206 227 255
206 227 255
206 227 255
205 227 255
205 227 255
205 227 255
205 227 255
205 227 255
205 227 255
205 227 255
205 227 255
205 226 255
205 226 255
205 226 255
205 226 255
205 226 255
204 226 255
204 226 255
204 226 255
204 226 255
204 226 255
204 226 255
204 226 255
204 226 255
204 226 255
204 226 255
204 226 255
204 226 255
204 226 255
203 226 255
203 226 255
203 226 255
203 226 255
203 226 255
203 225 255
203 225 255
203 225 255
203 225 255
203 225 255
203 225 255
203 225 255
202 225 255
202 225 255
202 225 255
202 225 255
202 225 255
202 225 255
202 225 255
202 225 255
202 225 255
202 225 255
202 225 255
202 225 255
201 225 255
201 225 255
201 225 255
201 225 255
201 224 255
201 224 255
201 224 255
201 224 255
201 224 255
201 224 255
201 224 255
201 224 255
200 224 255
200 224 255
200 224 255
200 224 255
200 224 255
200 224 255
200 224 255
200 224 255
200 224 255
200 224 255
200 224 255
200 224 255
200 224 255
199 224 255
199 224 255
199 223 255
199 223 255
199 223 255
199 223 255
199 223 255
199 223 255
199 223 255
199 223 255
199 223 255
199 223 255
199 223 255
198 223 255
198 223 255
198 223 255
198 223 255
198 223 255
198 223 255
198 223 255
198 223 255
198 223 255
198 223 255
198 223 255
198 223 255
198 223 255
198 223 255
198 223 255
198 223 255
198 223 255
198 223 255
198 223 255
197 223 255
197 223 255
197 222 255
197 222 255
197 222 255
197 222 255
197 222 255
197 222 255
197 222 255
197 222 255
197 222 255
197 222 255
197 222 255
197 222 255
197 222 255
197 222 255
197 222 255
197 222 255
197 222 255
197 222 255
197 222 255
197 222 255
197 222 255
197 222 255
197 222 255
197 222 255
197 222 255
197 222 255
197 222 255
197 222 255
197 222 255
197 222 255
197 222 255
197 222 255
197 222 255
197 222 255
197 222 255
197 222 255
197 222 255
197 222 255
197 223 255
198 223 255
198 223 255
198 223 255
198 223 255
198 223 255
198 223 255
198 223 255
198 223 255
198 223 255
198 223 255
198 223 255
198 223 255
198 223 255
198 223 255
198 223 255
198 223 255
198 223 255
198 223 255
198 223 255
199 223 255
199 223 255
199 223 255
199 223 255
199 223 255
199 223 255
199 223 255
199 223 255
199 223 255
199 223 255
199 223 255
199 223 255
199 224 255
199 224 255
199 224 255
200 224 255
200 224 255
200 224 255
200 224 255
200 224 255
200 224 255
200 224 255
200 224 255
200 224 255
200 224 255
200 224 255
200 224 255
201 224 255
201 224 255
201 224 255
201 224 255
201 224 255
201 224 255
201 224 255
201 224 255
201 225 255
201 225 255
201 225 255
201 225 255
202 225 255
202 225 255
202 225 255
202 225 255
202 225 255
202 225 255
202 225 255
202 225 255
202 225 255
202 225 255
202 225 255
202 225 255
203 225 255
203 225 255
203 225 255
203 225 255
203 225 255
203 225 255
203 225 255
203 226 255
203 226 255
203 226 255
203 226 255
203 226 255
204 226 255
204 226 255
204 226 255
204 226 255
204 226 255
204 226 255
204 226 255
204 226 255
204 226 255
204 226 255
204 226 255
204 226 255
204 226 255
205 226 255
205 226 255
205 226 255
205 226 255
205 226 255
205 227 255
205 227 255
205 227 255
205 227 255
205 227 255
205 227 255
205 227 255
205 227 255
206 227 255
206 227 255
206 227 255
206 227 255
206 227 255
206 227 255
206 227 255
206 227 255
206 227 255
206 227 255
206 227 255
206 227 255
206 227 255
206 227 255
206 227 255
207 227 255
207 227 255
207 227 255
207 227 255
207 228 255
207 228 255
207 228 255
207 228 255
207 228 255
207 228 255
207 228 255
207 228 255
207 228 255
207 228 255
207 228 255
207 228 255
208 228 255
208 228 255
208 228 255
208 228 255
208 228 255
207 228 255
207 228 255
207 228 255
207 228 255
207 228 255
207 228 255
207 228 255
207 228 255
207 228 255
207 228 255
207 228 255
207 228 255
207 227 255
207 227 255
207 227 255
207 227 255
206 227 255
206 227 255
206 227 255
206 227 255
206 227 255
206 227 255
206 227 255
206 227 255
206 227 255
206 227 255
206 227 255
206 227 255
206 227 255
206 227 255
205 227 255
205 227 255
205 227 255
205 227 255
205 227 255
205 227 255
205 227 255
205 227 255
205 226 255
205 226 255
205 226 255
205 226 255
205 226 255
205 226 255
204 226 255
204 226 255
204 226 255
204 226 255
204 226 255
204 226 255
204 226 255
204 226 255
204 226 255
204 226 255
204 226 255
204 226 255
204 226 255
203 226 255
203 226 255
203 226 255
203 226 255
203 226 255
203 225 255
203 225 255
203 225 255
203 225 255
203 225 255
203 225 255
203 225 255
202 225 255
202 225 255
202 225 255
202 225 255
202 225 255
202 225 255
202 225 255
202 225 255
202 225 255
202 225 255
202 225 255
202 225 255
201 225 255
201 225 255
201 225 255
201 224 255
201 224 255
201 224 255
201 224 255
201 224 255
201 224 255
201 224 255
201 224 255
201 224 255
200 224 255
200 224 255
200 224 255
200 224 255
200 224 255
200 224 255
200 224 255
200 224 255
200 224 255
200 224 255
200 224 255
200 224 255
199 224 255
199 224 255
199 224 255
199 223 255
199 223 255
199 223 255
199 223 255
199 223 255
199 223 255
199 223 255
199 223 255
199 223 255
199 223 255
199 223 255
199 223 255
198 223 255
198 223 255
198 223 255
198 223 255
198 223 255
198 223 255
198 223 255
198 223 255
198 223 255
198 223 255
198 223 255
198 223 255
198 223 255
198 223 255
198 223 255
198 223 255
198 223 255
198 223 255
198 223 255
198 223 255
198 223 255
198 223 255
198 223 255
197 223 255
197 223 255
197 222 255
197 222 255
197 222 255
197 222 255
197 222 255
197 222 255
197 222 255
197 222 255
197 222 255
197 222 255
197 222 255
197 222 255
197 222 255
197 222 255
197 222 255
197 222 255
197 222 255
197 222 255
197 222 255
197 222 255
197 222 255
197 222 255
197 222 255
197 223 255
198 223 255
198 223 255
198 223 255
198 223 255
198 223 255
198 223 255
198 223 255
198 223 255
198 223 255
198 223 255
198 223 255
198 223 255
198 223 255
198 223 255
198 223 255
198 223 255
198 223 255
198 223 255
198 223 255
198 223 255
198 223 255
198 223 255
199 223 255
199 223 255
199 223 255
199 223 255
199 223 255
199 223 255
199 223 255
199 223 255
199 223 255
199 223 255
199 223 255
199 223 255
199 223 255
199 224 255
199 224 255
200 224 255
200 224 255
200 224 255
200 224 255
200 224 255
200 224 255
200 224 255
200 224 255
200 224 255
200 224 255
200 224 255
200 224 255
200 224 255
201 224 255
201 224 255
201 224 255
201 224 255
201 224 255
201 224 255
201 224 255
201 224 255
201 224 255
201 225 255
201 225 255
201 225 255
202 225 255
202 225 255
202 225 255
202 225 255
202 225 255
202 225 255
202 225 255
202 225 255
202 225 255
202 225 255
202 225 255
202 225 255
203 225 255
203 225 255
203 225 255
203 225 255
203 225 255
203 225 255
203 225 255
203 226 255
203 226 255
203 226 255
203 226 255
203 226 255
204 226 255
204 226 255
204 226 255
204 226 255
204 226 255
204 226 255
204 226 255
204 226 255
204 226 255
204 226 255
204 226 255
204 226 255
204 226 255
205 226 255
205 226 255
205 226 255
205 226 255
205 226 255
205 226 255
205 227 255
205 227 255
205 227 255
205 227 255
205 227 255
205 227 255
205 227 255
205 227 255
206 227 255
206 227 255
206 227 255
206 227 255
206 227 255
206 227 255
206 227 255
206 227 255
206 227 255
206 227 255
206 227 255
206 227 255
206 227 255
206 227 255
206 227 255
207 227 255
207 227 255
207 227 255
207 228 255
207 228 255
207 228 255
207 228 255
207 228 255
207 228 255
207 228 255
207 228 255
207 228 255
207 228 255
207 228 255
207 228 255
207 228 255
208 228 255
208 228 255
208 228 255
208 228 255
208 228 255
208 228 255
208 228 255
208 228 255
208 228 255
208 228 255
207 228 255
207 228 255
207 228 255
207 228 255
207 228 255
207 228 255
207 228 255
207 228 255
207 228 255
207 228 255
207 228 255
207 228 255
207 227 255
207 227 255
207 227 255
206 227 255
206 227 255
206 227 255
206 227 255
206 227 255
206 227 255
206 227 255
206 227 255
206 227 255
206 227 255
206 227 255
206 227 255
206 227 255
206 227 255
206 227 255
205 227 255
205 227 255
205 227 255
205 227 255
205 227 255
205 227 255
205 227 255
205 227 255
205 226 255
205 226 255
205 226 255
205 226 255
205 226 255
204 226 255
204 226 255
204 226 255
204 226 255
204 226 255
204 226 255
204 226 255
204 226 255
204 226 255
204 226 255
204 226 255
204 226 255
204 226 255
203 226 255
203 226 255
203 226 255
203 226 255
203 226 255
203 225 255
203 225 255
203 225 255
203 225 255
203 225 255
203 225 255
203 225 255
202 225 255
202 225 255
202 225 255
202 225 255
202 225 255
202 225 255
202 225 255
202 225 255
202 225 255
202 225 255
202 225 255
202 225 255
201 225 255
201 225 255
201 225 255
201 225 255
201 224 255
201 224 255
201 224 255
201 224 255
201 224 255
201 224 255
201 224 255
201 224 255
201 224 255
200 224 255
200 224 255
200 224 255
200 224 255
200 224 255
200 224 255
200 224 255
200 224 255
200 224 255
200 224 255
200 224 255
200 224 255
200 224 255
199 224 255
199 224 255
199 223 255
199 223 255
199 223 255
199 223 255
199 223 255
199 223 255
199 223 255
199 223 255
199 223 255
199 223 255
199 223 255
199 223 255
199 223 255
198 223 255
198 223 255
198 223 255
198 223 255
198 223 255
198 223 255
198 223 255
198 223 255
198 223 255
198 223 255
198 223 255
198 223 255
198 223 255
198 223 255
198 223 255
198 223 255
198 223 255
198 223 255
198 223 255
198 223 255
198 223 255
198 223 255
198 223 255
198 223 255
198 223 255
198 223 255
198 223 255
198 223 255
198 223 255
198 223 255
198 223 255
198 223 255
198 223 255
198 223 255
198 223 255
198 223 255
198 223 255
198 223 255
198 223 255
198 223 255
198 223 255
198 223 255
198 223 255
198 223 255
198 223 255
198 223 255
198 223 255
198 223 255
198 223 255
198 223 255
198 223 255
198 223 255
198 223 255
198 223 255
198 223 255
198 223 255
198 223 255
198 223 255
198 223 255
198 223 255
198 223 255
198 223 255
198 223 255
198 223 255
199 223 255
199 223 255
199 223 255
199 223 255
199 223 255
199 223 255
199 223 255
199 223 255
199 223 255
199 223 255
199 223 255
199 223 255
199 223 255
199 224 255
199 224 255
200 224 255
200 224 255
200 224 255
200 224 255
200 224 255
200 224 255
200 224 255
200 224 255
200 224 255
200 224 255
200 224 255
200 224 255
200 224 255
201 224 255
201 224 255
201 224 255
201 224 255
201 224 255
201 224 255
201 224 255
201 224 255
201 224 255
201 225 255
201 225 255
201 225 255
201 225 255
202 225 255
202 225 255
202 225 255
202 225 255
202 225 255
202 225 255
202 225 255
202 225 255
202 225 255
202 225 255
202 225 255
202 225 255
203 225 255
203 225 255
203 225 255
203 225 255
203 225 255
203 225 255
203 225 255
203 226 255
203 226 255
203 226 255
203 226 255
203 226 255
204 226 255
204 226 255
204 226 255
204 226 255
204 226 255
204 226 255
204 226 255
204 226 255
204 226 255
204 226 255
204 226 255
204 226 255
204 226 255
205 226 255
205 226 255
205 226 255
205 226 255
205 226 255
205 227 255
205 227 255
205 227 255
205 227 255
205 227 255
205 227 255
205 227 255
205 227 255
206 227 255
206 227 255
206 227 255
206 227 255
206 227 255
206 227 255
206 227 255
206 227 255
206 227 255
206 227 255
206 227 255
206 227 255
206 227 255
206 227 255
207 227 255
207 227 255
207 227 255
207 227 255
207 228 255
207 228 255
207 228 255
207 228 255
207 228 255
207 228 255
207 228 255
207 228 255
207 228 255
207 228 255
207 228 255
207 228 255
208 228 255
208 228 255
208 228 255
208 228 255
208 228 255
208 228 255
208 228 255
208 228 255
208 228 255
208 228 255
208 228 255
208 228 255
208 228 255
208 228 255
208 228 255
208 228 255
207 228 255
207 228 255
207 228 255
207 228 255
207 228 255
207 228 255
207 228 255
207 228 255
207 228 255
207 228 255
207 228 255
207 228 255
207 228 255
207 227 255
207 227 255
207 227 255
206 227 255
206 227 255
206 227 255
206 227 255
206 227 255
206 227 255
206 227 255
206 227 255
206 227 255
206 227 255
206 227 255
206 227 255
206 227 255
206 227 255
206 227 255
205 227 255
205 227 255
205 227 255
205 227 255
205 227 255
205 227 255
205 227 255
205 227 255
205 226 255
205 226 255
205 226 255
205 226 255
205 226 255
204 226 255
204 226 255
204 226 255
204 226 255
204 226 255
204 226 255
204 226 255
204 226 255
204 226 255
204 226 255
204 226 255
204 226 255
204 226 255
203 226 255
203 226 255
203 226 255
203 226 255
203 226 255
203 225 255
203 225 255
203 225 255
203 225 255
203 225 255
203 225 255
203 225 255
202 225 255
202 225 255
202 225 255
202 225 255
202 225 255
202 225 255
202 225 255
202 225 255
202 225 255
202 225 255
202 225 255
202 225 255
201 225 255
201 225 255
201 225 255
201 225 255
201 224 255
201 224 255
201 224 255
201 224 255
201 224 255
201 224 255
201 224 255
201 224 255
201 224 255
200 224 255
200 224 255
200 224 255
200 224 255
200 224 255
200 224 255
200 224 255
200 224 255
200 224 255
200 224 255
200 224 255
200 224 255
200 224 255
199 224 255
199 224 255
199 223 255
199 223 255
199 223 255
199 223 255
199 223 255
199 223 255
199 223 255
199 223 255
199 223 255
199 223 255
199 223 255
199 223 255
199 223 255
199 223 255
199 223 255
198 223 255
198 223 255
198 223 255
198 223 255
198 223 255
198 223 255
198 223 255
198 223 255
198 223 255
198 223 255
198 223 255
198 223 255
198 223 255
198 223 255
198 223 255
198 223 255
198 223 255
198 223 255
198 223 255
198 223 255
198 223 255
198 223 255
198 223 255
198 223 255
198 223 255
198 223 255
198 223 255
198 223 255
198 223 255
198 223 255
198 223 255
198 223 255
198 223 255
198 223 255
198 223 255
198 223 255
198 223 255
198 223 255
198 223 255
198 223 255
198 223 255
198 223 255
198 223 255
198 223 255
198 223 255
198 223 255
198 223 255
198 223 255
198 223 255
198 223 255
198 223 255
198 223 255
198 223 255
198 223 255
199 223 255
199 223 255
199 223 255
199 223 255
199 223 255
199 223 255
199 223 255
199 223 255
199 223 255
199 223 255
199 223 255
199 223 255
199 223 255
199 223 255
199 223 255
199 224 255
199 224 255
200 224 255
200 224 255
200 224 255
200 224 255
200 224 255
200 224 255
200 224 255
200 224 255
200 224 255
200 224 255
200 224 255
200 224 255
200 224 255
200 224 255
201 224 255
201 224 255
201 224 255
201 224 255
201 224 255
201 224 255
201 224 255
201 224 255
201 225 255
201 225 255
201 225 255
201 225 255
202 225 255
202 225 255
202 225 255
202 225 255
202 225 255
202 225 255
202 225 255
202 225 255
202 225 255
202 225 255
202 225 255
202 225 255
203 225 255
203 225 255
203 225 255
203 225 255
203 225 255
203 225 255
203 225 255
203 226 255
203 226 255
203 226 255
203 226 255
203 226 255
204 226 255
204 226 255
204 226 255
204 226 255
204 226 255
204 226 255
204 226 255
204 226 255
204 226 255
204 226 255
204 226 255
204 226 255
204 226 255
205 226 255
205 226 255
205 226 255
205 226 255
205 226 255
205 227 255
205 227 255
205 227 255
205 227 255
205 227 255
205 227 255
205 227 255
205 227 255
206 227 255
206 227 255
206 227 255
206 227 255
206 227 255
206 227 255
206 227 255
206 227 255
206 227 255
206 227 255
206 227 255
206 227 255
206 227 255
206 227 255
206 227 255
207 227 255
207 227 255
207 227 255
207 227 255
207 228 255
207 228 255
207 228 255
207 228 255
207 228 255
207 228 255
207 228 255
207 228 255
207 228 255
207 228 255
207 228 255
208 228 255
208 228 255
208 228 255
208 228 255
208 228 255
208 228 255
208 228 255
208 228 255
208 228 255
208 228 255
208 228 255
208 228 255
208 228 255
208 228 255
208 228 255
208 228 255
208 228 255
208 228 255
208 228 255
208 228 255
208 228 255
208 228 255
208 228 255
207 228 255
207 228 255
207 228 255
207 228 255
207 228 255
207 228 255
207 228 255
207 228 255
207 228 255
207 228 255
207 228 255
207 228 255
207 227 255
207 227 255
207 227 255
206 227 255
206 227 255
206 227 255
206 227 255
206 227 255
206 227 255
206 227 255
206 227 255
206 227 255
206 227 255
206 227 255
206 227 255
206 227 255
206 227 255
205 227 255
205 227 255
205 227 255
205 227 255
205 227 255
205 227 255
205 227 255
205 227 255
205 227 255
205 226 255
205 226 255
205 226 255
205 226 255
205 226 255
204 226 255
204 226 255
204 226 255
204 226 255
204 226 255
204 226 255
204 226 255
204 226 255
204 226 255
204 226 255
204 226 255
204 226 255
204 226 255
203 226 255
203 226 255
203 226 255
203 226 255
203 226 255
203 225 255
203 225 255
203 225 255
203 225 255
203 225 255
203 225 255
203 225 255
202 225 255
202 225 255
202 225 255
202 225 255
202 225 255
202 225 255
202 225 255
202 225 255
202 225 255
202 225 255
202 225 255
202 225 255
201 225 255
201 225 255
201 225 255
201 225 255
201 224 255
201 224 255
201 224 255
201 224 255
201 224 255
201 224 255
201 224 255
201 224 255
201 224 255
200 224 255
200 224 255
200 224 255
200 224 255
200 224 255
200 224 255
200 224 255
200 224 255
200 224 255
200 224 255
200 224 255
200 224 255
200 224 255
200 224 255
199 224 255
199 224 255
199 223 255
199 223 255
199 223 255
199 223 255
199 223 255
199 223 255
199 223 255
199 223 255
199 223 255
199 223 255
199 223 255
199 223 255
199 223 255
199 223 255
199 223 255
198 223 255
198 223 255
198 223 255
198 223 255
198 223 255
198 223 255
198 223 255
198 223 255
198 223 255
198 223 255
198 223 255
198 223 255
198 223 255
198 223 255
198 223 255
198 223 255
198 223 255
198 223 255
198 223 255
198 223 255
198 223 255
198 223 255
198 223 255
198 223 255
198 223 255
198 223 255
198 223 255
198 223 255
198 223 255
198 223 255
198 223 255
198 223 255
198 223 255
198 223 255
198 223 255
198 223 255
198 223 255
198 223 255
198 223 255
198 223 255
198 223 255
198 223 255
198 223 255
198 223 255
198 223 255
199 223 255
199 223 255
199 223 255
199 223 255
199 223 255
199 223 255
199 223 255
199 223 255
199 223 255
199 223 255
199 223 255
199 223 255
199 223 255
199 223 255
199 223 255
199 223 255
199 224 255
199 224 255
199 224 255
200 224 255
200 224 255
200 224 255
200 224 255
200 224 255
200 224 255
200 224 255
200 224 255
200 224 255
200 224 255
200 224 255
200 224 255
200 224 255
200 224 255
201 224 255
201 224 255
201 224 255
201 224 255
201 224 255
201 224 255
201 224 255
201 224 255
201 224 255
201 225 255
201 225 255
201 225 255
202 225 255
202 225 255
202 225 255
202 225 255
202 225 255
202 225 255
202 225 255
202 225 255
202 225 255
202 225 255
202 225 255
202 225 255
203 225 255
203 225 255
203 225 255
203 225 255
203 225 255
203 225 255
203 225 255
203 226 255
203 226 255
203 226 255
203 226 255
203 226 255
203 226 255
204 226 255
204 226 255
204 226 255
204 226 255
204 226 255
204 226 255
204 226 255
204 226 255
204 226 255
204 226 255
204 226 255
204 226 255
205 226 255
205 226 255
205 226 255
205 226 255
205 226 255
205 227 255
205 227 255
205 227 255
205 227 255
205 227 255
205 227 255
205 227 255
205 227 255
205 227 255
206 227 255
206 227 255
206 227 255
206 227 255
206 227 255
206 227 255
206 227 255
206 227 255
206 227 255
206 227 255
206 227 255
206 227 255
206 227 255
206 227 255
207 227 255
207 227 255
207 227 255
207 227 255
207 228 255
207 228 255
207 228 255
207 228 255
207 228 255
207 228 255
207 228 255
207 228 255
207 228 255
207 228 255
207 228 255
208 228 255
208 228 255
208 228 255
208 228 255
208 228 255
208 228 255
208 228 255
208 228 255
208 228 255
208 228 255
208 228 255
208 228 255
208 228 255
208 228 255
208 228 255
208 228 255
208 228 255
208 228 255
208 228 255
208 228 255
208 228 255
208 228 255
208 228 255
208 228 255
208 228 255
208 228 255
208 228 255
208 228 255
208 228 255
207 228 255
207 228 255
207 228 255
207 228 255
207 228 255
207 228 255
207 228 255
207 228 255
207 228 255
207 228 255
207 228 255
207 228 255
207 227 255
207 227 255
207 227 255
206 227 255
206 227 255
206 227 255
206 227 255
206 227 255
206 227 255
206 227 255
206 227 255
206 227 255
206 227 255
206 227 255
206 227 255
206 227 255
206 227 255
205 227 255
205 227 255
205 227 255
205 227 255
205 227 255
205 227 255
205 227 255
205 227 255
205 226 255
205 226 255
205 226 255
205 226 255
205 226 255
205 226 255
204 226 255
204 226 255
204 226 255
204 226 255
204 226 255
204 226 255
204 226 255
204 226 255
204 226 255
204 226 255
204 226 255
204 226 255
203 226 255
203 226 255
203 226 255
203 226 255
203 226 255
203 226 255
203 225 255
203 225 255
203 225 255
203 225 255
203 225 255
203 225 255
202 225 255
202 225 255
202 225 255
202 225 255
202 225 255
202 225 255
202 225 255
202 225 255
202 225 255
202 225 255
202 225 255
202 225 255
202 225 255
201 225 255
201 225 255
201 225 255
201 224 255
201 224 255
201 224 255
201 224 255
201 224 255
201 224 255
201 224 255
201 224 255
201 224 255
201 224 255
200 224 255
200 224 255
200 224 255
200 224 255
200 224 255
200 224 255
200 224 255
200 224 255
200 224 255
200 224 255
200 224 255
200 224 255
200 224 255
200 224 255
199 224 255
199 224 255
199 224 255
199 223 255
199 223 255
199 223 255
199 223 255
199 223 255
199 223 255
199 223 255
199 223 255
199 223 255
199 223 255
199 223 255
199 223 255
199 223 255
199 223 255
199 223 255
199 223 255
199 223 255
199 223 255
199 223 255
198 223 255
198 223 255
198 223 255
198 223 255
198 223 255
198 223 255
198 223 255
198 223 255
198 223 255
198 223 255
198 223 255
198 223 255
198 223 255
198 223 255
198 223 255
198 223 255
198 223 255
198 223 255
198 223 255
198 223 255
198 223 255
198 223 255
198 223 255
198 223 255
198 223 255
198 223 255
198 223 255
198 223 255
198 223 255
198 223 255
198 223 255
199 223 255
199 223 255
199 223 255
199 223 255
199 223 255
199 223 255
199 223 255
199 223 255
199 223 255
199 223 255
199 223 255
199 223 255
199 223 255
199 223 255
199 223 255
199 223 255
199 223 255
199 223 255
199 224 255
199 224 255
199 224 255
200 224 255
200 224 255
200 224 255
200 224 255
200 224 255
200 224 255
200 224 255
200 224 255
200 224 255
200 224 255
200 224 255
200 224 255
200 224 255
200 224 255
201 224 255
201 224 255
201 224 255
201 224 255
201 224 255
201 224 255
201 224 255
201 224 255
201 224 255
201 225 255
201 225 255
201 225 255
201 225 255
202 225 255
202 225 255
202 225 255
202 225 255
202 225 255
202 225 255
202 225 255
202 225 255
202 225 255
202 225 255
202 225 255
202 225 255
203 225 255
203 225 255
203 225 255
203 225 255
203 225 255
203 225 255
203 225 255
203 226 255
203 226 255
203 226 255
203 226 255
203 226 255
203 226 255
204 226 255
204 226 255
204 226 255
204 226 255
204 226 255
204 226 255
204 226 255
204 226 255
204 226 255
204 226 255
204 226 255
204 226 255
205 226 255
205 226 255
205 226 255
205 226 255
205 226 255
205 226 255
205 227 255
205 227 255
205 227 255
205 227 255
205 227 255
205 227 255
205 227 255
205 227 255
206 227 255
206 227 255
206 227 255
206 227 255
206 227 255
206 227 255
206 227 255
206 227 255
206 227 255
206 227 255
206 227 255
206 227 255
206 227 255
206 227 255
207 227 255
207 227 255
207 227 255
207 227 255
207 228 255
207 228 255
207 228 255
207 228 255
207 228 255
207 228 255
207 228 255
207 228 255
207 228 255
207 228 255
207 228 255
208 228 255
208 228 255
208 228 255
208 228 255
208 228 255
208 228 255
208 228 255
208 228 255
208 228 255
208 228 255
208 228 255
208 228 255
208 228 255
208 228 255
208 228 255
208 228 255
209 229 255
209 228 255
208 228 255
208 228 255
208 228 255
208 228 255
208 228 255
208 228 255
208 228 255
208 228 255
208 228 255
208 228 255
208 228 255
208 228 255
208 228 255
208 228 255
208 228 255
208 228 255
208 228 255
207 228 255
207 228 255
207 228 255
207 228 255
207 228 255
207 228 255
207 228 255
207 228 255
207 228 255
207 228 255
207 228 255
207 228 255
207 227 255
207 227 255
207 227 255
206 227 255
206 227 255
206 227 255
206 227 255
206 227 255
206 227 255
206 227 255
206 227 255
206 227 255
206 227 255
206 227 255
206 227 255
206 227 255
206 227 255
205 227 255
205 227 255
205 227 255
205 227 255
205 227 255
205 227 255
205 227 255
205 227 255
205 226 255
205 226 255
205 226 255
205 226 255
205 226 255
204 226 255
204 226 255
204 226 255
204 226 255
204 226 255
204 226 255
204 226 255
204 226 255
204 226 255
204 226 255
204 226 255
204 226 255
204 226 255
203 226 255
203 226 255
203 226 255
203 226 255
203 226 255
203 225 255
203 225 255
203 225 255
203 225 255
203 225 255
203 225 255
203 225 255
202 225 255
202 225 255
202 225 255
202 225 255
202 225 255
202 225 255
202 225 255
202 225 255
202 225 255
202 225 255
202 225 255
202 225 255
202 225 255
201 225 255
201 225 255
201 225 255
201 224 255
201 224 255
201 224 255
201 224 255
201 224 255
201 224 255
201 224 255
201 224 255
201 224 255
201 224 255
200 224 255
200 224 255
200 224 255
200 224 255
200 224 255
200 224 255
200 224 255
200 224 255
200 224 255
200 224 255
200 224 255
200 224 255
200 224 255
200 224 255
200 224 255
199 224 255
199 224 255
199 224 255
199 223 255
199 223 255
199 223 255
199 223 255
199 223 255
199 223 255
199 223 255
199 223 255
199 223 255
199 223 255
199 223 255
199 223 255
199 223 255
199 223 255
199 223 255
199 223 255
199 223 255
199 223 255
199 223 255
199 223 255
199 223 255
199 223 255
199 223 255
199 223 255
199 223 255
199 223 255
199 223 255
199 223 255
199 223 255
199 223 255
199 223 255
199 223 255
199 223 255
199 223 255
199 223 255
199 223 255
199 223 255
199 223 255
199 223 255
199 223 255
199 223 255
199 223 255
199 223 255
199 223 255
199 223 255
199 223 255
199 223 255
199 223 255
199 223 255
199 223 255
199 223 255
199 223 255
199 223 255
199 223 255
199 223 255
199 223 255
199 223 255
199 223 255
199 223 255
199 223 255
199 224 255
199 224 255
200 224 255
200 224 255
200 224 255
200 224 255
200 224 255
200 224 255
200 224 255
200 224 255
200 224 255
200 224 255
200 224 255
200 224 255
200 224 255
200 224 255
200 224 255
200 224 255
201 224 255
201 224 255
201 224 255
201 224 255
201 224 255
201 224 255
201 224 255
201 224 255
201 224 255
201 225 255
201 225 255
201 225 255
201 225 255
201 225 255
202 225 255
202 225 255
202 225 255
202 225 255
202 225 255
202 225 255
202 225 255
202 225 255
202 225 255
202 225 255
202 225 255
202 225 255
203 225 255
203 225 255
203 225 255
203 225 255
203 225 255
203 225 255
203 225 255
203 226 255
203 226 255
203 226 255
203 226 255
203 226 255
204 226 255
204 226 255
204 226 255
204 226 255
204 226 255
204 226 255
204 226 255
204 226 255
204 226 255
204 226 255
204 226 255
204 226 255
204 226 255
205 226 255
205 226 255
205 226 255
205 226 255
205 226 255
205 227 255
205 227 255
205 227 255
205 227 255
205 227 255
205 227 255
205 227 255
205 227 255
206 227 255
206 227 255
206 227 255
206 227 255
206 227 255
206 227 255
206 227 255
206 227 255
206 227 255
206 227 255
206 227 255
206 227 255
206 227 255
206 227 255
207 227 255
207 227 255
207 227 255
207 228 255
207 228 255
207 228 255
207 228 255
207 228 255
207 228 255
207 228 255
207 228 255
207 228 255
207 228 255
207 228 255
207 228 255
208 228 255
208 228 255
208 228 255
208 228 255
208 228 255
208 228 255
208 228 255
208 228 255
208 228 255
208 228 255
208 228 255
208 228 255
208 228 255
208 228 255
208 228 255
208 228 255
208 228 255
209 228 255
209 229 255
209 229 255
209 229 255
209 229 255
209 229 255
209 228 255
208 228 255
208 228 255
208 228 255
208 228 255
208 228 255
208 228 255
208 228 255
208 228 255
208 228 255
208 228 255
208 228 255
208 228 255
208 228 255
208 228 255
208 228 255
208 228 255
208 228 255
207 228 255
207 228 255
207 228 255
207 228 255
207 228 255
207 228 255
207 228 255
207 228 255
207 228 255
207 228 255
207 228 255
207 228 255
207 227 255
207 227 255
207 227 255
206 227 255
206 227 255
206 227 255
206 227 255
206 227 255
206 227 255
206 227 255
206 227 255
206 227 255
206 227 255
206 227 255
206 227 255
206 227 255
206 227 255
205 227 255
205 227 255
205 227 255
205 227 255
205 227 255
205 227 255
205 227 255
205 227 255
205 226 255
205 226 255
205 226 255
205 226 255
205 226 255
204 226 255
204 226 255
204 226 255
204 226 255
204 226 255
204 226 255
204 226 255
204 226 255
204 226 255
204 226 255
204 226 255
204 226 255
204 226 255
203 226 255
203 226 255
203 226 255
203 226 255
203 226 255
203 225 255
203 225 255
203 225 255
203 225 255
203 225 255
203 225 255
203 225 255
202 225 255
202 225 255
202 225 255
202 225 255
202 225 255
202 225 255
202 225 255
202 225 255
202 225 255
202 225 255
202 225 255
202 225 255
202 225 255
201 225 255
201 225 255
201 225 255
201 225 255
201 224 255
201 224 255
201 224 255
201 224 255
201 224 255
201 224 255
201 224 255
201 224 255
201 224 255
201 224 255
200 224 255
200 224 255
200 224 255
200 224 255
200 224 255
200 224 255
200 224 255
200 224 255
200 224 255
200 224 255
200 224 255
200 224 255
200 224 255
200 224 255
200 224 255
199 224 255
199 224 255
199 224 255
199 224 255
199 224 255
199 223 255
199 223 255
199 223 255
199 223 255
199 223 255
199 223 255
199 223 255
199 223 255
199 223 255
199 223 255
199 223 255
199 223 255
199 223 255
199 223 255
199 223 255
199 223 255
199 223 255
199 223 255
199 223 255
199 223 255
199 223 255
199 223 255
199 223 255
199 223 255
199 223 255
199 223 255
199 223 255
199 223 255
199 223 255
199 223 255
199 223 255
199 223 255
199 223 255
199 223 255
199 223 255
199 223 255
199 223 255
199 223 255
199 223 255
199 223 255
199 223 255
199 223 255
199 223 255
199 223 255
199 223 255
199 223 255
199 223 255
199 223 255
199 223 255
199 224 255
199 224 255
199 224 255
200 224 255
200 224 255
200 224 255
200 224 255
200 224 255
200 224 255
200 224 255
200 224 255
200 224 255
200 224 255
200 224 255
200 224 255
200 224 255
200 224 255
200 224 255
200 224 255
200 224 255
201 224 255
201 224 255
201 224 255
201 224 255
201 224 255
201 224 255
201 224 255
201 224 255
201 224 255
201 224 255
201 225 255
201 225 255
201 225 255
202 225 255
202 225 255
202 225 255
202 225 255
202 225 255
202 225 255
202 225 255
202 225 255
202 225 255
202 225 255
202 225 255
202 225 255
202 225 255
203 225 255
203 225 255
203 225 255
203 225 255
203 225 255
203 225 255
203 225 255
203 226 255
203 226 255
203 226 255
203 226 255
203 226 255
204 226 255
204 226 255
204 226 255
204 226 255
204 226 255
204 226 255
204 226 255
204 226 255
204 226 255
204 226 255
204 226 255
204 226 255
204 226 255
205 226 255
205 226 255
205 226 255
205 226 255
205 226 255
205 227 255
205 227 255
205 227 255
205 227 255
205 227 255
205 227 255
205 227 255
205 227 255
206 227 255
206 227 255
206 227 255
206 227 255
206 227 255
206 227 255
206 227 255
206 227 255
206 227 255
206 227 255
206 227 255
206 227 255
206 227 255
206 227 255
207 227 255
207 227 255
207 227 255
207 228 255
207 228 255
207 228 255
207 228 255
207 228 255
207 228 255
207 228 255
207 228 255
207 228 255
207 228 255
207 228 255
207 228 255
208 228 255
208 228 255
208 228 255
208 228 255
208 228 255
208 228 255
208 228 255
208 228 255
208 228 255
208 228 255
208 228 255
208 228 255
208 228 255
208 228 255
208 228 255
208 228 255
208 228 255
209 228 255
209 229 255
209 229 255
209 229 255
209 229 255
209 229 255
209 229 255
209 229 255
209 229 255
209 229 255
209 229 255
209 229 255
209 228 255
208 228 255
208 228 255
208 228 255
208 228 255
208 228 255
208 228 255
208 228 255
208 228 255
208 228 255
208 228 255
208 228 255
208 228 255
208 228 255
208 228 255
208 228 255
208 228 255
208 228 255
207 228 255
207 228 255
207 228 255
207 228 255
207 228 255
207 228 255
207 228 255
207 228 255
207 228 255
207 228 255
207 228 255
207 228 255
207 227 255
207 227 255
207 227 255
206 227 255
206 227 255
206 227 255
206 227 255
206 227 255
206 227 255
206 227 255
206 227 255
206 227 255
206 227 255
206 227 255
206 227 255
206 227 255
206 227 255
205 227 255
205 227 255
205 227 255
205 227 255
205 227 255
205 227 255
205 227 255
205 227 255
205 226 255
205 226 255
205 226 255
205 226 255
205 226 255
204 226 255
204 226 255
204 226 255
204 226 255
204 226 255
204 226 255
204 226 255
204 226 255
204 226 255
204 226 255
204 226 255
204 226 255
203 226 255
203 226 255
203 226 255
203 226 255
203 226 255
203 226 255
203 225 255
203 225 255
203 225 255
203 225 255
203 225 255
203 225 255
203 225 255
202 225 255
202 225 255
202 225 255
202 225 255
202 225 255
202 225 255
202 225 255
202 225 255
202 225 255
202 225 255
202 225 255
202 225 255
202 225 255
201 225 255
201 225 255
201 225 255
201 225 255
201 224 255
201 224 255
201 224 255
201 224 255
201 224 255
201 224 255
201 224 255
201 224 255
201 224 255
201 224 255
200 224 255
200 224 255
200 224 255
200 224 255
200 224 255
200 224 255
200 224 255
200 224 255
200 224 255
200 224 255
200 224 255
200 224 255
200 224 255
200 224 255
200 224 255
200 224 255
200 224 255
200 224 255
199 224 255
199 224 255
199 224 255
199 224 255
199 224 255
199 223 255
199 223 255
199 223 255
199 223 255
199 223 255
199 223 255
199 223 255
199 223 255
199 223 255
199 223 255
199 223 255
199 223 255
199 223 255
199 223 255
199 223 255
199 223 255
199 223 255
199 223 255
199 223 255
199 223 255
199 223 255
199 223 255
199 223 255
199 223 255
199 223 255
199 223 255
199 223 255
199 223 255
199 223 255
199 223 255
199 223 255
199 223 255
199 223 255
199 223 255
199 223 255
199 223 255
199 224 255
199 224 255
199 224 255
199 224 255
199 224 255
200 224 255
200 224 255
200 224 255
200 224 255
200 224 255
200 224 255
200 224 255
200 224 255
200 224 255
200 224 255
200 224 255
200 224 255
200 224 255
200 224 255
200 224 255
200 224 255
200 224 255
200 224 255
201 224 255
201 224 255
201 224 255
201 224 255
201 224 255
201 224 255
201 224 255
201 224 255
201 224 255
201 224 255
201 225 255
201 225 255
201 225 255
201 225 255
202 225 255
202 225 255
202 225 255
202 225 255
202 225 255
202 225 255
202 225 255
202 225 255
202 225 255
202 225 255
202 225 255
202 225 255
202 225 255
203 225 255
203 225 255
203 225 255
203 225 255
203 225 255
203 225 255
203 225 255
203 226 255
203 226 255
203 226 255
203 226 255
203 226 255
204 226 255
204 226 255
204 226 255
204 226 255
204 226 255
204 226 255
204 226 255
204 226 255
204 226 255
204 226 255
204 226 255
204 226 255
204 226 255
205 226 255
205 226 255
205 226 255
205 226 255
205 226 255
205 227 255
205 227 255
205 227 255
205 227 255
205 227 255
205 227 255
205 227 255
205 227 255
206 227 255
206 227 255
206 227 255
206 227 255
206 227 255
206 227 255
206 227 255
206 227 255
206 227 255
206 227 255
206 227 255
206 227 255
206 227 255
206 227 255
207 227 255
207 227 255
207 227 255
207 227 255
207 228 255
207 228 255
207 228 255
207 228 255
207 228 255
207 228 255
207 228 255
207 228 255
207 228 255
207 228 255
207 228 255
208 228 255
208 228 255
208 228 255
208 228 255
208 228 255
208 228 255
208 228 255
208 228 255
208 228 255
208 228 255
208 228 255
208 228 255
208 228 255
208 228 255
208 228 255
208 228 255
208 228 255
209 228 255
209 229 255
209 229 255
209 229 255
209 229 255
209 229 255
209 229 255
209 229 255
209 229 255
209 229 255
209 229 255
209 229 255
209 229 255
209 229 255
209 229 255
209 229 255
209 229 255
209 229 255
209 228 255
209 228 255
208 228 255
208 228 255
208 228 255
208 228 255
208 228 255
208 228 255
208 228 255
208 228 255
208 228 255
208 228 255
208 228 255
208 228 255
208 228 255
208 228 255
208 228 255
208 228 255
207 228 255
207 228 255
207 228 255
207 228 255
207 228 255
207 228 255
207 228 255
207 228 255
207 228 255
207 228 255
207 228 255
207 228 255
207 227 255
207 227 255
207 227 255
206 227 255
206 227 255
206 227 255
206 227 255
206 227 255
206 227 255
206 227 255
206 227 255
206 227 255
206 227 255
206 227 255
206 227 255
206 227 255
206 227 255
205 227 255
205 227 255
205 227 255
205 227 255
205 227 255
205 227 255
205 227 255
205 227 255
205 226 255
205 226 255
205 226 255
205 226 255
205 226 255
204 226 255
204 226 255
204 226 255
204 226 255
204 226 255
204 226 255
204 226 255
204 226 255
204 226 255
204 226 255
204 226 255
204 226 255
204 226 255
203 226 255
203 226 255
203 226 255
203 226 255
203 226 255
203 225 255
203 225 255
203 225 255
203 225 255
203 225 255
203 225 255
203 225 255
202 225 255
202 225 255
202 225 255
202 225 255
202 225 255
202 225 255
202 225 255
202 225 255
202 225 255
202 225 255
202 225 255
202 225 255
202 225 255
201 225 255
201 225 255
201 225 255
201 225 255
201 224 255
201 224 255
201 224 255
201 224 255
201 224 255
201 224 255
201 224 255
201 224 255
201 224 255
201 224 255
201 224 255
200 224 255
200 224 255
200 224 255
200 224 255
200 224 255
200 224 255
200 224 255
200 224 255
200 224 255
200 224 255
200 224 255
200 224 255
200 224 255
200 224 255
200 224 255
200 224 255
200 224 255
200 224 255
200 224 255
200 224 255
200 224 255
200 224 255
199 224 255
199 224 255
199 224 255
199 224 255
199 224 255
199 224 255
199 223 255
199 223 255
199 223 255
199 223 255
199 223 255
199 223 255
199 223 255
199 223 255
199 223 255
199 223 255
199 223 255
199 223 255
199 223 255
199 223 255
199 223 255
199 223 255
199 223 255
199 223 255
199 224 255
199 224 255
199 224 255
199 224 255
199 224 255
199 224 255
200 224 255
200 224 255
200 224 255
200 224 255
200 224 255
200 224 255
200 224 255
200 224 255
200 224 255
200 224 255
200 224 255
200 224 255
200 224 255
200 224 255
200 224 255
200 224 255
200 224 255
200 224 255
200 224 255
200 224 255
200 224 255
200 224 255
201 224 255
201 224 255
201 224 255
201 224 255
201 224 255
201 224 255
201 224 255
201 224 255
201 224 255
201 224 255
201 224 255
201 225 255
201 225 255
201 225 255
201 225 255
202 225 255
202 225 255
202 225 255
202 225 255
202 225 255
202 225 255
202 225 255
202 225 255
202 225 255
202 225 255
202 225 255
202 225 255
202 225 255
203 225 255
203 225 255
203 225 255
203 225 255
203 225 255
203 225 255
203 225 255
203 226 255
203 226 255
203 226 255
203 226 255
203 226 255
203 226 255
204 226 255
204 226 255
204 226 255
204 226 255
204 226 255
204 226 255
204 226 255
204 226 255
204 226 255
204 226 255
204 226 255
204 226 255
205 226 255
205 226 255
205 226 255
205 226 255
205 226 255
205 227 255
205 227 255
205 227 255
205 227 255
205 227 255
205 227 255
205 227 255
205 227 255
206 227 255
206 227 255
206 227 255
206 227 255
206 227 255
206 227 255
206 227 255
206 227 255
206 227 255
206 227 255
206 227 255
206 227 255
206 227 255
206 227 255
207 227 255
207 227 255
207 227 255
207 228 255
207 228 255
207 228 255
207 228 255
207 228 255
207 228 255
207 228 255
207 228 255
207 228 255
207 228 255
207 228 255
207 228 255
208 228 255
208 228 255
208 228 255
208 228 255
208 228 255
208 228 255
208 228 255
208 228 255
208 228 255
208 228 255
208 228 255
208 228 255
208 228 255
208 228 255
208 228 255
208 228 255
209 228 255
209 228 255
209 229 255
209 229 255
209 229 255
209 229 255
209 229 255
209 229 255
209 229 255
209 229 255
209 229 255
209 229 255
209 229 255
209 229 255
209 229 255
209 229 255
209 229 255
209 229 255
209 229 255
209 229 255
209 229 255
209 229 255
209 229 255
209 229 255
209 229 255
209 229 255
209 228 255
208 228 255
208 228 255
208 228 255
208 228 255
208 228 255
208 228 255
208 228 255
208 228 255
208 228 255
208 228 255
208 228 255
208 228 255
208 228 255
208 228 255
208 228 255
208 228 255
207 228 255
207 228 255
207 228 255
207 228 255
207 228 255
207 228 255
207 228 255
207 228 255
207 228 255
207 228 255
207 228 255
207 228 255
207 227 255
207 227 255
207 227 255
206 227 255
206 227 255
206 227 255
206 227 255
206 227 255
206 227 255
206 227 255
206 227 255
206 227 255
206 227 255
206 227 255
206 227 255
206 227 255
206 227 255
205 227 255
205 227 255
205 227 255
205 227 255
205 227 255
205 227 255
205 227 255
205 227 255
205 226 255
205 226 255
205 226 255
205 226 255
205 226 255
204 226 255
204 226 255
204 226 255
204 226 255
204 226 255
204 226 255
204 226 255
204 226 255
204 226 255
204 226 255
204 226 255
204 226 255
204 226 255
203 226 255
203 226 255
203 226 255
203 226 255
203 226 255
203 225 255
203 225 255
203 225 255
203 225 255
203 225 255
203 225 255
203 225 255
202 225 255
202 225 255
202 225 255
202 225 255
202 225 255
202 225 255
202 225 255
202 225 255
202 225 255
202 225 255
202 225 255
202 225 255
202 225 255
202 225 255
201 225 255
201 225 255
201 225 255
201 225 255
201 224 255
201 224 255
201 224 255
201 224 255
201 224 255
201 224 255
201 224 255
201 224 255
201 224 255
201 224 255
201 224 255
200 224 255
200 224 255
200 224 255
200 224 255
200 224 255
200 224 255
200 224 255
200 224 255
200 224 255
200 224 255
200 224 255
200 224 255
200 224 255
200 224 255
200 224 255
200 224 255
200 224 255
200 224 255
200 224 255
200 224 255
200 224 255
200 224 255
200 224 255
200 224 255
200 224 255
200 224 255
200 224 255
200 224 255
200 224 255
200 224 255
200 224 255
200 224 255
200 224 255
200 224 255
200 224 255
200 224 255
200 224 255
200 224 255
200 224 255
200 224 255
200 224 255
200 224 255
200 224 255
200 224 255
200 224 255
200 224 255
200 224 255
200 224 255
200 224 255
200 224 255
200 224 255
200 224 255
200 224 255
200 224 255
200 224 255
200 224 255
200 224 255
200 224 255
200 224 255
200 224 255
200 224 255
200 224 255
200 224 255
200 224 255
200 224 255
200 224 255
201 224 255
201 224 255
201 224 255
201 224 255
201 224 255
201 224 255
201 224 255
201 224 255
201 224 255
201 224 255
201 224 255
201 225 255
201 225 255
201 225 255
201 225 255
202 225 255
202 225 255
202 225 255
202 225 255
202 225 255
202 225 255
202 225 255
202 225 255
202 225 255
202 225 255
202 225 255
202 225 255
202 225 255
202 225 255
203 225 255
203 225 255
203 225 255
203 225 255
203 225 255
203 225 255
203 225 255
203 226 255
203 226 255
203 226 255
203 226 255
203 226 255
204 226 255
204 226 255
204 226 255
204 226 255
204 226 255
204 226 255
204 226 255
204 226 255
204 226 255
204 226 255
204 226 255
204 226 255
204 226 255
205 226 255
205 226 255
205 226 255
205 226 255
205 226 255
205 227 255
205 227 255
205 227 255
205 227 255
205 227 255
205 227 255
205 227 255
205 227 255
206 227 255
206 227 255
206 227 255
206 227 255
206 227 255
206 227 255
206 227 255
206 227 255
206 227 255
206 227 255
206 227 255
206 227 255
206 227 255
206 227 255
207 227 255
207 227 255
207 227 255
207 228 255
207 228 255
207 228 255
207 228 255
207 228 255
207 228 255
207 228 255
207 228 255
207 228 255
207 228 255
207 228 255
207 228 255
208 228 255
208 228 255
208 228 255
208 228 255
208 228 255
208 228 255
208 228 255
208 228 255
208 228 255
208 228 255
208 228 255
208 228 255
208 228 255
208 228 255
208 228 255
208 228 255
209 228 255
209 229 255
209 229 255
209 229 255
209 229 255
209 229 255
209 229 255
209 229 255
209 229 255
209 229 255
209 229 255
209 229 255
209 229 255
209 229 255
209 229 255
209 229 255
209 229 255
209 229 255
209 229 255
209 229 255
209 229 255
209 229 255
209 229 255
209 229 255
209 229 255
209 229 255
209 229 255
209 229 255
209 229 255
209 229 255
209 229 255
209 229 255
209 228 255
208 228 255
208 228 255
208 228 255
208 228 255
208 228 255
208 228 255
208 228 255
208 228 255
208 228 255
208 228 255
208 228 255
208 228 255
208 228 255
208 228 255
208 228 255
208 228 255
207 228 255
207 228 255
207 228 255
207 228 255
207 228 255
207 228 255
207 228 255
207 228 255
207 228 255
207 228 255
207 228 255
207 228 255
207 227 255
207 227 255
207 227 255
206 227 255
206 227 255
206 227 255
206 227 255
206 227 255
206 227 255
206 227 255
206 227 255
206 227 255
206 227 255
206 227 255
206 227 255
206 227 255
206 227 255
205 227 255
205 227 255
205 227 255
205 227 255
205 227 255
205 227 255
205 227 255
205 227 255
205 226 255
205 226 255
205 226 255
205 226 255
205 226 255
204 226 255
204 226 255
204 226 255
204 226 255
204 226 255
204 226 255
204 226 255
204 226 255
204 226 255
204 226 255
204 226 255
204 226 255
204 226 255
203 226 255
203 226 255
203 226 255
203 226 255
203 226 255
203 225 255
203 225 255
203 225 255
203 225 255
203 225 255
203 225 255
203 225 255
202 225 255
202 225 255
202 225 255
202 225 255
202 225 255
202 225 255
202 225 255
202 225 255
202 225 255
202 225 255
202 225 255
202 225 255
202 225 255
202 225 255
201 225 255
201 225 255
201 225 255
201 225 255
201 225 255
201 224 255
201 224 255
201 224 255
201 224 255
201 224 255
201 224 255
201 224 255
201 224 255
201 224 255
201 224 255
201 224 255
201 224 255
200 224 255
200 224 255
200 224 255
200 224 255
200 224 255
200 224 255
200 224 255
200 224 255
200 224 255
200 224 255
200 224 255
200 224 255
200 224 255
200 224 255
200 224 255
200 224 255
200 224 255
200 224 255
200 224 255
200 224 255
200 224 255
200 224 255
200 224 255
200 224 255
200 224 255
200 224 255
200 224 255
200 224 255
200 224 255
200 224 255
200 224 255
200 224 255
200 224 255
200 224 255
200 224 255
200 224 255
200 224 255
200 224 255
200 224 255
200 224 255
200 224 255
200 224 255
200 224 255
200 224 255
200 224 255
200 224 255
200 224 255
200 224 255
200 224 255
200 224 255
200 224 255
200 224 255
200 224 255
200 224 255
200 224 255
200 224 255
201 224 255
201 224 255
201 224 255
201 224 255
201 224 255
201 224 255
201 224 255
201 224 255
201 224 255
201 224 255
201 224 255
201 224 255
201 225 255
201 225 255
201 225 255
201 225 255
202 225 255
202 225 255
202 225 255
202 225 255
202 225 255
202 225 255
202 225 255
202 225 255
202 225 255
202 225 255
202 225 255
202 225 255
202 225 255
202 225 255
203 225 255
203 225 255
203 225 255
203 225 255
203 225 255
203 225 255
203 225 255
203 225 255
203 226 255
203 226 255
203 226 255
203 226 255
203 226 255
204 226 255
204 226 255
204 226 255
204 226 255
204 226 255
204 226 255
204 226 255
204 226 255
204 226 255
204 226 255
204 226 255
204 226 255
204 226 255
205 226 255
205 226 255
205 226 255
205 226 255
205 226 255
205 227 255
205 227 255
205 227 255
205 227 255
205 227 255
205 227 255
205 227 255
205 227 255
206 227 255
206 227 255
206 227 255
206 227 255
206 227 255
206 227 255
206 227 255
206 227 255
206 227 255
206 227 255
206 227 255
206 227 255
206 227 255
206 227 255
207 227 255
207 227 255
207 227 255
207 228 255
207 228 255
207 228 255
207 228 255
207 228 255
207 228 255
207 228 255
207 228 255
207 228 255
207 228 255
207 228 255
207 228 255
208 228 255
208 228 255
208 228 255
208 228 255
208 228 255
208 228 255
208 228 255
208 228 255
208 228 255
208 228 255
208 228 255
208 228 255
208 228 255
208 228 255
208 228 255
208 228 255
209 228 255
209 229 255
209 229 255
209 229 255
209 229 255
209 229 255
209 229 255
209 229 255
209 229 255
209 229 255
209 229 255
209 229 255
209 229 255
209 229 255
209 229 255
209 229 255
209 229 255
209 229 255
210 229 255
210 229 255
210 229 255
209 229 255
209 229 255
209 229 255
209 229 255
209 229 255
209 229 255
209 229 255
209 229 255
209 229 255
209 229 255
209 229 255
209 229 255
209 229 255
209 229 255
209 229 255
209 229 255
209 229 255
209 228 255
209 228 255
208 228 255
208 228 255
208 228 255
208 228 255
208 228 255
208 228 255
208 228 255
208 228 255
208 228 255
208 228 255
208 228 255
208 228 255
208 228 255
208 228 255
208 228 255
208 228 255
207 228 255
207 228 255
207 228 255
207 228 255
207 228 255
207 228 255
207 228 255
207 228 255
207 228 255
207 228 255
207 228 255
207 227 255
207 227 255
207 227 255
207 227 255
206 227 255
206 227 255
206 227 255
206 227 255
206 227 255
206 227 255
206 227 255
206 227 255
206 227 255
206 227 255
206 227 255
206 227 255
206 227 255
205 227 255
205 227 255
205 227 255
205 227 255
205 227 255
205 227 255
205 227 255
205 227 255
205 226 255
205 226 255
205 226 255
205 226 255
205 226 255
204 226 255
204 226 255
204 226 255
204 226 255
204 226 255
204 226 255
204 226 255
204 226 255
204 226 255
204 226 255
204 226 255
204 226 255
204 226 255
203 226 255
203 226 255
203 226 255
203 226 255
203 226 255
203 226 255
203 225 255
203 225 255
203 225 255
203 225 255
203 225 255
203 225 255
203 225 255
202 225 255
202 225 255
202 225 255
202 225 255
202 225 255
202 225 255
202 225 255
202 225 255
202 225 255
202 225 255
202 225 255
202 225 255
202 225 255
202 225 255
202 225 255
201 225 255
201 225 255
201 225 255
201 225 255
201 224 255
201 224 255
201 224 255
201 224 255
201 224 255
201 224 255
201 224 255
201 224 255
201 224 255
201 224 255
201 224 255
201 224 255
201 224 255
201 224 255
200 224 255
200 224 255
200 224 255
200 224 255
200 224 255
200 224 255
200 224 255
200 224 255
200 224 255
200 224 255
200 224 255
200 224 255
200 224 255
200 224 255
200 224 255
200 224 255
200 224 255
200 224 255
200 224 255
200 224 255
200 224 255
200 224 255
200 224 255
200 224 255
200 224 255
200 224 255
200 224 255
200 224 255
200 224 255
200 224 255
200 224 255
200 224 255
200 224 255
200 224 255
200 224 255
200 224 255
200 224 255
200 224 255
200 224 255
200 224 255
200 224 255
200 224 255
200 224 255
201 224 255
201 224 255
201 224 255
201 224 255
201 224 255
201 224 255
201 224 255
201 224 255
201 224 255
201 224 255
201 224 255
201 224 255
201 224 255
201 224 255
201 224 255
201 225 255
201 225 255
201 225 255
201 225 255
201 225 255
202 225 255
202 225 255
202 225 255
202 225 255
202 225 255
202 225 255
202 225 255
202 225 255
202 225 255
202 225 255
202 225 255
202 225 255
202 225 255
202 225 255
203 225 255
203 225 255
203 225 255
203 225 255
203 225 255
203 225 255
203 225 255
203 225 255
203 226 255
203 226 255
203 226 255
203 226 255
203 226 255
204 226 255
204 226 255
204 226 255
204 226 255
204 226 255
204 226 255
204 226 255
204 226 255
204 226 255
204 226 255
204 226 255
204 226 255
204 226 255
205 226 255
205 226 255
205 226 255
205 226 255
205 226 255
205 227 255
205 227 255
205 227 255
205 227 255
205 227 255
205 227 255
205 227 255
205 227 255
206 227 255
206 227 255
206 227 255
206 227 255
206 227 255
206 227 255
206 227 255
206 227 255
206 227 255
206 227 255
206 227 255
206 227 255
206 227 255
206 227 255
207 227 255
207 227 255
207 227 255
207 228 255
207 228 255
207 228 255
207 228 255
207 228 255
207 228 255
207 228 255
207 228 255
207 228 255
207 228 255
207 228 255
208 228 255
208 228 255
208 228 255
208 228 255
208 228 255
208 228 255
208 228 255
208 228 255
208 228 255
208 228 255
208 228 255
208 228 255
208 228 255
208 228 255
208 228 255
208 228 255
209 228 255
209 228 255
209 229 255
209 229 255
209 229 255
209 229 255
209 229 255
209 229 255
209 229 255
209 229 255
209 229 255
209 229 255
209 229 255
209 229 255
209 229 255
209 229 255
209 229 255
209 229 255
209 229 255
210 229 255
210 229 255
210 229 255
210 229 255
210 229 255
210 229 255
210 229 255
210 229 255
210 229 255
210 229 255
209 229 255
209 229 255
209 229 255
209 229 255
209 229 255
209 229 255
209 229 255
209 229 255
209 229 255
209 229 255
209 229 255
209 229 255
209 229 255
209 229 255
209 229 255
209 229 255
209 229 255
209 228 255
208 228 255
208 228 255
208 228 255
208 228 255
208 228 255
208 228 255
208 228 255
208 228 255
208 228 255
208 228 255
208 228 255
208 228 255
208 228 255
208 228 255
208 228 255
208 228 255
207 228 255
207 228 255
207 228 255
207 228 255
207 228 255
207 228 255
207 228 255
207 228 255
207 228 255
207 228 255
207 228 255
207 227 255
207 227 255
207 227 255
206 227 255
206 227 255
206 227 255
206 227 255
206 227 255
206 227 255
206 227 255
206 227 255
206 227 255
206 227 255
206 227 255
206 227 255
206 227 255
206 227 255
205 227 255
205 227 255
205 227 255
205 227 255
205 227 255
205 227 255
205 227 255
205 227 255
205 226 255
205 226 255
205 226 255
205 226 255
205 226 255
204 226 255
204 226 255
204 226 255
204 226 255
204 226 255
204 226 255
204 226 255
204 226 255
204 226 255
204 226 255
204 226 255
204 226 255
204 226 255
203 226 255
203 226 255
203 226 255
203 226 255
203 226 255
203 226 255
203 225 255
203 225 255
203 225 255
203 225 255
203 225 255
203 225 255
203 225 255
202 225 255
202 225 255
202 225 255
202 225 255
202 225 255
202 225 255
202 225 255
202 225 255
202 225 255
202 225 255
202 225 255
202 225 255
202 225 255
202 225 255
202 225 255
202 225 255
201 225 255
201 225 255
201 225 255
201 225 255
201 225 255
201 224 255
201 224 255
201 224 255
201 224 255
201 224 255
201 224 255
201 224 255
201 224 255
201 224 255
201 224 255
201 224 255
201 224 255
201 224 255
201 224 255
201 224 255
201 224 255
201 224 255
200 224 255
200 224 255
200 224 255
200 224 255
200 224 255
200 224 255
200 224 255
200 224 255
200 224 255
200 224 255
200 224 255
200 224 255
200 224 255
200 224 255
200 224 255
200 224 255
200 224 255
200 224 255
200 224 255
200 224 255
200 224 255
200 224 255
200 224 255
200 224 255
200 224 255
200 224 255
200 224 255
201 224 255
201 224 255
201 224 255
201 224 255
201 224 255
201 224 255
201 224 255
201 224 255
201 224 255
201 224 255
201 224 255
201 224 255
201 224 255
201 224 255
201 224 255
201 224 255
201 224 255
201 224 255
201 225 255
201 225 255
201 225 255
201 225 255
201 225 255
201 225 255
202 225 255
202 225 255
202 225 255
202 225 255
202 225 255
202 225 255
202 225 255
202 225 255
202 225 255
202 225 255
202 225 255
202 225 255
202 225 255
202 225 255
202 225 255
203 225 255
203 225 255
203 225 255
203 225 255
203 225 255
203 225 255
203 225 255
203 226 255
203 226 255
203 226 255
203 226 255
203 226 255
203 226 255
204 226 255
204 226 255
204 226 255
204 226 255
204 226 255
204 226 255
204 226 255
204 226 255
204 226 255
204 226 255
204 226 255
204 226 255
204 226 255
205 226 255
205 226 255
205 226 255
205 226 255
205 226 255
205 227 255
205 227 255
205 227 255
205 227 255
205 227 255
205 227 255
205 227 255
205 227 255
206 227 255
206 227 255
206 227 255
206 227 255
206 227 255
206 227 255
206 227 255
206 227 255
206 227 255
206 227 255
206 227 255
206 227 255
206 227 255
206 227 255
207 227 255
207 227 255
207 227 255
207 228 255
207 228 255
207 228 255
207 228 255
207 228 255
207 228 255
207 228 255
207 228 255
207 228 255
207 228 255
207 228 255
208 228 255
208 228 255
208 228 255
208 228 255
208 228 255
208 228 255
208 228 255
208 228 255
208 228 255
208 228 255
208 228 255
208 228 255
208 228 255
208 228 255
208 228 255
208 228 255
209 228 255
209 229 255
209 229 255
209 229 255
209 229 255
209 229 255
209 229 255
209 229 255
209 229 255
209 229 255
209 229 255
209 229 255
209 229 255
209 229 255
209 229 255
209 229 255
209 229 255
209 229 255
210 229 255
210 229 255
210 229 255
210 229 255
210 229 255
210 229 255
210 229 255
210 229 255
210 229 255
210 229 255
210 229 255
210 229 255
210 229 255
210 229 255
210 229 255
210 229 255
210 229 255
210 229 255
209 229 255
209 229 255
209 229 255
209 229 255
209 229 255
209 229 255
209 229 255
209 229 255
209 229 255
209 229 255
209 229 255
209 229 255
209 229 255
209 229 255
209 229 255
209 229 255
209 229 255
208 228 255
208 228 255
208 228 255
208 228 255
208 228 255
208 228 255
208 228 255
208 228 255
208 228 255
208 228 255
208 228 255
208 228 255
208 228 255
208 228 255
208 228 255
208 228 255
207 228 255
207 228 255
207 228 255
207 228 255
207 228 255
207 228 255
207 228 255
207 228 255
207 228 255
207 228 255
207 228 255
207 227 255
207 227 255
207 227 255
207 227 255
206 227 255
206 227 255
206 227 255
206 227 255
206 227 255
206 227 255
206 227 255
206 227 255
206 227 255
206 227 255
206 227 255
206 227 255
206 227 255
205 227 255
205 227 255
205 227 255
205 227 255
205 227 255
205 227 255
205 227 255
205 227 255
205 226 255
205 226 255
205 226 255
205 226 255
205 226 255
204 226 255
204 226 255
204 226 255
204 226 255
204 226 255
204 226 255
204 226 255
204 226 255
204 226 255
204 226 255
204 226 255
204 226 255
204 226 255
203 226 255
203 226 255
203 226 255
203 226 255
203 226 255
203 226 255
203 225 255
203 225 255
203 225 255
203 225 255
203 225 255
203 225 255
203 225 255
203 225 255
202 225 255
202 225 255
202 225 255
202 225 255
202 225 255
202 225 255
202 225 255
202 225 255
202 225 255
202 225 255
202 225 255
202 225 255
202 225 255
202 225 255
202 225 255
202 225 255
201 225 255
201 225 255
201 225 255
201 225 255
201 225 255
201 225 255
201 225 255
201 224 255
201 224 255
201 224 255
201 224 255
201 224 255
201 224 255
201 224 255
201 224 255
201 224 255
201 224 255
201 224 255
201 224 255
201 224 255
201 224 255
201 224 255
201 224 255
201 224 255
201 224 255
201 224 255
201 224 255
201 224 255
201 224 255
201 224 255
201 224 255
201 224 255
201 224 255
201 224 255
201 224 255
201 224 255
201 224 255
201 224 255
201 224 255
201 224 255
201 224 255
201 224 255
201 224 255
201 224 255
201 224 255
201 224 255
201 224 255
201 224 255
201 224 255
201 224 255
201 224 255
201 224 255
201 224 255
201 224 255
201 224 255
201 224 255
201 224 255
201 224 255
201 225 255
201 225 255
201 225 255
201 225 255
201 225 255
201 225 255
202 225 255
202 225 255
202 225 255
202 225 255
202 225 255
202 225 255
202 225 255
202 225 255
202 225 255
202 225 255
202 225 255
202 225 255
202 225 255
202 225 255
202 225 255
202 225 255
203 225 255
203 225 255
203 225 255
203 225 255
203 225 255
203 225 255
203 225 255
203 225 255
203 226 255
203 226 255
203 226 255
203 226 255
203 226 255
203 226 255
204 226 255
204 226 255
204 226 255
204 226 255
204 226 255
204 226 255
204 226 255
204 226 255
204 226 255
204 226 255
204 226 255
204 226 255
204 226 255
205 226 255
205 226 255
205 226 255
205 226 255
205 226 255
205 227 255
205 227 255
205 227 255
205 227 255
205 227 255
205 227 255
205 227 255
205 227 255
206 227 255
206 227 255
206 227 255
206 227 255
206 227 255
206 227 255
206 227 255
206 227 255
206 227 255
206 227 255
206 227 255
206 227 255
206 227 255
207 227 255
207 227 255
207 227 255
207 227 255
207 228 255
207 228 255
207 228 255
207 228 255
207 228 255
207 228 255
207 228 255
207 228 255
207 228 255
207 228 255
207 228 255
208 228 255
208 228 255
208 228 255
208 228 255
208 228 255
208 228 255
208 228 255
208 228 255
208 228 255
208 228 255
208 228 255
208 228 255
208 228 255
208 228 255
208 228 255
208 228 255
209 228 255
209 229 255
209 229 255
209 229 255
209 229 255
209 229 255
209 229 255
209 229 255
209 229 255
209 229 255
209 229 255
209 229 255
209 229 255
209 229 255
209 229 255
209 229 255
209 229 255
210 229 255
210 229 255
210 229 255
210 229 255
210 229 255
210 229 255
210 229 255
210 229 255
210 229 255
210 229 255
210 229 255
210 229 255
210 229 255
210 229 255
210 229 255
210 229 255
210 229 255
210 229 255
210 229 255
210 229 255
210 229 255
210 229 255
210 229 255
210 229 255
210 229 255
209 229 255
209 229 255
209 229 255
209 229 255
209 229 255
209 229 255
209 229 255
209 229 255
209 229 255
209 229 255
209 229 255
209 229 255
209 229 255
209 229 255
209 229 255
209 229 255
209 228 255
209 228 255
208 228 255
208 228 255
208 228 255
208 228 255
208 228 255
208 228 255
208 228 255
208 228 255
208 228 255
208 228 255
208 228 255
208 228 255
208 228 255
208 228 255
208 228 255
207 228 255
207 228 255
207 228 255
207 228 255
207 228 255
207 228 255
207 228 255
207 228 255
207 228 255
207 228 255
207 228 255
207 227 255
207 227 255
207 227 255
207 227 255
206 227 255
206 227 255
206 227 255
206 227 255
206 227 255
206 227 255
206 227 255
206 227 255
206 227 255
206 227 255
206 227 255
206 227 255
206 227 255
206 227 255
205 227 255
205 227 255
205 227 255
205 227 255
205 227 255
205 227 255
205 227 255
205 226 255
205 226 255
205 226 255
205 226 255
205 226 255
205 226 255
204 226 255
204 226 255
204 226 255
204 226 255
204 226 255
204 226 255
204 226 255
204 226 255
204 226 255
204 226 255
204 226 255
204 226 255
204 226 255
203 226 255
203 226 255
203 226 255
203 226 255
203 226 255
203 226 255
203 225 255
203 225 255
203 225 255
203 225 255
203 225 255
203 225 255
203 225 255
203 225 255
202 225 255
202 225 255
202 225 255
202 225 255
202 225 255
202 225 255
202 225 255
202 225 255
202 225 255
202 225 255
202 225 255
202 225 255
202 225 255
202 225 255
202 225 255
202 225 255
202 225 255
202 225 255
201 225 255
201 225 255
201 225 255
201 225 255
201 225 255
201 225 255
201 225 255
201 224 255
201 224 255
201 224 255
201 224 255
201 224 255
201 224 255
201 224 255
201 224 255
201 224 255
201 224 255
201 224 255
201 224 255
201 224 255
201 224 255
201 224 255
201 224 255
201 224 255
201 224 255
201 224 255
201 224 255
201 224 255
201 224 255
201 224 255
201 224 255
201 224 255
201 224 255
201 224 255
201 224 255
201 224 255
201 224 255
201 224 255
201 224 255
201 224 255
201 224 255
201 224 255
201 224 255
201 224 255
201 224 255
201 225 255
201 225 255
201 225 255
201 225 255
201 225 255
201 225 255
201 225 255
202 225 255
202 225 255
202 225 255
202 225 255
202 225 255
202 225 255
202 225 255
202 225 255
202 225 255
202 225 255
202 225 255
202 225 255
202 225 255
202 225 255
202 225 255
202 225 255
202 225 255
202 225 255
203 225 255
203 225 255
203 225 255
203 225 255
203 225 255
203 225 255
203 225 255
203 225 255
203 226 255
203 226 255
203 226 255
203 226 255
203 226 255
203 226 255
204 226 255
204 226 255
204 226 255
204 226 255
204 226 255
204 226 255
204 226 255
204 226 255
204 226 255
204 226 255
204 226 255
204 226 255
204 226 255
205 226 255
205 226 255
205 226 255
205 226 255
205 226 255
205 226 255
205 227 255
205 227 255
205 227 255
205 227 255
205 227 255
205 227 255
205 227 255
206 227 255
206 227 255
206 227 255
206 227 255
206 227 255
206 227 255
206 227 255
206 227 255
206 227 255
206 227 255
206 227 255
206 227 255
206 227 255
206 227 255
207 227 255
207 227 255
207 227 255
207 228 255
207 228 255
207 228 255
207 228 255
207 228 255
207 228 255
207 228 255
207 228 255
207 228 255
207 228 255
207 228 255
207 228 255
208 228 255
208 228 255
208 228 255
208 228 255
208 228 255
208 228 255
208 228 255
208 228 255
208 228 255
208 228 255
208 228 255
208 228 255
208 228 255
208 228 255
208 228 255
209 228 255
209 229 255
209 229 255
209 229 255
209 229 255
209 229 255
209 229 255
209 229 255
209 229 255
209 229 255
209 229 255
209 229 255
209 229 255
209 229 255
209 229 255
209 229 255
209 229 255
209 229 255
210 229 255
210 229 255
210 229 255
210 229 255
210 229 255
210 229 255
210 229 255
210 229 255
210 229 255
210 229 255
210 229 255
210 229 255
210 229 255
210 229 255
210 230 255
210 229 255
210 229 255
210 229 255
210 229 255
210 229 255
210 229 255
210 229 255
210 229 255
210 229 255
210 229 255
210 229 255
210 229 255
210 229 255
210 229 255
210 229 255
210 229 255
210 229 255
209 229 255
209 229 255
209 229 255
209 229 255
209 229 255
209 229 255
209 229 255
209 229 255
209 229 255
209 229 255
209 229 255
209 229 255
209 229 255
209 229 255
209 229 255
209 229 255
209 228 255
208 228 255
208 228 255
208 228 255
208 228 255
208 228 255
208 228 255
208 228 255
208 228 255
208 228 255
208 228 255
208 228 255
208 228 255
208 228 255
208 228 255
208 228 255
208 228 255
207 228 255
207 228 255
207 228 255
207 228 255
207 228 255
207 228 255
207 228 255
207 228 255
207 228 255
207 228 255
207 228 255
207 227 255
207 227 255
207 227 255
206 227 255
206 227 255
206 227 255
206 227 255
206 227 255
206 227 255
206 227 255
206 227 255
206 227 255
206 227 255
206 227 255
206 227 255
206 227 255
206 227 255
205 227 255
205 227 255
205 227 255
205 227 255
205 227 255
205 227 255
205 227 255
205 227 255
205 226 255
205 226 255
205 226 255
205 226 255
205 226 255
204 226 255
204 226 255
204 226 255
204 226 255
204 226 255
204 226 255
204 226 255
204 226 255
204 226 255
204 226 255
204 226 255
204 226 255
204 226 255
204 226 255
203 226 255
203 226 255
203 226 255
203 226 255
203 226 255
203 225 255
203 225 255
203 225 255
203 225 255
203 225 255
203 225 255
203 225 255
203 225 255
203 225 255
202 225 255
202 225 255
202 225 255
202 225 255
202 225 255
202 225 255
202 225 255
202 225 255
202 225 255
202 225 255
202 225 255
202 225 255
202 225 255
202 225 255
202 225 255
202 225 255
202 225 255
202 225 255
202 225 255
202 225 255
201 225 255
201 225 255
201 225 255
201 225 255
201 225 255
201 225 255
201 225 255
201 225 255
201 225 255
201 225 255
201 225 255
201 225 255
201 225 255
201 224 255
201 224 255
201 224 255
201 224 255
201 224 255
201 224 255
201 224 255
201 224 255
201 224 255
201 224 255
201 224 255
201 224 255
201 224 255
201 224 255
201 224 255
201 225 255
201 225 255
201 225 255
201 225 255
201 225 255
201 225 255
201 225 255
201 225 255
201 225 255
201 225 255
201 225 255
202 225 255
202 225 255
202 225 255
202 225 255
202 225 255
202 225 255
202 225 255
202 225 255
202 225 255
202 225 255
202 225 255
202 225 255
202 225 255
202 225 255
202 225 255
202 225 255
202 225 255
202 225 255
202 225 255
202 225 255
202 225 255
203 225 255
203 225 255
203 225 255
203 225 255
203 225 255
203 225 255
203 225 255
203 225 255
203 226 255
203 226 255
203 226 255
203 226 255
203 226 255
203 226 255
203 226 255
204 226 255
204 226 255
204 226 255
204 226 255
204 226 255
204 226 255
204 226 255
204 226 255
204 226 255
204 226 255
204 226 255
204 226 255
204 226 255
205 226 255
205 226 255
205 226 255
205 226 255
205 226 255
205 227 255
205 227 255
205 227 255
205 227 255
205 227 255
205 227 255
205 227 255
205 227 255
206 227 255
206 227 255
206 227 255
206 227 255
206 227 255
206 227 255
206 227 255
206 227 255
206 227 255
206 227 255
206 227 255
206 227 255
206 227 255
206 227 255
207 227 255
207 227 255
207 227 255
207 228 255
207 228 255
207 228 255
207 228 255
207 228 255
207 228 255
207 228 255
207 228 255
207 228 255
207 228 255
207 228 255
208 228 255
208 228 255
208 228 255
208 228 255
208 228 255
208 228 255
208 228 255
208 228 255
208 228 255
208 228 255
208 228 255
208 228 255
208 228 255
208 228 255
208 228 255
209 228 255
209 228 255
209 229 255
209 229 255
209 229 255
209 229 255
209 229 255
209 229 255
209 229 255
209 229 255
209 229 255
209 229 255
209 229 255
209 229 255
209 229 255
209 229 255
209 229 255
209 229 255
210 229 255
210 229 255
210 229 255
210 229 255
210 229 255
210 229 255
210 229 255
210 229 255
210 229 255
210 229 255
210 229 255
210 229 255
210 229 255
210 229 255
210 229 255
210 229 255
210 229 255
210 230 255
211 230 255
211 230 255
211 230 255
210 230 255
210 229 255
210 229 255
210 229 255
210 229 255
210 229 255
210 229 255
210 229 255
210 229 255
210 229 255
210 229 255
210 229 255
210 229 255
210 229 255
210 229 255
210 229 255
210 229 255
210 229 255
210 229 255
209 229 255
209 229 255
209 229 255
209 229 255
209 229 255
209 229 255
209 229 255
209 229 255
209 229 255
209 229 255
209 229 255
209 229 255
209 229 255
209 229 255
209 229 255
209 229 255
209 228 255
208 228 255
208 228 255
208 228 255
208 228 255
208 228 255
208 228 255
208 228 255
208 228 255
208 228 255
208 228 255
208 228 255
208 228 255
208 228 255
208 228 255
208 228 255
207 228 255
207 228 255
207 228 255
207 228 255
207 228 255
207 228 255
207 228 255
207 228 255
207 228 255
207 228 255
207 228 255
207 227 255
207 227 255
207 227 255
206 227 255
206 227 255
206 227 255
206 227 255
206 227 255
206 227 255
206 227 255
206 227 255
206 227 255
206 227 255
206 227 255
206 227 255
206 227 255
206 227 255
205 227 255
205 227 255
205 227 255
205 227 255
205 227 255
205 227 255
205 227 255
205 227 255
205 226 255
205 226 255
205 226 255
205 226 255
205 226 255
204 226 255
204 226 255
204 226 255
204 226 255
204 226 255
204 226 255
204 226 255
204 226 255
204 226 255
204 226 255
204 226 255
204 226 255
204 226 255
204 226 255
203 226 255
203 226 255
203 226 255
203 226 255
203 226 255
203 226 255
203 226 255
203 225 255
203 225 255
203 225 255
203 225 255
203 225 255
203 225 255
203 225 255
203 225 255
203 225 255
202 225 255
202 225 255
202 225 255
202 225 255
202 225 255
202 225 255
202 225 255
202 225 255
202 225 255
202 225 255
202 225 255
202 225 255
202 225 255
202 225 255
202 225 255
202 225 255
202 225 255
202 225 255
202 225 255
202 225 255
202 225 255
202 225 255
202 225 255
202 225 255
202 225 255
202 225 255
202 225 255
202 225 255
201 225 255
201 225 255
201 225 255
201 225 255
201 225 255
201 225 255
201 225 255
201 225 255
201 225 255
201 225 255
201 225 255
201 225 255
201 225 255
201 225 255
201 225 255
202 225 255
202 225 255
202 225 255
202 225 255
202 225 255
202 225 255
202 225 255
202 225 255
202 225 255
202 225 255
202 225 255
202 225 255
202 225 255
202 225 255
202 225 255
202 225 255
202 225 255
202 225 255
202 225 255
202 225 255
202 225 255
202 225 255
202 225 255
202 225 255
202 225 255
202 225 255
202 225 255
203 225 255
203 225 255
203 225 255
203 225 255
203 225 255
203 225 255
203 225 255
203 225 255
203 225 255
203 226 255
203 226 255
203 226 255
203 226 255
203 226 255
203 226 255
203 226 255
204 226 255
204 226 255
204 226 255
204 226 255
204 226 255
204 226 255
204 226 255
204 226 255
204 226 255
204 226 255
204 226 255
204 226 255
204 226 255
205 226 255
205 226 255
205 226 255
205 226 255
205 226 255
205 226 255
205 227 255
205 227 255
205 227 255
205 227 255
205 227 255
205 227 255
205 227 255
205 227 255
206 227 255
206 227 255
206 227 255
206 227 255
206 227 255
206 227 255
206 227 255
206 227 255
206 227 255
206 227 255
206 227 255
206 227 255
206 227 255
207 227 255
207 227 255
207 227 255
207 227 255
207 228 255
207 228 255
207 228 255
207 228 255
207 228 255
207 228 255
207 228 255
207 228 255
207 228 255
207 228 255
207 228 255
208 228 255
208 228 255
208 228 255
208 228 255
208 228 255
208 228 255
208 228 255
208 228 255
208 228 255
208 228 255
208 228 255
208 228 255
208 228 255
208 228 255
208 228 255
209 228 255
209 228 255
209 229 255
209 229 255
209 229 255
209 229 255
209 229 255
209 229 255
209 229 255
209 229 255
209 229 255
209 229 255
209 229 255
209 229 255
209 229 255
209 229 255
209 229 255
210 229 255
210 229 255
210 229 255
210 229 255
210 229 255
210 229 255
210 229 255
210 229 255
210 229 255
210 229 255
210 229 255
210 229 255
210 229 255
210 229 255
210 229 255
210 229 255
210 229 255
210 230 255
210 230 255
210 230 255
211 230 255
211 230 255
211 230 255
211 230 255
211 230 255
211 230 255
211 230 255
211 230 255
210 230 255
210 230 255
210 229 255
210 229 255
210 229 255
210 229 255
210 229 255
210 229 255
210 229 255
210 229 255
210 229 255
210 229 255
210 229 255
210 229 255
210 229 255
210 229 255
210 229 255
210 229 255
210 229 255
210 229 255
209 229 255
209 229 255
209 229 255
209 229 255
209 229 255
209 229 255
209 229 255
209 229 255
209 229 255
209 229 255
209 229 255
209 229 255
209 229 255
209 229 255
209 229 255
209 228 255
208 228 255
208 228 255
208 228 255
208 228 255
208 228 255
208 228 255
208 228 255
208 228 255
208 228 255
208 228 255
208 228 255
208 228 255
208 228 255
208 228 255
208 228 255
208 228 255
207 228 255
207 228 255
207 228 255
207 228 255
207 228 255
207 228 255
207 228 255
207 228 255
207 228 255
207 228 255
207 227 255
207 227 255
207 227 255
207 227 255
206 227 255
206 227 255
206 227 255
206 227 255
206 227 255
206 227 255
206 227 255
206 227 255
206 227 255
206 227 255
206 227 255
206 227 255
206 227 255
205 227 255
205 227 255
205 227 255
205 227 255
205 227 255
205 227 255
205 227 255
205 227 255
205 226 255
205 226 255
205 226 255
205 226 255
205 226 255
205 226 255
204 226 255
204 226 255
204 226 255
204 226 255
204 226 255
204 226 255
204 226 255
204 226 255
204 226 255
204 226 255
204 226 255
204 226 255
204 226 255
204 226 255
203 226 255
203 226 255
203 226 255
203 226 255
203 226 255
203 226 255
203 226 255
203 225 255
203 225 255
203 225 255
203 225 255
203 225 255
203 225 255
203 225 255
203 225 255
203 225 255
203 225 255
202 225 255
202 225 255
202 225 255
202 225 255
202 225 255
202 225 255
202 225 255
202 225 255
202 225 255
202 225 255
202 225 255
202 225 255
202 225 255
202 225 255
202 225 255
202 225 255
202 225 255
202 225 255
202 225 255
202 225 255
202 225 255
202 225 255
202 225 255
202 225 255
202 225 255
202 225 255
202 225 255
202 225 255
202 225 255
202 225 255
202 225 255
202 225 255
202 225 255
202 225 255
202 225 255
202 225 255
202 225 255
202 225 255
202 225 255
202 225 255
202 225 255
202 225 255
202 225 255
202 225 255
202 225 255
202 225 255
202 225 255
202 225 255
202 225 255
202 225 255
202 225 255
202 225 255
202 225 255
202 225 255
202 225 255
202 225 255
202 225 255
202 225 255
202 225 255
202 225 255
203 225 255
203 225 255
203 225 255
203 225 255
203 225 255
203 225 255
203 225 255
203 225 255
203 225 255
203 225 255
203 226 255
203 226 255
203 226 255
203 226 255
203 226 255
203 226 255
203 226 255
204 226 255
204 226 255
204 226 255
204 226 255
204 226 255
204 226 255
204 226 255
204 226 255
204 226 255
204 226 255
204 226 255
204 226 255
204 226 255
204 226 255
205 226 255
205 226 255
205 226 255
205 226 255
205 226 255
205 226 255
205 227 255
205 227 255
205 227 255
205 227 255
205 227 255
205 227 255
205 227 255
205 227 255
206 227 255
206 227 255
206 227 255
206 227 255
206 227 255
206 227 255
206 227 255
206 227 255
206 227 255
206 227 255
206 227 255
206 227 255
206 227 255
207 227 255
207 227 255
207 227 255
207 227 255
207 228 255
207 228 255
207 228 255
207 228 255
207 228 255
207 228 255
207 228 255
207 228 255
207 228 255
207 228 255
208 228 255
208 228 255
208 228 255
208 228 255
208 228 255
208 228 255
208 228 255
208 228 255
208 228 255
208 228 255
208 228 255
208 228 255
208 228 255
208 228 255
208 228 255
208 228 255
209 228 255
209 229 255
209 229 255
209 229 255
209 229 255
209 229 255
209 229 255
209 229 255
209 229 255
209 229 255
209 229 255
209 229 255
209 229 255
209 229 255
209 229 255
209 229 255
209 229 255
210 229 255
210 229 255
210 229 255
210 229 255
210 229 255
210 229 255
210 229 255
210 229 255
210 229 255
210 229 255
210 229 255
210 229 255
210 229 255
210 229 255
210 229 255
210 229 255
210 230 255
210 230 255
210 230 255
211 230 255
211 230 255
211 230 255
211 230 255
211 230 255
211 230 255
211 230 255
211 230 255
211 230 255
211 230 255
211 230 255
211 230 255
211 230 255
211 230 255
211 230 255
211 230 255
210 230 255
210 230 255
210 229 255
210 229 255
210 229 255
210 229 255
210 229 255
210 229 255
210 229 255
210 229 255
210 229 255
210 229 255
210 229 255
210 229 255
210 229 255
210 229 255
210 229 255
210 229 255
210 229 255
209 229 255
209 229 255
209 229 255
209 229 255
209 229 255
209 229 255
209 229 255
209 229 255
209 229 255
209 229 255
209 229 255
209 229 255
209 229 255
209 229 255
209 229 255
209 229 255
209 228 255
208 228 255
208 228 255
208 228 255
208 228 255
208 228 255
208 228 255
208 228 255
208 228 255
208 228 255
208 228 255
208 228 255
208 228 255
208 228 255
208 228 255
208 228 255
207 228 255
207 228 255
207 228 255
207 228 255
207 228 255
207 228 255
207 228 255
207 228 255
207 228 255
207 228 255
207 228 255
207 227 255
207 227 255
207 227 255
206 227 255
206 227 255
206 227 255
206 227 255
206 227 255
206 227 255
206 227 255
206 227 255
206 227 255
206 227 255
206 227 255
206 227 255
206 227 255
206 227 255
205 227 255
205 227 255
205 227 255
205 227 255
205 227 255
205 227 255
205 227 255
205 227 255
205 227 255
205 226 255
205 226 255
205 226 255
205 226 255
205 226 255
204 226 255
204 226 255
204 226 255
204 226 255
204 226 255
204 226 255
204 226 255
204 226 255
204 226 255
204 226 255
204 226 255
204 226 255
204 226 255
204 226 255
204 226 255
203 226 255
203 226 255
203 226 255
203 226 255
203 226 255
203 226 255
203 226 255
203 226 255
203 225 255
203 225 255
203 225 255
203 225 255
203 225 255
203 225 255
203 225 255
203 225 255
203 225 255
203 225 255
203 225 255
202 225 255
202 225 255
202 225 255
202 225 255
202 225 255
202 225 255
202 225 255
202 225 255
202 225 255
202 225 255
202 225 255
202 225 255
202 225 255
202 225 255
202 225 255
202 225 255
202 225 255
202 225 255
202 225 255
202 225 255
202 225 255
202 225 255
202 225 255
202 225 255
202 225 255
202 225 255
202 225 255
202 225 255
202 225 255
202 225 255
202 225 255
202 225 255
202 225 255
202 225 255
202 225 255
202 225 255
202 225 255
202 225 255
202 225 255
202 225 255
202 225 255
202 225 255
202 225 255
202 225 255
202 225 255
202 225 255
203 225 255
203 225 255
203 225 255
203 225 255
203 225 255
203 225 255
203 225 255
203 225 255
203 225 255
203 225 255
203 225 255
203 225 255
203 226 255
203 226 255
203 226 255
203 226 255
203 226 255
203 226 255
203 226 255
204 226 255
204 226 255
204 226 255
204 226 255
204 226 255
204 226 255
204 226 255
204 226 255
204 226 255
204 226 255
204 226 255
204 226 255
204 226 255
204 226 255
204 226 255
205 226 255
205 226 255
205 226 255
205 226 255
205 226 255
205 226 255
205 227 255
205 227 255
205 227 255
205 227 255
205 227 255
205 227 255
205 227 255
205 227 255
206 227 255
206 227 255
206 227 255
206 227 255
206 227 255
206 227 255
206 227 255
206 227 255
206 227 255
206 227 255
206 227 255
206 227 255
206 227 255
206 227 255
207 227 255
207 227 255
207 227 255
207 228 255
207 228 255
207 228 255
207 228 255
207 228 255
207 228 255
207 228 255
207 228 255
207 228 255
207 228 255
207 228 255
208 228 255
208 228 255
208 228 255
208 228 255
208 228 255
208 228 255
208 228 255
208 228 255
208 228 255
208 228 255
208 228 255
208 228 255
208 228 255
208 228 255
208 228 255
209 228 255
209 229 255
209 229 255
209 229 255
209 229 255
209 229 255
209 229 255
209 229 255
209 229 255
209 229 255
209 229 255
209 229 255
209 229 255
209 229 255
209 229 255
209 229 255
209 229 255
210 229 255
210 229 255
210 229 255
210 229 255
210 229 255
210 229 255
210 229 255
210 229 255
210 229 255
210 229 255
210 229 255
210 229 255
210 229 255
210 229 255
210 229 255
210 229 255
210 229 255
210 230 255
210 230 255
211 230 255
211 230 255
211 230 255
211 230 255
211 230 255
211 230 255
211 230 255
211 230 255
211 230 255
211 230 255
211 230 255
211 230 255
211 230 255
211 230 255
211 230 255
211 230 255
211 230 255
211 230 255
211 230 255
211 230 255
211 230 255
211 230 255
211 230 255
211 230 255
210 230 255
210 230 255
210 229 255
210 229 255
210 229 255
210 229 255
210 229 255
210 229 255
210 229 255
210 229 255
210 229 255
210 229 255
210 229 255
210 229 255
210 229 255
210 229 255
210 229 255
210 229 255
210 229 255
209 229 255
209 229 255
209 229 255
209 229 255
209 229 255
209 229 255
209 229 255
209 229 255
209 229 255
209 229 255
209 229 255
209 229 255
209 229 255
209 229 255
209 229 255
209 228 255
208 228 255
208 228 255
208 228 255
208 228 255
208 228 255
208 228 255
208 228 255
208 228 255
208 228 255
208 228 255
208 228 255
208 228 255
208 228 255
208 228 255
208 228 255
208 228 255
207 228 255
207 228 255
207 228 255
207 228 255
207 228 255
207 228 255
207 228 255
207 228 255
207 228 255
207 228 255
207 227 255
207 227 255
207 227 255
207 227 255
206 227 255
206 227 255
206 227 255
206 227 255
206 227 255
206 227 255
206 227 255
206 227 255
206 227 255
206 227 255
206 227 255
206 227 255
206 227 255
205 227 255
205 227 255
205 227 255
205 227 255
205 227 255
205 227 255
205 227 255
205 227 255
205 227 255
205 226 255
205 226 255
205 226 255
205 226 255
205 226 255
205 226 255
204 226 255
204 226 255
204 226 255
204 226 255
204 226 255
204 226 255
204 226 255
204 226 255
204 226 255
204 226 255
204 226 255
204 226 255
204 226 255
204 226 255
204 226 255
204 226 255
203 226 255
203 226 255
203 226 255
203 226 255
203 226 255
203 226 255
203 226 255
203 226 255
203 225 255
203 225 255
203 225 255
203 225 255
203 225 255
203 225 255
203 225 255
203 225 255
203 225 255
203 225 255
203 225 255
203 225 255
203 225 255
203 225 255
203 225 255
202 225 255
202 225 255
202 225 255
202 225 255
202 225 255
202 225 255
202 225 255
202 225 255
202 225 255
202 225 255
202 225 255
202 225 255
202 225 255
202 225 255
202 225 255
202 225 255
202 225 255
202 225 255
202 225 255
202 225 255
202 225 255
202 225 255
202 225 255
202 225 255
202 225 255
202 225 255
202 225 255
202 225 255
203 225 255
203 225 255
203 225 255
203 225 255
203 225 255
203 225 255
203 225 255
203 225 255
203 225 255
203 225 255
203 225 255
203 225 255
203 225 255
203 225 255
203 225 255
203 226 255
203 226 255
203 226 255
203 226 255
203 226 255
203 226 255
203 226 255
203 226 255
204 226 255
204 226 255
204 226 255
204 226 255
204 226 255
204 226 255
204 226 255
204 226 255
204 226 255
204 226 255
204 226 255
204 226 255
204 226 255
204 226 255
204 226 255
204 226 255
205 226 255
205 226 255
205 226 255
205 226 255
205 226 255
205 226 255
205 227 255
205 227 255
205 227 255
205 227 255
205 227 255
205 227 255
205 227 255
205 227 255
206 227 255
206 227 255
206 227 255
206 227 255
206 227 255
206 227 255
206 227 255
206 227 255
206 227 255
206 227 255
206 227 255
206 227 255
206 227 255
206 227 255
207 227 255
207 227 255
207 227 255
207 228 255
207 228 255
207 228 255
207 228 255
207 228 255
207 228 255
207 228 255
207 228 255
207 228 255
207 228 255
207 228 255
208 228 255
208 228 255
208 228 255
208 228 255
208 228 255
208 228 255
208 228 255
208 228 255
208 228 255
208 228 255
208 228 255
208 228 255
208 228 255
208 228 255
208 228 255
209 228 255
209 228 255
209 229 255
209 229 255
209 229 255
209 229 255
209 229 255
209 229 255
209 229 255
209 229 255
209 229 255
209 229 255
209 229 255
209 229 255
209 229 255
209 229 255
209 229 255
210 229 255
210 229 255
210 229 255
210 229 255
210 229 255
210 229 255
210 229 255
210 229 255
210 229 255
210 229 255
210 229 255
210 229 255
210 229 255
210 229 255
210 229 255
210 229 255
210 229 255
210 230 255
210 230 255
211 230 255
211 230 255
211 230 255
211 230 255
211 230 255
211 230 255
211 230 255
211 230 255
211 230 255
211 230 255
211 230 255
211 230 255
211 230 255
211 230 255
211 230 255
211 230 255
211 230 255
211 230 255
211 230 255
211 230 255
211 230 255
211 230 255
211 230 255
211 230 255
211 230 255
211 230 255
211 230 255
211 230 255
211 230 255
211 230 255
211 230 255
211 230 255
210 230 255
210 230 255
210 229 255
210 229 255
210 229 255
210 229 255
210 229 255
210 229 255
210 229 255
210 229 255
210 229 255
210 229 255
210 229 255
210 229 255
210 229 255
210 229 255
210 229 255
210 229 255
210 229 255
209 229 255
209 229 255
209 229 255
209 229 255
209 229 255
209 229 255
209 229 255
209 229 255
209 229 255
209 229 255
209 229 255
209 229 255
209 229 255
209 229 255
209 229 255
209 228 255
208 228 255
208 228 255
208 228 255
208 228 255
208 228 255
208 228 255
208 228 255
208 228 255
208 228 255
208 228 255
208 228 255
208 228 255
208 228 255
208 228 255
208 228 255
207 228 255
207 228 255
207 228 255
207 228 255
207 228 255
207 228 255
207 228 255
207 228 255
207 228 255
207 228 255
207 228 255
207 227 255
207 227 255
207 227 255
207 227 255
206 227 255
206 227 255
206 227 255
206 227 255
206 227 255
206 227 255
206 227 255
206 227 255
206 227 255
206 227 255
206 227 255
206 227 255
206 227 255
206 227 255
205 227 255
205 227 255
205 227 255
205 227 255
205 227 255
205 227 255
205 227 255
205 227 255
205 226 255
205 226 255
205 226 255
205 226 255
205 226 255
205 226 255
204 226 255
204 226 255
204 226 255
204 226 255
204 226 255
204 226 255
204 226 255
204 226 255
204 226 255
204 226 255
204 226 255
204 226 255
204 226 255
204 226 255
204 226 255
204 226 255
203 226 255
203 226 255
203 226 255
203 226 255
203 226 255
203 226 255
203 226 255
203 226 255
203 226 255
203 226 255
203 225 255
203 225 255
203 225 255
203 225 255
203 225 255
203 225 255
203 225 255
203 225 255
203 225 255
203 225 255
203 225 255
203 225 255
203 225 255
203 225 255
203 225 255
203 225 255
203 225 255
203 225 255
203 225 255
203 225 255
203 225 255
203 225 255
203 225 255
203 225 255
203 225 255
203 225 255
203 225 255
203 225 255
203 225 255
203 225 255
203 225 255
203 225 255
203 225 255
203 225 255
203 225 255
203 225 255
203 225 255
203 225 255
203 225 255
203 225 255
203 225 255
203 225 255
203 225 255
203 225 255
203 225 255
203 226 255
203 226 255
203 226 255
203 226 255
203 226 255
203 226 255
203 226 255
203 226 255
203 226 255
203 226 255
204 226 255
204 226 255
204 226 255
204 226 255
204 226 255
204 226 255
204 226 255
204 226 255
204 226 255
204 226 255
204 226 255
204 226 255
204 226 255
204 226 255
204 226 255
204 226 255
204 226 255
205 226 255
205 226 255
205 226 255
205 226 255
205 226 255
205 226 255
205 227 255
205 227 255
205 227 255
205 227 255
205 227 255
205 227 255
205 227 255
205 227 255
206 227 255
206 227 255
206 227 255
206 227 255
206 227 255
206 227 255
206 227 255
206 227 255
206 227 255
206 227 255
206 227 255
206 227 255
206 227 255
206 227 255
207 227 255
207 227 255
207 227 255
207 227 255
207 228 255
207 228 255
207 228 255
207 228 255
207 228 255
207 228 255
207 228 255
207 228 255
207 228 255
207 228 255
207 228 255
208 228 255
208 228 255
208 228 255
208 228 255
208 228 255
208 228 255
208 228 255
208 228 255
208 228 255
208 228 255
208 228 255
208 228 255
208 228 255
208 228 255
208 228 255
209 228 255
209 229 255
209 229 255
209 229 255
209 229 255
209 229 255
209 229 255
209 229 255
209 229 255
209 229 255
209 229 255
209 229 255
209 229 255
209 229 255
209 229 255
209 229 255
210 229 255
210 229 255
210 229 255
210 229 255
210 229 255
210 229 255
210 229 255
210 229 255
210 229 255
210 229 255
210 229 255
210 229 255
210 229 255
210 229 255
210 229 255
210 229 255
210 230 255
210 230 255
210 230 255
211 230 255
211 230 255
211 230 255
211 230 255
211 230 255
211 230 255
211 230 255
211 230 255
211 230 255
211 230 255
211 230 255
211 230 255
211 230 255
211 230 255
211 230 255
211 230 255
211 230 255
211 230 255
212 230 255
211 230 255
211 230 255
211 230 255
211 230 255
211 230 255
211 230 255
211 230 255
211 230 255
211 230 255
211 230 255
211 230 255
211 230 255
211 230 255
211 230 255
211 230 255
211 230 255
211 230 255
211 230 255
211 230 255
211 230 255
211 230 255
210 230 255
210 230 255
210 229 255
210 229 255
210 229 255
210 229 255
210 229 255
210 229 255
210 229 255
210 229 255
210 229 255
210 229 255
210 229 255
210 229 255
210 229 255
210 229 255
210 229 255
210 229 255
210 229 255
209 229 255
209 229 255
209 229 255
209 229 255
209 229 255
209 229 255
209 229 255
209 229 255
209 229 255
209 229 255
209 229 255
209 229 255
209 229 255
209 229 255
209 229 255
209 228 255
208 228 255
208 228 255
208 228 255
208 228 255
208 228 255
208 228 255
208 228 255
208 228 255
208 228 255
208 228 255
208 228 255
208 228 255
208 228 255
208 228 255
208 228 255
207 228 255
207 228 255
207 228 255
207 228 255
207 228 255
207 228 255
207 228 255
207 228 255
207 228 255
207 228 255
207 228 255
207 227 255
207 227 255
207 227 255
206 227 255
206 227 255
206 227 255
206 227 255
206 227 255
206 227 255
206 227 255
206 227 255
206 227 255
206 227 255
206 227 255
206 227 255
206 227 255
206 227 255
205 227 255
205 227 255
205 227 255
205 227 255
205 227 255
205 227 255
205 227 255
205 227 255
205 227 255
205 226 255
205 226 255
205 226 255
205 226 255
205 226 255
205 226 255
204 226 255
204 226 255
204 226 255
204 226 255
204 226 255
204 226 255
204 226 255
204 226 255
204 226 255
204 226 255
204 226 255
204 226 255
204 226 255
204 226 255
204 226 255
204 226 255
204 226 255
204 226 255
204 226 255
203 226 255
203 226 255
203 226 255
203 226 255
203 226 255
203 226 255
203 226 255
203 226 255
203 226 255
203 226 255
203 226 255
203 226 255
203 226 255
203 226 255
203 225 255
203 225 255
203 225 255
203 225 255
203 225 255
203 225 255
203 225 255
203 225 255
203 225 255
203 225 255
203 225 255
203 225 255
203 225 255
203 225 255
203 225 255
203 225 255
203 225 255
203 225 255
203 225 255
203 225 255
203 225 255
203 225 255
203 225 255
203 225 255
203 225 255
203 226 255
203 226 255
203 226 255
203 226 255
203 226 255
203 226 255
203 226 255
203 226 255
203 226 255
203 226 255
203 226 255
203 226 255
203 226 255
204 226 255
204 226 255
204 226 255
204 226 255
204 226 255
204 226 255
204 226 255
204 226 255
204 226 255
204 226 255
204 226 255
204 226 255
204 226 255
204 226 255
204 226 255
204 226 255
204 226 255
204 226 255
205 226 255
205 226 255
205 226 255
205 226 255
205 226 255
205 226 255
205 226 255
205 227 255
205 227 255
205 227 255
205 227 255
205 227 255
205 227 255
205 227 255
205 227 255
205 227 255
206 227 255
206 227 255
206 227 255
206 227 255
206 227 255
206 227 255
206 227 255
206 227 255
206 227 255
206 227 255
206 227 255
206 227 255
206 227 255
206 227 255
207 227 255
207 227 255
207 227 255
207 228 255
207 228 255
207 228 255
207 228 255
207 228 255
207 228 255
207 228 255
207 228 255
207 228 255
207 228 255
207 228 255
208 228 255
208 228 255
208 228 255
208 228 255
208 228 255
208 228 255
208 228 255
208 228 255
208 228 255
208 228 255
208 228 255
208 228 255
208 228 255
208 228 255
208 228 255
209 228 255
209 229 255
209 229 255
209 229 255
209 229 255
209 229 255
209 229 255
209 229 255
209 229 255
209 229 255
209 229 255
209 229 255
209 229 255
209 229 255
209 229 255
209 229 255
209 229 255
210 229 255
210 229 255
210 229 255
210 229 255
210 229 255
210 229 255
210 229 255
210 229 255
210 229 255
210 229 255
210 229 255
210 229 255
210 229 255
210 229 255
210 229 255
210 229 255
210 230 255
210 230 255
211 230 255
211 230 255
211 230 255
211 230 255
211 230 255
211 230 255
211 230 255
211 230 255
211 230 255
211 230 255
211 230 255
211 230 255
211 230 255
211 230 255
211 230 255
211 230 255
211 230 255
211 230 255
211 230 255
211 230 255
211 230 255
212 230 255
212 230 255
212 230 255
212 230 255
212 230 255
212 230 255
212 230 255
211 230 255
211 230 255
211 230 255
211 230 255
211 230 255
211 230 255
211 230 255
211 230 255
211 230 255
211 230 255
211 230 255
211 230 255
211 230 255
211 230 255
211 230 255
211 230 255
211 230 255
211 230 255
211 230 255
211 230 255
210 230 255
210 230 255
210 229 255
210 229 255
210 229 255
210 229 255
210 229 255
210 229 255
210 229 255
210 229 255
210 229 255
210 229 255
210 229 255
210 229 255
210 229 255
210 229 255
210 229 255
210 229 255
209 229 255
209 229 255
209 229 255
209 229 255
209 229 255
209 229 255
209 229 255
209 229 255
209 229 255
209 229 255
209 229 255
209 229 255
209 229 255
209 229 255
209 229 255
209 229 255
209 228 255
208 228 255
208 228 255
208 228 255
208 228 255
208 228 255
208 228 255
208 228 255
208 228 255
208 228 255
208 228 255
208 228 255
208 228 255
208 228 255
208 228 255
208 228 255
207 228 255
207 228 255
207 228 255
207 228 255
207 228 255
207 228 255
207 228 255
207 228 255
207 228 255
207 228 255
207 228 255
207 227 255
207 227 255
207 227 255
206 227 255
206 227 255
206 227 255
206 227 255
206 227 255
206 227 255
206 227 255
206 227 255
206 227 255
206 227 255
206 227 255
206 227 255
206 227 255
206 227 255
205 227 255
205 227 255
205 227 255
205 227 255
205 227 255
205 227 255
205 227 255
205 227 255
205 227 255
205 227 255
205 226 255
205 226 255
205 226 255
205 226 255
205 226 255
205 226 255
204 226 255
204 226 255
204 226 255
204 226 255
204 226 255
204 226 255
204 226 255
204 226 255
204 226 255
204 226 255
204 226 255
204 226 255
204 226 255
204 226 255
204 226 255
204 226 255
204 226 255
204 226 255
204 226 255
204 226 255
204 226 255
204 226 255
204 226 255
203 226 255
203 226 255
203 226 255
203 226 255
203 226 255
203 226 255
203 226 255
203 226 255
203 226 255
203 226 255
203 226 255
203 226 255
203 226 255
203 226 255
203 226 255
203 226 255
203 226 255
203 226 255
203 226 255
203 226 255
203 226 255
203 226 255
203 226 255
203 226 255
203 226 255
203 226 255
203 226 255
203 226 255
203 226 255
203 226 255
203 226 255
203 226 255
203 226 255
203 226 255
204 226 255
204 226 255
204 226 255
204 226 255
204 226 255
204 226 255
204 226 255
204 226 255
204 226 255
204 226 255
204 226 255
204 226 255
204 226 255
204 226 255
204 226 255
204 226 255
204 226 255
204 226 255
204 226 255
204 226 255
204 226 255
204 226 255
205 226 255
205 226 255
205 226 255
205 226 255
205 226 255
205 226 255
205 226 255
205 227 255
205 227 255
205 227 255
205 227 255
205 227 255
205 227 255
205 227 255
205 227 255
205 227 255
206 227 255
206 227 255
206 227 255
206 227 255
206 227 255
206 227 255
206 227 255
206 227 255
206 227 255
206 227 255
206 227 255
206 227 255
206 227 255
206 227 255
206 227 255
207 227 255
207 227 255
207 227 255
207 227 255
207 228 255
207 228 255
207 228 255
207 228 255
207 228 255
207 228 255
207 228 255
207 228 255
207 228 255
207 228 255
208 228 255
208 228 255
208 228 255
208 228 255
208 228 255
208 228 255
208 228 255
208 228 255
208 228 255
208 228 255
208 228 255
208 228 255
208 228 255
208 228 255
208 228 255
209 228 255
209 228 255
209 229 255
209 229 255
209 229 255
209 229 255
209 229 255
209 229 255
209 229 255
209 229 255
209 229 255
209 229 255
209 229 255
209 229 255
209 229 255
209 229 255
209 229 255
210 229 255
210 229 255
210 229 255
210 229 255
210 229 255
210 229 255
210 229 255
210 229 255
210 229 255
210 229 255
210 229 255
210 229 255
210 229 255
210 229 255
210 229 255
210 229 255
210 230 255
210 230 255
211 230 255
211 230 255
211 230 255
211 230 255
211 230 255
211 230 255
211 230 255
211 230 255
211 230 255
211 230 255
211 230 255
211 230 255
211 230 255
211 230 255
211 230 255
211 230 255
211 230 255
211 230 255
211 230 255
211 230 255
212 230 255
212 230 255
212 230 255
212 230 255
212 230 255
212 230 255
212 230 255
212 230 255
212 230 255
212 230 255
212 230 255
212 230 255
212 230 255
212 230 255
212 230 255
212 230 255
211 230 255
211 230 255
211 230 255
211 230 255
211 230 255
211 230 255
211 230 255
211 230 255
211 230 255
211 230 255
211 230 255
211 230 255
211 230 255
211 230 255
211 230 255
211 230 255
211 230 255
211 230 255
211 230 255
211 230 255
210 230 255
210 230 255
210 229 255
210 229 255
210 229 255
210 229 255
210 229 255
210 229 255
210 229 255
210 229 255
210 229 255
210 229 255
210 229 255
210 229 255
210 229 255
210 229 255
210 229 255
210 229 255
209 229 255
209 229 255
209 229 255
209 229 255
209 229 255
209 229 255
209 229 255
209 229 255
209 229 255
209 229 255
209 229 255
209 229 255
209 229 255
209 229 255
209 229 255
209 228 255
208 228 255
208 228 255
208 228 255
208 228 255
208 228 255
208 228 255
208 228 255
208 228 255
208 228 255
208 228 255
208 228 255
208 228 255
208 228 255
208 228 255
208 228 255
207 228 255
207 228 255
207 228 255
207 228 255
207 228 255
207 228 255
207 228 255
207 228 255
207 228 255
207 228 255
207 228 255
207 228 255
207 227 255
207 227 255
207 227 255
206 227 255
206 227 255
206 227 255
206 227 255
206 227 255
206 227 255
206 227 255
206 227 255
206 227 255
206 227 255
206 227 255
206 227 255
206 227 255
206 227 255
206 227 255
205 227 255
205 227 255
205 227 255
205 227 255
205 227 255
205 227 255
205 227 255
205 227 255
205 227 255
205 226 255
205 226 255
205 226 255
205 226 255
205 226 255
205 226 255
205 226 255
205 226 255
204 226 255
204 226 255
204 226 255
204 226 255
204 226 255
204 226 255
204 226 255
204 226 255
204 226 255
204 226 255
204 226 255
204 226 255
204 226 255
204 226 255
204 226 255
204 226 255
204 226 255
204 226 255
204 226 255
204 226 255
204 226 255
204 226 255
204 226 255
204 226 255
204 226 255
204 226 255
204 226 255
204 226 255
204 226 255
204 226 255
204 226 255
204 226 255
204 226 255
204 226 255
204 226 255
204 226 255
204 226 255
204 226 255
204 226 255
204 226 255
204 226 255
204 226 255
204 226 255
204 226 255
204 226 255
204 226 255
204 226 255
204 226 255
204 226 255
204 226 255
204 226 255
204 226 255
204 226 255
204 226 255
204 226 255
204 226 255
204 226 255
204 226 255
204 226 255
204 226 255
204 226 255
204 226 255
204 226 255
204 226 255
204 226 255
204 226 255
204 226 255
204 226 255
205 226 255
205 226 255
205 226 255
205 226 255
205 226 255
205 226 255
205 226 255
205 226 255
205 227 255
205 227 255
205 227 255
205 227 255
205 227 255
205 227 255
205 227 255
205 227 255
205 227 255
206 227 255
206 227 255
206 227 255
206 227 255
206 227 255
206 227 255
206 227 255
206 227 255
206 227 255
206 227 255
206 227 255
206 227 255
206 227 255
206 227 255
206 227 255
207 227 255
207 227 255
207 227 255
207 227 255
207 228 255
207 228 255
207 228 255
207 228 255
207 228 255
207 228 255
207 228 255
207 228 255
207 228 255
207 228 255
208 228 255
208 228 255
208 228 255
208 228 255
208 228 255
208 228 255
208 228 255
208 228 255
208 228 255
208 228 255
208 228 255
208 228 255
208 228 255
208 228 255
208 228 255
208 228 255
209 228 255
209 229 255
209 229 255
209 229 255
209 229 255
209 229 255
209 229 255
209 229 255
209 229 255
209 229 255
209 229 255
209 229 255
209 229 255
209 229 255
209 229 255
209 229 255
210 229 255
210 229 255
210 229 255
210 229 255
210 229 255
210 229 255
210 229 255
210 229 255
210 229 255
210 229 255
210 229 255
210 229 255
210 229 255
210 229 255
210 229 255
210 229 255
210 230 255
210 230 255
211 230 255
211 230 255
211 230 255
211 230 255
211 230 255
211 230 255
211 230 255
211 230 255
211 230 255
211 230 255
211 230 255
211 230 255
211 230 255
211 230 255
211 230 255
211 230 255
211 230 255
211 230 255
211 230 255
211 230 255
212 230 255
212 230 255
212 230 255
212 230 255
212 230 255
212 230 255
212 230 255
212 230 255
212 230 255
212 230 255
212 230 255
212 230 255
212 230 255
212 230 255
212 230 255
212 230 255
212 230 255
212 230 255
212 230 255
212 230 255
212 230 255
212 230 255
212 230 255
212 230 255
211 230 255
211 230 255
211 230 255
211 230 255
211 230 255
211 230 255
211 230 255
211 230 255
211 230 255
211 230 255
211 230 255
211 230 255
211 230 255
211 230 255
211 230 255
211 230 255
211 230 255
211 230 255
211 230 255
211 230 255
211 230 255
210 230 255
210 230 255
210 229 255
210 229 255
210 229 255
210 229 255
210 229 255
210 229 255
210 229 255
210 229 255
210 229 255
210 229 255
210 229 255
210 229 255
210 229 255
210 229 255
210 229 255
209 229 255
209 229 255
209 229 255
209 229 255
209 229 255
209 229 255
209 229 255
209 229 255
209 229 255
209 229 255
209 229 255
209 229 255
209 229 255
209 229 255
209 229 255
209 228 255
208 228 255
208 228 255
208 228 255
208 228 255
208 228 255
208 228 255
208 228 255
208 228 255
208 228 255
208 228 255
208 228 255
208 228 255
208 228 255
208 228 255
208 228 255
208 228 255
207 228 255
207 228 255
207 228 255
207 228 255
207 228 255
207 228 255
207 228 255
207 228 255
207 228 255
207 228 255
207 228 255
207 227 255
207 227 255
207 227 255
206 227 255
206 227 255
206 227 255
206 227 255
206 227 255
206 227 255
206 227 255
206 227 255
206 227 255
206 227 255
206 227 255
206 227 255
206 227 255
206 227 255
206 227 255
206 227 255
205 227 255
205 227 255
205 227 255
205 227 255
205 227 255
205 227 255
205 227 255
205 227 255
205 227 255
205 227 255
205 226 255
205 226 255
205 226 255
205 226 255
205 226 255
205 226 255
205 226 255
205 226 255
204 226 255
204 226 255
204 226 255
204 226 255
204 226 255
204 226 255
204 226 255
204 226 255
204 226 255
204 226 255
204 226 255
204 226 255
204 226 255
204 226 255
204 226 255
204 226 255
204 226 255
204 226 255
204 226 255
204 226 255
204 226 255
204 226 255
204 226 255
204 226 255
204 226 255
204 226 255
204 226 255
204 226 255
204 226 255
204 226 255
204 226 255
204 226 255
204 226 255
204 226 255
204 226 255
204 226 255
204 226 255
204 226 255
204 226 255
204 226 255
204 226 255
204 226 255
204 226 255
204 226 255
204 226 255
204 226 255
204 226 255
204 226 255
204 226 255
204 226 255
204 226 255
204 226 255
204 226 255
204 226 255
204 226 255
204 226 255
205 226 255
205 226 255
205 226 255
205 226 255
205 226 255
205 226 255
205 226 255
205 226 255
205 227 255
205 227 255
205 227 255
205 227 255
205 227 255
205 227 255
205 227 255
205 227 255
205 227 255
205 227 255
206 227 255
206 227 255
206 227 255
206 227 255
206 227 255
206 227 255
206 227 255
206 227 255
206 227 255
206 227 255
206 227 255
206 227 255
206 227 255
206 227 255
206 227 255
206 227 255
207 227 255
207 227 255
207 227 255
207 227 255
207 228 255
207 228 255
207 228 255
207 228 255
207 228 255
207 228 255
207 228 255
207 228 255
207 228 255
207 228 255
208 228 255
208 228 255
208 228 255
208 228 255
208 228 255
208 228 255
208 228 255
208 228 255
208 228 255
208 228 255
208 228 255
208 228 255
208 228 255
208 228 255
208 228 255
209 228 255
209 228 255
209 229 255
209 229 255
209 229 255
209 229 255
209 229 255
209 229 255
209 229 255
209 229 255
209 229 255
209 229 255
209 229 255
209 229 255
209 229 255
209 229 255
210 229 255
210 229 255
210 229 255
210 229 255
210 229 255
210 229 255
210 229 255
210 229 255
210 229 255
210 229 255
210 229 255
210 229 255
210 229 255
210 229 255
210 229 255
210 229 255
210 230 255
210 230 255
210 230 255
211 230 255
211 230 255
211 230 255
211 230 255
211 230 255
211 230 255
211 230 255
211 230 255
211 230 255
211 230 255
211 230 255
211 230 255
211 230 255
211 230 255
211 230 255
211 230 255
211 230 255
211 230 255
211 230 255
211 230 255
212 230 255
212 230 255
212 230 255
212 230 255
212 230 255
212 230 255
212 230 255
212 230 255
212 230 255
212 230 255
212 230 255
212 230 255
212 230 255
212 230 255
212 231 255
212 231 255
212 230 255
212 230 255
212 230 255
212 230 255
212 230 255
212 230 255
212 230 255
212 230 255
212 230 255
212 230 255
212 230 255
212 230 255
212 230 255
212 230 255
212 230 255
212 230 255
212 230 255
211 230 255
211 230 255
211 230 255
211 230 255
211 230 255
211 230 255
211 230 255
211 230 255
211 230 255
211 230 255
211 230 255
211 230 255
211 230 255
211 230 255
211 230 255
211 230 255
211 230 255
211 230 255
211 230 255
211 230 255
210 230 255
210 230 255
210 229 255
210 229 255
210 229 255
210 229 255
210 229 255
210 229 255
210 229 255
210 229 255
210 229 255
210 229 255
210 229 255
210 229 255
210 229 255
210 229 255
210 229 255
209 229 255
209 229 255
209 229 255
209 229 255
209 229 255
209 229 255
209 229 255
209 229 255
209 229 255
209 229 255
209 229 255
209 229 255
209 229 255
209 229 255
209 229 255
209 228 255
208 228 255
208 228 255
208 228 255
208 228 255
208 228 255
208 228 255
208 228 255
208 228 255
208 228 255
208 228 255
208 228 255
208 228 255
208 228 255
208 228 255
208 228 255
208 228 255
207 228 255
207 228 255
207 228 255
207 228 255
207 228 255
207 228 255
207 228 255
207 228 255
207 228 255
207 228 255
207 228 255
207 227 255
207 227 255
207 227 255
206 227 255
206 227 255
206 227 255
206 227 255
206 227 255
206 227 255
206 227 255
206 227 255
206 227 255
206 227 255
206 227 255
206 227 255
206 227 255
206 227 255
206 227 255
206 227 255
205 227 255
205 227 255
205 227 255
205 227 255
205 227 255
205 227 255
205 227 255
205 227 255
205 227 255
205 227 255
205 227 255
205 227 255
205 226 255
205 226 255
205 226 255
205 226 255
205 226 255
205 226 255
205 226 255
205 226 255
205 226 255
205 226 255
204 226 255
204 226 255
204 226 255
204 226 255
204 226 255
204 226 255
204 226 255
204 226 255
204 226 255
204 226 255
204 226 255
204 226 255
204 226 255
204 226 255
204 226 255
204 226 255
204 226 255
204 226 255
204 226 255
204 226 255
204 226 255
204 226 255
204 226 255
204 226 255
204 226 255
204 226 255
204 226 255
204 226 255
204 226 255
204 226 255
204 226 255
204 226 255
204 226 255
204 226 255
204 226 255
204 226 255
204 226 255
204 226 255
204 226 255
205 226 255
205 226 255
205 226 255
205 226 255
205 226 255
205 226 255
205 226 255
205 226 255
205 226 255
205 226 255
205 226 255
205 227 255
205 227 255
205 227 255
205 227 255
205 227 255
205 227 255
205 227 255
205 227 255
205 227 255
205 227 255
205 227 255
206 227 255
206 227 255
206 227 255
206 227 255
206 227 255
206 227 255
206 227 255
206 227 255
206 227 255
206 227 255
206 227 255
206 227 255
206 227 255
206 227 255
206 227 255
206 227 255
207 227 255
207 227 255
207 227 255
207 227 255
207 228 255
207 228 255
207 228 255
207 228 255
207 228 255
207 228 255
207 228 255
207 228 255
207 228 255
207 228 255
207 228 255
208 228 255
208 228 255
208 228 255
208 228 255
208 228 255
208 228 255
208 228 255
208 228 255
208 228 255
208 228 255
208 228 255
208 228 255
208 228 255
208 228 255
208 228 255
209 228 255
209 228 255
209 229 255
209 229 255
209 229 255
209 229 255
209 229 255
209 229 255
209 229 255
209 229 255
209 229 255
209 229 255
209 229 255
209 229 255
209 229 255
209 229 255
209 229 255
210 229 255
210 229 255
210 229 255
210 229 255
210 229 255
210 229 255
210 229 255
210 229 255
210 229 255
210 229 255
210 229 255
210 229 255
210 229 255
210 229 255
210 229 255
210 229 255
210 230 255
211 230 255
211 230 255
211 230 255
211 230 255
211 230 255
211 230 255
211 230 255
211 230 255
211 230 255
211 230 255
211 230 255
211 230 255
211 230 255
211 230 255
211 230 255
211 230 255
211 230 255
211 230 255
211 230 255
211 230 255
212 230 255
212 230 255
212 230 255
212 230 255
212 230 255
212 230 255
212 230 255
212 230 255
212 230 255
212 230 255
212 230 255
212 230 255
212 230 255
212 230 255
212 230 255
212 230 255
212 231 255
212 231 255
212 231 255
212 231 255
212 231 255
212 231 255
212 231 255
212 231 255
212 231 255
212 231 255
212 231 255
212 230 255
212 230 255
212 230 255
212 230 255
212 230 255
212 230 255
212 230 255
212 230 255
212 230 255
212 230 255
212 230 255
212 230 255
212 230 255
212 230 255
212 230 255
211 230 255
211 230 255
211 230 255
211 230 255
211 230 255
211 230 255
211 230 255
211 230 255
211 230 255
211 230 255
211 230 255
211 230 255
211 230 255
211 230 255
211 230 255
211 230 255
211 230 255
211 230 255
211 230 255
211 230 255
210 230 255
210 230 255
210 229 255
210 229 255
210 229 255
210 229 255
210 229 255
210 229 255
210 229 255
210 229 255
210 229 255
210 229 255
210 229 255
210 229 255
210 229 255
210 229 255
210 229 255
210 229 255
209 229 255
209 229 255
209 229 255
209 229 255
209 229 255
209 229 255
209 229 255
209 229 255
209 229 255
209 229 255
209 229 255
209 229 255
209 229 255
209 229 255
209 228 255
208 228 255
208 228 255
208 228 255
208 228 255
208 228 255
208 228 255
208 228 255
208 228 255
208 228 255
208 228 255
208 228 255
208 228 255
208 228 255
208 228 255
208 228 255
208 228 255
207 228 255
207 228 255
207 228 255
207 228 255
207 228 255
207 228 255
207 228 255
207 228 255
207 228 255
207 228 255
207 228 255
207 227 255
207 227 255
207 227 255
207 227 255
206 227 255
206 227 255
206 227 255
206 227 255
206 227 255
206 227 255
206 227 255
206 227 255
206 227 255
206 227 255
206 227 255
206 227 255
206 227 255
206 227 255
206 227 255
206 227 255
206 227 255
205 227 255
205 227 255
205 227 255
205 227 255
205 227 255
205 227 255
205 227 255
205 227 255
205 227 255
205 227 255
205 227 255
205 227 255
205 227 255
205 227 255
205 226 255
205 226 255
205 226 255
205 226 255
205 226 255
205 226 255
205 226 255
205 226 255
205 226 255
205 226 255
205 226 255
205 226 255
205 226 255
205 226 255
205 226 255
205 226 255
205 226 255
205 226 255
204 226 255
205 226 255
204 226 255
204 226 255
204 226 255
204 226 255
204 226 255
205 226 255
205 226 255
205 226 255
205 226 255
205 226 255
205 226 255
205 226 255
205 226 255
205 226 255
205 226 255
205 226 255
205 226 255
205 226 255
205 226 255
205 226 255
205 226 255
205 226 255
205 226 255
205 226 255
205 227 255
205 227 255
205 227 255
205 227 255
205 227 255
205 227 255
205 227 255
205 227 255
205 227 255
205 227 255
205 227 255
205 227 255
205 227 255
205 227 255
206 227 255
206 227 255
206 227 255
206 227 255
206 227 255
206 227 255
206 227 255
206 227 255
206 227 255
206 227 255
206 227 255
206 227 255
206 227 255
206 227 255
206 227 255
206 227 255
206 227 255
207 227 255
207 227 255
207 227 255
207 227 255
207 228 255
207 228 255
207 228 255
207 228 255
207 228 255
207 228 255
207 228 255
207 228 255
207 228 255
207 228 255
207 228 255
208 228 255
208 228 255
208 228 255
208 228 255
208 228 255
208 228 255
208 228 255
208 228 255
208 228 255
208 228 255
208 228 255
208 228 255
208 228 255
208 228 255
208 228 255
209 228 255
209 228 255
209 229 255
209 229 255
209 229 255
209 229 255
209 229 255
209 229 255
209 229 255
209 229 255
209 229 255
209 229 255
209 229 255
209 229 255
209 229 255
209 229 255
210 229 255
210 229 255
210 229 255
210 229 255
210 229 255
210 229 255
210 229 255
210 229 255
210 229 255
210 229 255
210 229 255
210 229 255
210 229 255
210 229 255
210 229 255
210 229 255
210 230 255
210 230 255
211 230 255
211 230 255
211 230 255
211 230 255
211 230 255
211 230 255
211 230 255
211 230 255
211 230 255
211 230 255
211 230 255
211 230 255
211 230 255
211 230 255
211 230 255
211 230 255
211 230 255
211 230 255
211 230 255
211 230 255
212 230 255
212 230 255
212 230 255
212 230 255
212 230 255
212 230 255
212 230 255
212 230 255
212 230 255
212 230 255
212 230 255
212 230 255
212 230 255
212 230 255
212 230 255
212 230 255
212 231 255
212 231 255
212 231 255
212 231 255
212 231 255
212 231 255
212 231 255
213 231 255
213 231 255
213 231 255
213 231 255
213 231 255
212 231 255
212 231 255
212 231 255
212 231 255
212 231 255
212 231 255
212 231 255
212 230 255
212 230 255
212 230 255
212 230 255
212 230 255
212 230 255
212 230 255
212 230 255
212 230 255
212 230 255
212 230 255
212 230 255
212 230 255
212 230 255
212 230 255
212 230 255
211 230 255
211 230 255
211 230 255
211 230 255
211 230 255
211 230 255
211 230 255
211 230 255
211 230 255
211 230 255
211 230 255
211 230 255
211 230 255
211 230 255
211 230 255
211 230 255
211 230 255
211 230 255
211 230 255
210 230 255
210 230 255
210 229 255
210 229 255
210 229 255
210 229 255
210 229 255
210 229 255
210 229 255
210 229 255
210 229 255
210 229 255
210 229 255
210 229 255
210 229 255
210 229 255
210 229 255
210 229 255
209 229 255
209 229 255
209 229 255
209 229 255
209 229 255
209 229 255
209 229 255
209 229 255
209 229 255
209 229 255
209 229 255
209 229 255
209 229 255
209 229 255
209 229 255
209 228 255
208 228 255
208 228 255
208 228 255
208 228 255
208 228 255
208 228 255
208 228 255
208 228 255
208 228 255
208 228 255
208 228 255
208 228 255
208 228 255
208 228 255
208 228 255
207 228 255
207 228 255
207 228 255
207 228 255
207 228 255
207 228 255
207 228 255
207 228 255
207 228 255
207 228 255
207 228 255
207 228 255
207 227 255
207 227 255
207 227 255
207 227 255
206 227 255
206 227 255
206 227 255
206 227 255
206 227 255
206 227 255
206 227 255
206 227 255
206 227 255
206 227 255
206 227 255
206 227 255
206 227 255
206 227 255
206 227 255
206 227 255
206 227 255
206 227 255
206 227 255
205 227 255
205 227 255
205 227 255
205 227 255
205 227 255
205 227 255
205 227 255
205 227 255
205 227 255
205 227 255
205 227 255
205 227 255
205 227 255
205 227 255
205 227 255
205 227 255
205 227 255
205 227 255
205 226 255
205 226 255
205 226 255
205 226 255
205 226 255
205 226 255
205 226 255
205 226 255
205 226 255
205 226 255
205 226 255
205 226 255
205 226 255
205 226 255
205 226 255
205 226 255
205 226 255
205 226 255
205 226 255
205 226 255
205 227 255
205 227 255
205 227 255
205 227 255
205 227 255
205 227 255
205 227 255
205 227 255
205 227 255
205 227 255
205 227 255
205 227 255
205 227 255
205 227 255
205 227 255
205 227 255
205 227 255
205 227 255
205 227 255
205 227 255
206 227 255
206 227 255
206 227 255
206 227 255
206 227 255
206 227 255
206 227 255
206 227 255
206 227 255
206 227 255
206 227 255
206 227 255
206 227 255
206 227 255
206 227 255
206 227 255
206 227 255
206 227 255
206 227 255
207 227 255
207 227 255
207 227 255
207 227 255
207 228 255
207 228 255
207 228 255
207 228 255
207 228 255
207 228 255
207 228 255
207 228 255
207 228 255
207 228 255
207 228 255
207 228 255
208 228 255
208 228 255
208 228 255
208 228 255
208 228 255
208 228 255
208 228 255
208 228 255
208 228 255
208 228 255
208 228 255
208 228 255
208 228 255
208 228 255
208 228 255
208 228 255
209 228 255
209 229 255
209 229 255
209 229 255
209 229 255
209 229 255
209 229 255
209 229 255
209 229 255
209 229 255
209 229 255
209 229 255
209 229 255
209 229 255
209 229 255
210 229 255
210 229 255
210 229 255
210 229 255
210 229 255
210 229 255
210 229 255
210 229 255
210 229 255
210 229 255
210 229 255
210 229 255
210 229 255
210 229 255
210 229 255
210 229 255
210 230 255
210 230 255
211 230 255
211 230 255
211 230 255
211 230 255
211 230 255
211 230 255
211 230 255
211 230 255
211 230 255
211 230 255
211 230 255
211 230 255
211 230 255
211 230 255
211 230 255
211 230 255
211 230 255
211 230 255
211 230 255
212 230 255
212 230 255
212 230 255
212 230 255
212 230 255
212 230 255
212 230 255
212 230 255
212 230 255
212 230 255
212 230 255
212 230 255
212 230 255
212 230 255
212 230 255
212 230 255
212 231 255
212 231 255
212 231 255
212 231 255
212 231 255
212 231 255
212 231 255
213 231 255
213 231 255
213 231 255
213 231 255
213 231 255
213 231 255
213 231 255
213 231 255
213 231 255
213 231 255
213 231 255
213 231 255
213 231 255
213 231 255
213 231 255
212 231 255
212 231 255
212 231 255
212 231 255
212 231 255
212 231 255
212 231 255
212 230 255
212 230 255
212 230 255
212 230 255
212 230 255
212 230 255
212 230 255
212 230 255
212 230 255
212 230 255
212 230 255
212 230 255
212 230 255
212 230 255
212 230 255
212 230 255
211 230 255
211 230 255
211 230 255
211 230 255
211 230 255
211 230 255
211 230 255
211 230 255
211 230 255
211 230 255
211 230 255
211 230 255
211 230 255
211 230 255
211 230 255
211 230 255
211 230 255
211 230 255
210 230 255
210 230 255
210 230 255
210 229 255
210 229 255
210 229 255
210 229 255
210 229 255
210 229 255
210 229 255
210 229 255
210 229 255
210 229 255
210 229 255
210 229 255
210 229 255
210 229 255
210 229 255
209 229 255
209 229 255
209 229 255
209 229 255
209 229 255
209 229 255
209 229 255
209 229 255
209 229 255
209 229 255
209 229 255
209 229 255
209 229 255
209 229 255
209 229 255
209 228 255
208 228 255
208 228 255
208 228 255
208 228 255
208 228 255
208 228 255
208 228 255
208 228 255
208 228 255
208 228 255
208 228 255
208 228 255
208 228 255
208 228 255
208 228 255
208 228 255
207 228 255
207 228 255
207 228 255
207 228 255
207 228 255
207 228 255
207 228 255
207 228 255
207 228 255
207 228 255
207 228 255
207 228 255
207 227 255
207 227 255
207 227 255
207 227 255
207 227 255
206 227 255
206 227 255
206 227 255
206 227 255
206 227 255
206 227 255
206 227 255
206 227 255
206 227 255
206 227 255
206 227 255
206 227 255
206 227 255
206 227 255
206 227 255
206 227 255
206 227 255
206 227 255
206 227 255
206 227 255
206 227 255
206 227 255
205 227 255
205 227 255
205 227 255
205 227 255
205 227 255
205 227 255
205 227 255
205 227 255
205 227 255
205 227 255
205 227 255
205 227 255
205 227 255
205 227 255
205 227 255
205 227 255
205 227 255
205 227 255
205 227 255
205 227 255
205 227 255
205 227 255
205 227 255
205 227 255
205 227 255
205 227 255
205 227 255
205 227 255
205 227 255
205 227 255
205 227 255
205 227 255
205 227 255
205 227 255
205 227 255
205 227 255
205 227 255
205 227 255
205 227 255
205 227 255
205 227 255
206 227 255
206 227 255
206 227 255
206 227 255
206 227 255
206 227 255
206 227 255
206 227 255
206 227 255
206 227 255
206 227 255
206 227 255
206 227 255
206 227 255
206 227 255
206 227 255
206 227 255
206 227 255
206 227 255
206 227 255
206 227 255
206 227 255
207 227 255
207 227 255
207 227 255
207 227 255
207 228 255
207 228 255
207 228 255
207 228 255
207 228 255
207 228 255
207 228 255
207 228 255
207 228 255
207 228 255
207 228 255
207 228 255
208 228 255
208 228 255
208 228 255
208 228 255
208 228 255
208 228 255
208 228 255
208 228 255
208 228 255
208 228 255
208 228 255
208 228 255
208 228 255
208 228 255
208 228 255
208 228 255
209 228 255
209 229 255
209 229 255
209 229 255
209 229 255
209 229 255
209 229 255
209 229 255
209 229 255
209 229 255
209 229 255
209 229 255
209 229 255
209 229 255
209 229 255
209 229 255
210 229 255
210 229 255
210 229 255
210 229 255
210 229 255
210 229 255
210 229 255
210 229 255
210 229 255
210 229 255
210 229 255
210 229 255
210 229 255
210 229 255
210 229 255
210 230 255
210 230 255
211 230 255
211 230 255
211 230 255
211 230 255
211 230 255
211 230 255
211 230 255
211 230 255
211 230 255
211 230 255
211 230 255
211 230 255
211 230 255
211 230 255
211 230 255
211 230 255
211 230 255
211 230 255
211 230 255
212 230 255
212 230 255
212 230 255
212 230 255
212 230 255
212 230 255
212 230 255
212 230 255
212 230 255
212 230 255
212 230 255
212 230 255
212 230 255
212 230 255
212 230 255
212 230 255
212 231 255
212 231 255
212 231 255
212 231 255
212 231 255
212 231 255
212 231 255
213 231 255
213 231 255
213 231 255
213 231 255
213 231 255
213 231 255
213 231 255
213 231 255
213 231 255
213 231 255
213 231 255
213 231 255
213 231 255
213 231 255
213 231 255
213 231 255
213 231 255
213 231 255
213 231 255
213 231 255
213 231 255
213 231 255
213 231 255
213 231 255
213 231 255
212 231 255
212 231 255
212 231 255
212 231 255
212 231 255
212 231 255
212 231 255
212 230 255
212 230 255
212 230 255
212 230 255
212 230 255
212 230 255
212 230 255
212 230 255
212 230 255
212 230 255
212 230 255
212 230 255
212 230 255
212 230 255
212 230 255
211 230 255
211 230 255
211 230 255
211 230 255
211 230 255
211 230 255
211 230 255
211 230 255
211 230 255
211 230 255
211 230 255
211 230 255
211 230 255
211 230 255
211 230 255
211 230 255
211 230 255
211 230 255
211 230 255
210 230 255
210 230 255
210 229 255
210 229 255
210 229 255
210 229 255
210 229 255
210 229 255
210 229 255
210 229 255
210 229 255
210 229 255
210 229 255
210 229 255
210 229 255
210 229 255
210 229 255
209 229 255
209 229 255
209 229 255
209 229 255
209 229 255
209 229 255
209 229 255
209 229 255
209 229 255
209 229 255
209 229 255
209 229 255
209 229 255
209 229 255
209 229 255
209 228 255
208 228 255
208 228 255
208 228 255
208 228 255
208 228 255
208 228 255
208 228 255
208 228 255
208 228 255
208 228 255
208 228 255
208 228 255
208 228 255
208 228 255
208 228 255
208 228 255
208 228 255
207 228 255
207 228 255
207 228 255
207 228 255
207 228 255
207 228 255
207 228 255
207 228 255
207 228 255
207 228 255
207 228 255
207 228 255
207 228 255
207 227 255
207 227 255
207 227 255
207 227 255
206 227 255
206 227 255
206 227 255
206 227 255
206 227 255
206 227 255
206 227 255
206 227 255
206 227 255
206 227 255
206 227 255
206 227 255
206 227 255
206 227 255
206 227 255
206 227 255
206 227 255
206 227 255
206 227 255
206 227 255
206 227 255
206 227 255
206 227 255
206 227 255
206 227 255
206 227 255
206 227 255
206 227 255
206 227 255
206 227 255
206 227 255
205 227 255
205 227 255
205 227 255
205 227 255
205 227 255
205 227 255
205 227 255
206 227 255
205 227 255
205 227 255
205 227 255
206 227 255
206 227 255
206 227 255
206 227 255
206 227 255
206 227 255
206 227 255
206 227 255
206 227 255
206 227 255
206 227 255
206 227 255
206 227 255
206 227 255
206 227 255
206 227 255
206 227 255
206 227 255
206 227 255
206 227 255
206 227 255
206 227 255
206 227 255
206 227 255
206 227 255
206 227 255
206 227 255
206 227 255
206 227 255
206 227 255
206 227 255
206 227 255
207 227 255
207 227 255
207 227 255
207 227 255
207 228 255
207 228 255
207 228 255
207 228 255
207 228 255
207 228 255
207 228 255
207 228 255
207 228 255
207 228 255
207 228 255
207 228 255
207 228 255
208 228 255
208 228 255
208 228 255
208 228 255
208 228 255
208 228 255
208 228 255
208 228 255
208 228 255
208 228 255
208 228 255
208 228 255
208 228 255
208 228 255
208 228 255
208 228 255
209 228 255
209 228 255
209 229 255
209 229 255
209 229 255
209 229 255
209 229 255
209 229 255
209 229 255
209 229 255
209 229 255
209 229 255
209 229 255
209 229 255
209 229 255
209 229 255
209 229 255
210 229 255
210 229 255
210 229 255
210 229 255
210 229 255
210 229 255
210 229 255
210 229 255
210 229 255
210 229 255
210 229 255
210 229 255
210 229 255
210 229 255
210 229 255
210 230 255
210 230 255
211 230 255
211 230 255
211 230 255
211 230 255
211 230 255
211 230 255
211 230 255
211 230 255
211 230 255
211 230 255
211 230 255
211 230 255
211 230 255
211 230 255
211 230 255
211 230 255
211 230 255
211 230 255
211 230 255
212 230 255
212 230 255
212 230 255
212 230 255
212 230 255
212 230 255
212 230 255
212 230 255
212 230 255
212 230 255
212 230 255
212 230 255
212 230 255
212 230 255
212 230 255
212 231 255
212 231 255
212 231 255
212 231 255
212 231 255
212 231 255
212 231 255
213 231 255
213 231 255
213 231 255
213 231 255
213 231 255
213 231 255
213 231 255
213 231 255
213 231 255
213 231 255
213 231 255
213 231 255
213 231 255
213 231 255
213 231 255
213 231 255
213 231 255
213 231 255
213 231 255
213 231 255
213 231 255
213 231 255
213 231 255
213 231 255
213 231 255
213 231 255
213 231 255
213 231 255
213 231 255
213 231 255
213 231 255
213 231 255
213 231 255
213 231 255
213 231 255
212 231 255
212 231 255
212 231 255
212 231 255
212 231 255
212 231 255
212 231 255
212 230 255
212 230 255
212 230 255
212 230 255
212 230 255
212 230 255
212 230 255
212 230 255
212 230 255
212 230 255
212 230 255
212 230 255
212 230 255
212 230 255
212 230 255
211 230 255
211 230 255
211 230 255
211 230 255
211 230 255
211 230 255
211 230 255
211 230 255
211 230 255
211 230 255
211 230 255
211 230 255
211 230 255
211 230 255
211 230 255
211 230 255
211 230 255
211 230 255
211 230 255
210 230 255
210 230 255
210 229 255
210 229 255
210 229 255
210 229 255
210 229 255
210 229 255
210 229 255
210 229 255
210 229 255
210 229 255
210 229 255
210 229 255
210 229 255
210 229 255
210 229 255
209 229 255
209 229 255
209 229 255
209 229 255
209 229 255
209 229 255
209 229 255
209 229 255
209 229 255
209 229 255
209 229 255
209 229 255
209 229 255
209 229 255
209 229 255
209 228 255
208 228 255
208 228 255
208 228 255
208 228 255
208 228 255
208 228 255
208 228 255
208 228 255
208 228 255
208 228 255
208 228 255
208 228 255
208 228 255
208 228 255
208 228 255
208 228 255
207 228 255
207 228 255
207 228 255
207 228 255
207 228 255
207 228 255
207 228 255
207 228 255
207 228 255
207 228 255
207 228 255
207 228 255
207 228 255
207 228 255
207 228 255
207 227 255
207 227 255
207 227 255
207 227 255
207 227 255
206 227 255
206 227 255
206 227 255
206 227 255
206 227 255
206 227 255
206 227 255
206 227 255
206 227 255
206 227 255
206 227 255
206 227 255
206 227 255
206 227 255
206 227 255
206 227 255
206 227 255
206 227 255
206 227 255
206 227 255
206 227 255
206 227 255
206 227 255
206 227 255
206 227 255
206 227 255
206 227 255
206 227 255
206 227 255
206 227 255
206 227 255
206 227 255
206 227 255
206 227 255
206 227 255
206 227 255
206 227 255
206 227 255
206 227 255
206 227 255
206 227 255
206 227 255
206 227 255
206 227 255
206 227 255
206 227 255
206 227 255
206 227 255
206 227 255
206 227 255
206 227 255
206 227 255
206 227 255
206 227 255
206 227 255
206 227 255
206 227 255
206 227 255
206 227 255
206 227 255
207 227 255
207 227 255
207 227 255
207 227 255
207 227 255
207 228 255
207 228 255
207 228 255
207 228 255
207 228 255
207 228 255
207 228 255
207 228 255
207 228 255
207 228 255
207 228 255
207 228 255
207 228 255
207 228 255
208 228 255
208 228 255
208 228 255
208 228 255
208 228 255
208 228 255
208 228 255
208 228 255
208 228 255
208 228 255
208 228 255
208 228 255
208 228 255
208 228 255
208 228 255
208 228 255
208 228 255
209 228 255
209 229 255
209 229 255
209 229 255
209 229 255
209 229 255
209 229 255
209 229 255
209 229 255
209 229 255
209 229 255
209 229 255
209 229 255
209 229 255
209 229 255
209 229 255
210 229 255
210 229 255
210 229 255
210 229 255
210 229 255
210 229 255
210 229 255
210 229 255
210 229 255
210 229 255
210 229 255
210 229 255
210 229 255
210 229 255
210 229 255
210 230 255
210 230 255
211 230 255
211 230 255
211 230 255
211 230 255
211 230 255
211 230 255
211 230 255
211 230 255
211 230 255
211 230 255
211 230 255
211 230 255
211 230 255
211 230 255
211 230 255
211 230 255
211 230 255
211 230 255
211 230 255
212 230 255
212 230 255
212 230 255
212 230 255
212 230 255
212 230 255
212 230 255
212 230 255
212 230 255
212 230 255
212 230 255
212 230 255
212 230 255
212 230 255
212 230 255
212 231 255
212 231 255
212 231 255
212 231 255
212 231 255
212 231 255
212 231 255
213 231 255
213 231 255
213 231 255
213 231 255
213 231 255
213 231 255
213 231 255
213 231 255
213 231 255
213 231 255
213 231 255
213 231 255
213 231 255
213 231 255
213 231 255
213 231 255
213 231 255
213 231 255
213 231 255
213 231 255
213 231 255
213 231 255
213 231 255
213 231 255
213 231 255
213 231 255
213 231 255
213 231 255
213 231 255
213 231 255
213 231 255
213 231 255
213 231 255
213 231 255
213 231 255
213 231 255
213 231 255
213 231 255
213 231 255
213 231 255
213 231 255
213 231 255
213 231 255
213 231 255
213 231 255
212 231 255
212 231 255
212 231 255
212 231 255
212 231 255
212 231 255
212 231 255
212 230 255
212 230 255
212 230 255
212 230 255
212 230 255
212 230 255
212 230 255
212 230 255
212 230 255
212 230 255
212 230 255
212 230 255
212 230 255
212 230 255
211 230 255
211 230 255
211 230 255
211 230 255
211 230 255
211 230 255
211 230 255
211 230 255
211 230 255
211 230 255
211 230 255
211 230 255
211 230 255
211 230 255
211 230 255
211 230 255
211 230 255
211 230 255
211 230 255
210 230 255
210 230 255
210 229 255
210 229 255
210 229 255
210 229 255
210 229 255
210 229 255
210 229 255
210 229 255
210 229 255
210 229 255
210 229 255
210 229 255
210 229 255
210 229 255
210 229 255
210 229 255
209 229 255
209 229 255
209 229 255
209 229 255
209 229 255
209 229 255
209 229 255
209 229 255
209 229 255
209 229 255
209 229 255
209 229 255
209 229 255
209 229 255
209 229 255
209 228 255
208 228 255
208 228 255
208 228 255
208 228 255
208 228 255
208 228 255
208 228 255
208 228 255
208 228 255
208 228 255
208 228 255
208 228 255
208 228 255
208 228 255
208 228 255
208 228 255
208 228 255
207 228 255
207 228 255
207 228 255
207 228 255
207 228 255
207 228 255
207 228 255
207 228 255
207 228 255
207 228 255
207 228 255
207 228 255
207 228 255
207 228 255
207 228 255
207 228 255
207 227 255
207 227 255
207 227 255
207 227 255
207 227 255
207 227 255
207 227 255
207 227 255
206 227 255
206 227 255
206 227 255
206 227 255
206 227 255
206 227 255
206 227 255
206 227 255
206 227 255
206 227 255
206 227 255
206 227 255
206 227 255
206 227 255
206 227 255
206 227 255
206 227 255
206 227 255
206 227 255
206 227 255
206 227 255
206 227 255
206 227 255
206 227 255
206 227 255
206 227 255
206 227 255
206 227 255
206 227 255
206 227 255
206 227 255
206 227 255
206 227 255
206 227 255
206 227 255
206 227 255
206 227 255
206 227 255
206 227 255
206 227 255
206 227 255
207 227 255
207 227 255
207 227 255
207 227 255
207 227 255
207 227 255
207 228 255
207 228 255
207 228 255
207 228 255
207 228 255
207 228 255
207 228 255
207 228 255
207 228 255
207 228 255
207 228 255
207 228 255
207 228 255
207 228 255
207 228 255
207 228 255
208 228 255
208 228 255
208 228 255
208 228 255
208 228 255
208 228 255
208 228 255
208 228 255
208 228 255
208 228 255
208 228 255
208 228 255
208 228 255
208 228 255
208 228 255
208 228 255
208 228 255
208 228 255
209 228 255
209 229 255
209 229 255
209 229 255
209 229 255
209 229 255
209 229 255
209 229 255
209 229 255
209 229 255
209 229 255
209 229 255
209 229 255
209 229 255
209 229 255
209 229 255
209 229 255
210 229 255
210 229 255
210 229 255
210 229 255
210 229 255
210 229 255
210 229 255
210 229 255
210 229 255
210 229 255
210 229 255
210 229 255
210 229 255
210 229 255
210 229 255
210 230 255
210 230 255
211 230 255
211 230 255
211 230 255
211 230 255
211 230 255
211 230 255
211 230 255
211 230 255
211 230 255
211 230 255
211 230 255
211 230 255
211 230 255
211 230 255
211 230 255
211 230 255
211 230 255
211 230 255
211 230 255
212 230 255
212 230 255
212 230 255
212 230 255
212 230 255
212 230 255
212 230 255
212 230 255
212 230 255
212 230 255
212 230 255
212 230 255
212 230 255
212 230 255
212 231 255
212 231 255
212 231 255
212 231 255
212 231 255
212 231 255
212 231 255
213 231 255
213 231 255
213 231 255
213 231 255
213 231 255
213 231 255
213 231 255
213 231 255
213 231 255
213 231 255
213 231 255
213 231 255
213 231 255
213 231 255
213 231 255
213 231 255
213 231 255
213 231 255
213 231 255
213 231 255
213 231 255
213 231 255
213 231 255
213 231 255
213 231 255
214 231 255
214 231 255
214 231 255
214 231 255
214 231 255
213 231 255
213 231 255
213 231 255
213 231 255
213 231 255
213 231 255
213 231 255
213 231 255
213 231 255
213 231 255
213 231 255
213 231 255
213 231 255
213 231 255
213 231 255
213 231 255
213 231 255
213 231 255
213 231 255
213 231 255
213 231 255
213 231 255
213 231 255
213 231 255
213 231 255
212 231 255
212 231 255
212 231 255
212 231 255
212 231 255
212 231 255
212 231 255
212 230 255
212 230 255
212 230 255
212 230 255
212 230 255
212 230 255
212 230 255
212 230 255
212 230 255
212 230 255
212 230 255
212 230 255
212 230 255
212 230 255
211 230 255
211 230 255
211 230 255
211 230 255
211 230 255
211 230 255
211 230 255
211 230 255
211 230 255
211 230 255
211 230 255
211 230 255
211 230 255
211 230 255
211 230 255
210 229 255
209 228 255
205 225 252
204 225 252
204 225 252
202 223 251
197 219 249
198 220 249
201 222 251
194 217 248
197 219 249
196 218 249
201 222 251
203 224 252
204 225 252
206 226 254
208 228 255
210 229 255
210 229 255
210 229 255
210 229 255
209 229 255
209 229 255
209 229 255
209 229 255
209 229 255
209 229 255
209 229 255
209 229 255
209 229 255
209 229 255
209 229 255
209 229 255
209 229 255
209 229 255
209 229 255
209 229 255
209 228 255
208 228 255
208 228 255
208 228 255
208 228 255
208 228 255
208 228 255
208 228 255
208 228 255
208 228 255
208 228 255
208 228 255
208 228 255
208 228 255
208 228 255
208 228 255
208 228 255
208 228 255
208 228 255
207 228 255
207 228 255
207 228 255
207 228 255
207 228 255
207 228 255
207 228 255
207 228 255
207 228 255
207 228 255
207 228 255
207 228 255
207 228 255
207 228 255
207 228 255
207 228 255
207 228 255
207 228 255
207 228 255
207 228 255
207 227 255
207 227 255
207 227 255
207 227 255
207 227 255
207 227 255
207 227 255
207 227 255
207 227 255
207 227 255
207 227 255
207 227 255
199 221 253
200 222 253
169 196 243
157 187 239
165 193 242
154 184 238
171 198 243
157 187 240
163 192 241
183 207 247
179 205 246
194 217 250
207 227 255
207 227 255
207 227 255
207 227 255
207 227 255
207 227 255
207 227 255
207 227 255
207 227 255
207 227 255
207 227 255
207 228 255
207 228 255
207 228 255
207 228 255
207 228 255
207 228 255
207 228 255
207 228 255
207 228 255
207 228 255
207 228 255
207 228 255
207 228 255
207 228 255
207 228 255
207 228 255
207 228 255
207 228 255
207 228 255
207 228 255
208 228 255
208 228 255
208 228 255
208 228 255
208 228 255
208 228 255
208 228 255
208 228 255
208 228 255
208 228 255
208 228 255
208 228 255
208 228 255
208 228 255
208 228 255
208 228 255
208 228 255
208 228 255
208 228 255
209 228 255
209 229 255
209 229 255
209 229 255
209 229 255
209 229 255
209 229 255
209 229 255
209 229 255
209 229 255
209 229 255
209 229 255
209 229 255
209 229 255
209 229 255
209 229 255
209 229 255
210 229 255
210 229 255
210 229 255
210 229 255
208 226 252
205 222 241
194 208 225
197 211 226
187 198 206
187 195 198
187 193 189
191 199 201
184 194 203
180 187 189
185 190 184
185 194 201
198 208 215
189 200 210
201 217 236
204 220 240
211 230 255
211 230 255
211 230 255
211 230 255
211 230 255
211 230 255
211 230 255
211 230 255
211 230 255
211 230 255
211 230 255
211 230 255
211 230 255
211 230 255
211 230 255
211 230 255
212 230 255
212 230 255
212 230 255
212 230 255
212 230 255
212 230 255
212 230 255
212 230 255
212 230 255
212 230 255
212 230 255
212 230 255
212 230 255
212 230 255
212 231 255
212 231 255
212 231 255
212 231 255
212 231 255
212 231 255
212 231 255
213 231 255
213 231 255
213 231 255
213 231 255
213 231 255
213 231 255
213 231 255
213 231 255
213 231 255
213 231 255
213 231 255
213 231 255
213 231 255
213 231 255
213 231 255
213 231 255
213 231 255
213 231 255
213 231 255
213 231 255
213 231 255
213 231 255
213 231 255
213 231 255
213 231 255
214 231 255
214 231 255
214 231 255
214 231 255
214 231 255
214 231 255
214 231 255
214 231 255
214 231 255
214 231 255
214 231 255
214 231 255
214 231 255
214 231 255
214 231 255
214 231 255
213 231 255
213 231 255
213 231 255
213 231 255
213 231 255
213 231 255
213 231 255
213 231 255
213 231 255
213 231 255
213 231 255
213 231 255
213 231 255
213 231 255
213 231 255
213 231 255
213 231 255
213 231 255
213 231 255
213 231 255
213 231 255
213 231 255
213 231 255
213 231 255
212 231 255
212 231 255
212 231 255
212 231 255
212 231 255
212 231 255
212 230 255
212 230 255
212 230 255
212 230 255
212 230 255
212 230 255
212 230 255
212 230 255
212 230 255
212 230 255
212 230 255
212 230 255
212 230 255
212 230 255
212 230 255
211 230 255
211 230 255
211 230 255
211 230 255
211 230 255
207 226 253
199 221 250
195 218 248
190 214 246
188 212 245
181 208 242
180 207 242
179 206 242
178 206 242
177 205 242
176 205 242
176 205 242
176 205 242
176 205 242
176 205 242
175 204 242
175 205 242
176 205 242
176 205 242
177 205 242
177 205 242
178 206 242
181 208 243
183 209 244
190 214 247
199 221 250
201 222 251
208 228 255
210 229 255
210 229 255
210 229 255
209 229 255
209 229 255
209 229 255
209 229 255
209 229 255
209 229 255
209 229 255
209 229 255
209 229 255
209 229 255
209 229 255
209 229 255
209 229 255
209 229 255
209 229 255
209 229 255
209 228 255
209 228 255
208 228 255
208 228 255
208 228 255
208 228 255
208 228 255
208 228 255
208 228 255
208 228 255
208 228 255
208 228 255
208 228 255
208 228 255
208 228 255
208 228 255
208 228 255
208 228 255
208 228 255
208 228 255
208 228 255
208 228 255
208 228 255
207 228 255
207 228 255
207 228 255
207 228 255
207 228 255
207 228 255
207 228 255
207 228 255
207 228 255
207 228 255
207 228 255
207 228 255
207 228 255
207 228 255
207 228 255
207 228 255
207 228 255
207 228 255
202 224 254
169 196 242
148 179 237
120 159 228
90 139 221
75 130 220
75 130 219
76 131 220
76 131 219
76 131 220
75 130 219
76 130 219
76 131 220
77 132 221
75 130 217
76 131 220
74 128 217
95 142 223
115 156 228
167 195 241
187 211 248
204 225 254
207 228 255
207 228 255
207 228 255
207 228 255
207 228 255
207 228 255
207 228 255
207 228 255
207 228 255
207 228 255
207 228 255
207 228 255
207 228 255
207 228 255
207 228 255
207 228 255
207 228 255
207 228 255
207 228 255
208 228 255
208 228 255
208 228 255
208 228 255
208 228 255
208 228 255
208 228 255
208 228 255
208 228 255
208 228 255
208 228 255
208 228 255
208 228 255
208 228 255
208 228 255
208 228 255
208 228 255
208 228 255
208 228 255
208 228 255
209 228 255
209 229 255
209 229 255
209 229 255
209 229 255
209 229 255
209 229 255
209 229 255
209 229 255
209 229 255
209 229 255
209 229 255
209 229 255
209 229 255
209 229 255
209 229 255
209 229 255
209 229 255
210 229 255
210 229 255
210 229 255
205 222 244
195 208 222
194 207 220
180 182 167
173 172 151
165 159 118
168 159 105
168 159 105
167 158 105
174 166 110
170 161 107
174 165 109
172 164 109
177 169 112
173 164 109
172 164 109
171 162 107
177 168 111
174 165 109
167 158 104
163 153 101
165 155 102
170 162 116
163 155 112
178 177 157
170 174 171
196 211 229
204 220 240
211 230 255
211 230 255
211 230 255
211 230 255
211 230 255
212 230 255
212 230 255
212 230 255
212 230 255
212 230 255
212 230 255
212 230 255
212 230 255
212 230 255
212 230 255
212 230 255
212 230 255
212 230 255
212 230 255
212 231 255
212 231 255
212 231 255
212 231 255
212 231 255
212 231 255
212 231 255
213 231 255
213 231 255
213 231 255
213 231 255
213 231 255
213 231 255
213 231 255
213 231 255
213 231 255
213 231 255
213 231 255
213 231 255
213 231 255
213 231 255
213 231 255
213 231 255
213 231 255
213 231 255
213 231 255
213 231 255
213 231 255
213 231 255
213 231 255
213 231 255
214 231 255
214 231 255
214 231 255
214 231 255
214 231 255
214 231 255
214 231 255
214 231 255
214 231 255
214 231 255
214 231 255
214 232 255
214 231 255
214 231 255
214 231 255
214 231 255
214 231 255
214 231 255
214 231 255
214 231 255
214 231 255
214 231 255
214 231 255
214 231 255
214 231 255
214 231 255
214 231 255
213 231 255
213 231 255
213 231 255
213 231 255
213 231 255
213 231 255
213 231 255
213 231 255
213 231 255
213 231 255
213 231 255
213 231 255
213 231 255
213 231 255
213 231 255
213 231 255
213 231 255
213 231 255
213 231 255
213 231 255
213 231 255
213 231 255
213 231 255
213 231 255
213 231 255
212 231 255
212 231 255
212 231 255
212 231 255
212 231 255
212 231 255
212 230 255
212 230 255
212 230 255
212 230 255
212 230 255
212 230 255
212 230 255
212 230 255
212 230 255
211 230 255
207 226 253
199 221 249
195 217 247
184 210 243
181 207 242
179 206 242
178 206 242
177 205 242
176 205 242
175 204 242
174 204 242
174 204 242
173 203 242
173 203 242
172 203 242
172 203 242
172 202 242
171 202 242
171 202 242
171 202 242
171 202 242
171 202 242
171 202 242
171 202 242
171 202 242
172 202 242
172 203 242
173 203 242
174 203 242
175 204 242
176 205 242
177 206 242
187 212 245
192 215 247
203 224 252
209 228 255
210 229 255
210 229 255
210 229 255
210 229 255
210 229 255
209 229 255
209 229 255
209 229 255
209 229 255
209 229 255
209 229 255
209 229 255
209 229 255
209 229 255
209 229 255
209 229 255
209 229 255
209 229 255
209 229 255
209 229 255
209 229 255
209 229 255
209 228 255
208 228 255
208 228 255
208 228 255
208 228 255
208 228 255
208 228 255
208 228 255
208 228 255
208 228 255
208 228 255
208 228 255
208 228 255
208 228 255
208 228 255
208 228 255
208 228 255
208 228 255
208 228 255
208 228 255
208 228 255
208 228 255
208 228 255
208 228 255
208 228 255
207 228 255
207 228 255
207 228 255
207 228 255
207 228 255
207 228 255
206 227 255
166 193 241
136 171 234
83 134 219
75 130 219
77 132 221
74 129 218
76 130 219
76 130 217
76 131 220
76 130 217
75 129 217
74 128 216
75 130 219
76 130 217
77 132 221
75 130 219
75 129 217
76 130 219
76 130 217
75 129 219
75 130 219
74 129 218
76 131 219
94 141 223
137 171 233
171 198 243
201 223 253
207 228 255
207 228 255
207 228 255
207 228 255
207 228 255
207 228 255
208 228 255
208 228 255
208 228 255
208 228 255
208 228 255
208 228 255
208 228 255
208 228 255
208 228 255
208 228 255
208 228 255
208 228 255
208 228 255
208 228 255
208 228 255
208 228 255
208 228 255
208 228 255
208 228 255
208 228 255
208 228 255
208 228 255
208 228 255
208 228 255
209 228 255
209 229 255
209 229 255
209 229 255
209 229 255
209 229 255
209 229 255
209 229 255
209 229 255
209 229 255
209 229 255
209 229 255
209 229 255
209 229 255
209 229 255
209 229 255
209 229 255
209 229 255
210 229 255
210 229 255
210 229 255
210 229 255
210 229 255
204 221 242
197 210 223
182 188 188
164 163 139
157 149 99
168 160 106
171 163 108
172 164 109
174 166 111
177 169 113
173 166 111
177 170 114
176 170 114
176 170 114
176 170 114
176 170 114
177 170 114
177 170 114
178 170 114
177 170 114
177 170 114
179 171 114
178 171 114
179 171 114
181 172 114
181 172 114
176 167 111
175 166 110
177 168 111
170 161 106
168 158 104
170 159 104
166 157 109
176 176 161
183 190 192
198 214 235
212 230 255
212 230 255
212 230 255
212 230 255
212 230 255
212 230 255
212 230 255
212 230 255
212 230 255
212 230 255
212 231 255
212 231 255
212 231 255
212 231 255
212 231 255
212 231 255
212 231 255
213 231 255
213 231 255
213 231 255
213 231 255
213 231 255
213 231 255
213 231 255
213 231 255
213 231 255
213 231 255
213 231 255
213 231 255
213 231 255
213 231 255
213 231 255
213 231 255
213 231 255
213 231 255
213 231 255
213 231 255
213 231 255
213 231 255
213 231 255
214 231 255
214 231 255
214 231 255
214 231 255
214 231 255
214 231 255
214 231 255
214 231 255
214 231 255
214 231 255
214 231 255
214 231 255
214 231 255
214 231 255
214 231 255
214 232 255
214 232 255
214 232 255
214 232 255
214 232 255
214 232 255
214 232 255
214 232 255
214 232 255
214 232 255
214 231 255
214 231 255
214 231 255
214 231 255
214 231 255
214 231 255
214 231 255
214 231 255
214 231 255
214 231 255
214 231 255
214 231 255
214 231 255
214 231 255
213 231 255
213 231 255
213 231 255
213 231 255
213 231 255
213 231 255
213 231 255
213 231 255
213 231 255
213 231 255
213 231 255
213 231 255
213 231 255
213 231 255
213 231 255
213 231 255
213 231 255
213 231 255
213 231 255
213 231 255
213 231 255
213 231 255
213 231 255
213 231 255
212 231 255
212 231 255
212 231 255
212 231 255
212 231 255
212 231 255
212 230 255
212 230 255
205 225 252
197 219 248
186 211 243
182 208 242
180 207 242
178 206 242
177 205 242
176 205 242
175 204 242
174 204 242
173 203 242
173 203 242
172 203 242
172 202 242
171 202 242
171 202 242
170 201 242
169 201 242
169 201 242
169 201 242
169 201 242
168 201 242
168 200 242
168 200 242
168 200 242
168 200 242
168 200 242
168 200 242
168 201 242
168 201 242
169 201 242
169 201 242
170 201 242
170 202 242
171 202 242
172 203 242
174 204 242
176 205 242
179 207 243
188 213 246
198 220 250
208 228 254
210 229 255
210 229 255
210 229 255
210 229 255
210 229 255
210 229 255
210 229 255
209 229 255
209 229 255
209 229 255
209 229 255
209 229 255
209 229 255
209 229 255
209 229 255
209 229 255
209 229 255
209 229 255
209 229 255
209 229 255
209 229 255
209 229 255
209 229 255
209 229 255
209 229 255
209 228 255
209 228 255
208 228 255
208 228 255
208 228 255
208 228 255
208 228 255
208 228 255
208 228 255
208 228 255
208 228 255
208 228 255
208 228 255
208 228 255
208 228 255
208 228 255
208 228 255
208 228 255
208 228 255
208 228 255
208 228 255
208 228 255
208 228 255
192 215 250
153 183 237
90 138 220
76 131 220
76 131 218
78 132 218
75 129 217
74 128 216
77 131 219
75 130 218
77 131 219
76 130 217
75 129 217
75 129 217
76 130 216
76 131 220
77 131 218
75 129 217
76 131 219
76 131 219
76 130 218
77 132 221
75 129 218
77 131 219
75 130 219
76 130 217
75 130 217
75 129 217
74 128 216
84 135 219
158 187 238
194 216 251
208 228 255
208 228 255
208 228 255
208 228 255
208 228 255
208 228 255
208 228 255
208 228 255
208 228 255
208 228 255
208 228 255
208 228 255
208 228 255
208 228 255
208 228 255
208 228 255
208 228 255
208 228 255
208 228 255
208 228 255
208 228 255
209 228 255
209 228 255
209 229 255
209 229 255
209 229 255
209 229 255
209 229 255
209 229 255
209 229 255
209 229 255
209 229 255
209 229 255
209 229 255
209 229 255
209 229 255
209 229 255
209 229 255
209 229 255
209 229 255
209 229 255
210 229 255
210 229 255
210 229 255
210 229 255
210 229 255
210 229 255
210 229 255
201 219 243
187 198 206
170 169 144
173 167 122
176 167 111
176 168 112
178 170 114
177 170 114
176 169 114
176 169 114
175 169 114
174 169 114
174 169 114
174 169 114
173 168 114
174 169 114
174 168 114
174 169 114
173 168 114
175 169 114
175 169 114
174 169 114
175 169 114
175 169 114
175 169 114
176 170 114
176 170 114
177 170 114
177 170 114
178 170 114
178 171 114
180 171 114
178 171 114
182 172 114
181 171 113
179 169 111
181 170 112
180 169 111
172 161 105
161 155 120
174 177 170
196 208 220
212 230 254
212 230 255
212 231 255
212 231 255
212 231 255
212 231 255
212 231 255
212 231 255
213 231 255
213 231 255
213 231 255
213 231 255
213 231 255
213 231 255
213 231 255
213 231 255
213 231 255
213 231 255
213 231 255
213 231 255
213 231 255
213 231 255
213 231 255
213 231 255
213 231 255
213 231 255
213 231 255
213 231 255
213 231 255
213 231 255
213 231 255
213 231 255
213 231 255
214 231 255
214 231 255
214 231 255
214 231 255
214 231 255
214 231 255
214 231 255
214 231 255
214 231 255
214 231 255
214 231 255
214 231 255
214 231 255
214 232 255
214 232 255
214 232 255
214 232 255
214 232 255
214 232 255
214 232 255
214 232 255
214 232 255
214 232 255
214 232 255
214 232 255
214 232 255
214 232 255
214 232 255
214 232 255
214 232 255
214 232 255
214 232 255
214 232 255
214 232 255
214 232 255
214 231 255
214 231 255
214 231 255
214 231 255
214 231 255
214 231 255
214 231 255
214 231 255
214 231 255
214 231 255
214 231 255
214 231 255
214 231 255
214 231 255
213 231 255
213 231 255
213 231 255
213 231 255
213 231 255
213 231 255
213 231 255
213 231 255
213 231 255
213 231 255
213 231 255
213 231 255
213 231 255
213 231 255
213 231 255
213 231 255
213 231 255
213 231 255
213 231 255
213 231 255
213 231 255
213 231 255
213 231 255
208 227 253
197 218 248
185 210 243
182 208 242
180 207 242
179 206 242
178 206 242
176 205 242
176 205 242
174 204 242
174 203 242
173 203 242
172 203 242
171 202 242
171 202 242
170 202 242
169 201 242
169 201 242
169 201 242
168 200 242
168 200 242
167 200 242
167 200 242
167 200 242
166 200 242
166 199 242
166 199 242
166 199 242
166 199 242
166 199 242
166 199 242
166 199 242
166 199 242
166 199 242
166 200 242
167 200 242
167 200 242
168 200 242
168 201 242
169 201 242
170 201 242
172 202 242
173 203 242
175 204 242
178 206 243
187 212 245
202 223 251
209 228 255
210 229 255
210 229 255
210 229 255
210 229 255
210 229 255
210 229 255
210 229 255
210 229 255
210 229 255
210 229 255
209 229 255
209 229 255
209 229 255
209 229 255
209 229 255
209 229 255
209 229 255
209 229 255
209 229 255
209 229 255
209 229 255
209 229 255
209 229 255
209 229 255
209 229 255
209 229 255
209 229 255
209 229 255
209 229 255
209 229 255
209 228 255
209 228 255
209 228 255
208 228 255
208 228 255
208 228 255
208 228 255
208 228 255
208 228 255
208 228 255
208 228 255
208 228 255
208 228 255
194 217 251
128 164 230
84 135 220
76 131 220
75 130 218
77 132 220
77 132 220
74 129 219
76 130 219
76 130 217
76 130 217
76 129 217
76 130 217
77 131 217
76 130 217
76 130 219
77 131 219
77 131 220
75 129 216
76 131 219
75 129 217
76 130 218
76 130 219
75 129 216
75 129 217
76 130 216
73 127 214
75 129 215
75 129 217
76 131 218
75 129 216
78 132 220
76 130 217
76 131 218
133 167 230
188 211 248
208 228 255
208 228 255
208 228 255
208 228 255
208 228 255
208 228 255
208 228 255
208 228 255
208 228 255
208 228 255
208 228 255
209 228 255
209 228 255
209 229 255
209 229 255
209 229 255
209 229 255
209 229 255
209 229 255
209 229 255
209 229 255
209 229 255
209 229 255
209 229 255
209 229 255
209 229 255
209 229 255
209 229 255
209 229 255
209 229 255
209 229 255
209 229 255
209 229 255
210 229 255
210 229 255
210 229 255
210 229 255
210 229 255
210 229 255
210 229 255
210 229 255
210 229 255
210 229 255
210 228 254
192 201 207
186 191 187
162 155 106
175 166 110
173 165 110
175 168 113
176 170 114
175 169 114
174 169 114
174 168 114
173 168 114
172 168 114
172 168 114
173 168 114
172 168 114
172 168 114
171 167 114
171 167 114
172 168 114
172 168 114
172 168 114
171 168 114
172 168 114
173 168 114
173 168 114
174 168 114
174 169 114
173 168 114
174 169 114
175 169 114
175 169 114
175 169 114
177 170 114
178 170 114
178 171 114
179 171 114
180 171 114
181 172 114
181 172 114
184 173 114
179 169 111
175 164 108
171 160 105
171 159 104
166 159 122
182 184 173
196 209 223
213 231 255
213 231 255
213 231 255
213 231 255
213 231 255
213 231 255
213 231 255
213 231 255
213 231 255
213 231 255
213 231 255
213 231 255
213 231 255
213 231 255
213 231 255
213 231 255
213 231 255
213 231 255
213 231 255
213 231 255
213 231 255
213 231 255
213 231 255
214 231 255
214 231 255
214 231 255
214 231 255
214 231 255
214 231 255
214 231 255
214 231 255
214 231 255
214 231 255
214 231 255
214 231 255
214 231 255
214 231 255
214 232 255
214 232 255
214 232 255
214 232 255
214 232 255
214 232 255
214 232 255
214 232 255
214 232 255
214 232 255
214 232 255
214 232 255
214 232 255
214 232 255
215 232 255
215 232 255
215 232 255
215 232 255
215 232 255
214 232 255
214 232 255
214 232 255
214 232 255
214 232 255
214 232 255
214 232 255
214 232 255
214 232 255
214 232 255
214 232 255
214 232 255
214 232 255
214 232 255
214 232 255
214 231 255
214 231 255
214 231 255
214 231 255
214 231 255
214 231 255
214 231 255
214 231 255
214 231 255
214 231 255
214 231 255
214 231 255
214 231 255
214 231 255
213 231 255
213 231 255
213 231 255
213 231 255
213 231 255
213 231 255
213 231 255
213 231 255
213 231 255
213 231 255
213 231 255
213 231 255
213 231 255
213 231 255
212 230 255
204 224 251
191 214 245
183 209 242
181 208 242
180 207 242
178 206 242
177 205 242
176 205 242
175 204 242
174 204 242
174 203 242
173 203 242
172 203 242
171 202 242
170 202 242
170 201 242
169 201 242
169 201 242
168 201 242
168 200 242
167 200 242
167 200 242
166 200 242
166 199 242
166 199 242
165 199 242
165 199 242
165 199 242
165 199 242
164 199 242
164 199 242
164 198 242
164 198 242
164 198 242
164 198 242
164 198 242
165 199 242
164 199 242
165 199 242
165 199 242
166 199 242
166 200 242
167 200 242
168 200 242
169 201 242
170 202 242
171 202 242
173 203 242
176 205 242
181 208 243
198 220 250
208 228 254
210 229 255
210 229 255
210 229 255
210 229 255
210 229 255
210 229 255
210 229 255
210 229 255
210 229 255
210 229 255
210 229 255
210 229 255
210 229 255
210 229 255
209 229 255
209 229 255
209 229 255
209 229 255
209 229 255
209 229 255
209 229 255
209 229 255
209 229 255
209 229 255
209 229 255
209 229 255
209 229 255
209 229 255
209 229 255
209 229 255
209 229 255
209 229 255
209 229 255
209 229 255
209 229 255
209 229 255
209 229 255
209 229 255
209 228 255
204 225 254
138 172 233
76 131 220
76 130 218
75 129 217
76 130 217
75 129 217
76 130 218
76 131 221
76 130 217
76 130 217
75 128 214
75 130 219
75 128 215
74 127 214
75 129 216
75 129 215
77 131 219
76 130 218
75 129 216
75 129 217
76 130 218
77 132 220
75 128 215
75 129 216
77 131 220
76 131 219
75 130 219
76 130 217
76 129 216
76 131 219
75 130 219
76 130 217
75 129 215
76 129 215
76 130 217
75 130 218
77 131 217
130 165 228
203 223 253
209 228 255
209 229 255
209 229 255
209 229 255
209 229 255
209 229 255
209 229 255
209 229 255
209 229 255
209 229 255
209 229 255
209 229 255
209 229 255
209 229 255
209 229 255
209 229 255
209 229 255
209 229 255
209 229 255
209 229 255
209 229 255
209 229 255
209 229 255
209 229 255
210 229 255
210 229 255
210 229 255
210 229 255
210 229 255
210 229 255
210 229 255
210 229 255
210 229 255
210 229 255
210 229 255
210 229 255
210 229 255
210 229 255
210 229 255
206 225 249
186 193 193
166 158 111
175 166 110
175 168 112
178 170 114
176 170 114
175 169 114
174 169 114
173 168 114
172 168 114
172 168 114
171 168 114
171 167 114
170 167 114
170 167 114
170 167 114
170 167 114
170 167 114
170 167 114
170 167 114
170 167 114
170 167 114
170 167 114
170 167 114
171 167 114
171 167 114
171 168 114
172 168 114
172 168 114
172 168 114
173 168 114
174 169 114
174 169 114
174 169 114
174 169 114
176 170 114
176 169 114
178 170 114
177 170 114
178 171 114
180 171 114
180 171 114
180 172 114
182 172 114
184 173 114
184 173 114
182 170 111
182 170 111
162 151 99
167 166 150
186 194 198
211 228 252
213 231 255
213 231 255
213 231 255
213 231 255
213 231 255
213 231 255
213 231 255
213 231 255
213 231 255
213 231 255
213 231 255
213 231 255
213 231 255
213 231 255
214 231 255
214 231 255
214 231 255
214 231 255
214 231 255
214 231 255
214 231 255
214 231 255
214 231 255
214 231 255
214 231 255
214 231 255
214 231 255
214 231 255
214 232 255
214 232 255
214 232 255
214 232 255
214 232 255
214 232 255
214 232 255
214 232 255
214 232 255
214 232 255
214 232 255
214 232 255
214 232 255
214 232 255
214 232 255
215 232 255
215 232 255
215 232 255
215 232 255
215 232 255
215 232 255
215 232 255
215 232 255
215 232 255
215 232 255
215 232 255
215 232 255
215 232 255
215 232 255
215 232 255
215 232 255
215 232 255
214 232 255
214 232 255
214 232 255
214 232 255
214 232 255
214 232 255
214 232 255
214 232 255
214 232 255
214 232 255
214 232 255
214 232 255
214 232 255
214 232 255
214 231 255
214 231 255
214 231 255
214 231 255
214 231 255
214 231 255
214 231 255
214 231 255
214 231 255
214 231 255
214 231 255
214 231 255
214 231 255
214 231 255
213 231 255
213 231 255
213 231 255
213 231 255
213 231 255
213 231 255
213 231 255
201 222 249
190 213 244
184 209 242
182 208 242
180 207 242
179 206 242
178 206 242
176 205 242
175 205 242
175 204 242
174 204 242
173 203 242
172 203 242
172 202 242
171 202 242
170 202 242
170 201 242
169 201 242
168 201 242
168 200 242
167 200 242
167 200 242
166 200 242
166 199 242
165 199 242
165 199 242
165 199 242
164 199 242
164 198 242
164 198 242
164 198 242
163 198 242
163 198 242
163 198 242
163 198 242
163 198 242
163 198 242
163 198 242
163 198 242
163 198 242
163 198 242
164 198 242
164 198 242
164 198 242
165 199 242
165 199 242
166 199 242
167 200 242
168 200 242
169 201 242
171 202 242
172 203 242
175 204 242
181 208 243
190 214 246
208 227 254
210 230 255
210 229 255
210 229 255
210 229 255
210 229 255
210 229 255
210 229 255
210 229 255
210 229 255
210 229 255
210 229 255
210 229 255
210 229 255
210 229 255
210 229 255
210 229 255
210 229 255
210 229 255
210 229 255
210 229 255
209 229 255
209 229 255
209 229 255
209 229 255
209 229 255
209 229 255
209 229 255
209 229 255
209 229 255
209 229 255
209 229 255
209 229 255
209 229 255
209 229 255
209 229 255
209 229 255
174 200 244
107 150 225
75 128 215
75 129 217
76 131 218
76 130 217
75 128 214
76 130 218
76 131 219
75 129 217
75 129 217
75 129 215
73 126 213
75 129 216
75 128 213
76 130 218
77 131 217
76 131 218
75 129 216
76 130 217
75 129 217
75 128 214
74 127 213
75 129 217
76 131 218
76 130 217
75 129 217
76 130 217
76 131 219
76 130 217
75 128 213
76 130 218
76 130 219
75 129 216
74 128 215
76 131 218
75 128 214
75 128 214
74 127 212
76 130 219
90 138 219
178 203 245
209 229 255
209 229 255
209 229 255
209 229 255
209 229 255
209 229 255
209 229 255
209 229 255
209 229 255
209 229 255
209 229 255
209 229 255
209 229 255
209 229 255
209 229 255
209 229 255
210 229 255
210 229 255
210 229 255
210 229 255
210 229 255
210 229 255
210 229 255
210 229 255
210 229 255
210 229 255
210 229 255
210 229 255
210 229 255
210 229 255
210 229 255
210 229 255
210 229 255
210 229 255
210 229 255
210 230 255
206 223 246
179 181 171
153 145 100
173 164 109
179 171 114
176 170 114
175 169 114
174 169 114
174 168 114
172 168 114
171 168 114
170 167 114
170 167 114
169 167 114
170 167 114
169 167 114
169 166 114
169 166 114
169 166 114
169 166 114
169 166 114
169 166 114
169 167 114
169 167 114
169 167 114
169 167 114
170 167 114
170 167 114
170 167 114
171 167 114
172 168 114
172 168 114
172 168 114
172 168 114
172 168 114
173 168 114
174 169 114
174 169 114
175 169 114
175 169 114
176 169 114
176 169 114
177 170 114
178 171 114
179 171 114
180 171 114
181 172 114
182 172 114
182 172 114
183 173 114
183 172 113
177 165 108
176 165 108
168 157 102
177 168 124
194 203 209
209 226 248
213 231 255
213 231 255
213 231 255
213 231 255
213 231 255
213 231 255
213 231 255
214 231 255
214 231 255
214 231 255
214 231 255
214 231 255
214 231 255
214 231 255
214 231 255
214 231 255
214 231 255
214 231 255
214 231 255
214 231 255
214 232 255
214 232 255
214 232 255
214 232 255
214 232 255
214 232 255
214 232 255
214 232 255
214 232 255
214 232 255
214 232 255
214 232 255
214 232 255
214 232 255
214 232 255
215 232 255
215 232 255
215 232 255
215 232 255
215 232 255
215 232 255
215 232 255
215 232 255
215 232 255
215 232 255
215 232 255
215 232 255
215 232 255
215 232 255
215 232 255
215 232 255
215 232 255
215 232 255
215 232 255
215 232 255
215 232 255
215 232 255
215 232 255
215 232 255
215 232 255
215 232 255
215 232 255
215 232 255
215 232 255
215 232 255
214 232 255
214 232 255
214 232 255
214 232 255
214 232 255
214 232 255
214 232 255
214 232 255
214 232 255
214 232 255
214 232 255
214 232 255
214 232 255
214 231 255
214 231 255
214 231 255
214 231 255
214 231 255
214 231 255
214 231 255
214 231 255
214 231 255
214 231 255
214 231 255
214 231 255
213 231 255
205 225 251
190 213 244
184 209 242
182 208 242
181 207 242
179 207 242
178 206 242
177 205 242
176 205 242
175 204 242
174 204 242
173 203 242
173 203 242
172 203 242
171 202 242
171 202 242
170 202 242
169 201 242
169 201 242
168 201 242
168 200 242
167 200 242
167 200 242
166 200 242
166 199 242
165 199 242
165 199 242
165 199 242
164 198 242
164 198 242
164 198 242
163 198 242
163 198 242
163 198 242
163 198 242
162 198 242
162 197 242
162 197 242
162 197 242
162 197 242
162 197 242
162 197 242
162 197 242
163 198 242
163 198 242
163 198 242
163 198 242
164 198 242
164 199 242
165 199 242
166 199 242
167 200 242
168 200 242
169 201 242
171 202 242
173 203 242
175 204 242
178 206 242
196 219 249
209 228 254
211 230 255
211 230 255
211 230 255
211 230 255
210 230 255
210 230 255
210 229 255
210 229 255
210 229 255
210 229 255
210 229 255
210 229 255
210 229 255
210 229 255
210 229 255
210 229 255
210 229 255
210 229 255
210 229 255
210 229 255
210 229 255
210 229 255
210 229 255
210 229 255
210 229 255
210 229 255
210 229 255
209 229 255
209 229 255
209 229 255
209 229 255
209 229 255
190 213 249
126 162 229
73 127 215
75 129 217
77 131 218
75 129 216
77 131 217
77 131 219
75 129 216
75 129 217
76 130 216
76 130 217
75 128 215
74 128 215
74 127 212
73 126 212
75 128 214
77 131 219
76 130 217
74 127 213
74 127 214
75 129 217
74 128 215
76 129 215
75 129 215
74 127 215
75 129 216
74 128 215
75 128 214
76 130 217
74 128 214
76 129 216
76 130 216
75 129 217
71 123 208
75 129 217
75 129 215
75 130 217
74 127 214
75 129 217
75 128 213
75 128 215
76 129 213
75 130 218
138 170 228
203 224 253
209 229 255
209 229 255
209 229 255
209 229 255
209 229 255
210 229 255
210 229 255
210 229 255
210 229 255
210 229 255
210 229 255
210 229 255
210 229 255
210 229 255
210 229 255
210 229 255
210 229 255
210 229 255
210 229 255
210 229 255
210 229 255
210 229 255
210 229 255
210 229 255
210 229 255
210 229 255
210 230 255
210 230 255
211 230 255
211 230 255
211 230 255
211 230 255
207 224 246
172 177 172
162 155 109
176 167 111
177 169 113
177 170 114
175 169 114
174 169 114
172 168 114
172 168 114
171 167 114
171 167 114
170 167 114
169 167 114
168 166 114
168 166 114
168 166 114
168 166 114
168 166 114
168 166 114
168 166 114
168 166 114
168 166 114
168 166 114
168 166 114
168 166 114
169 166 114
169 166 114
169 166 114
169 167 114
170 167 114
170 167 114
171 167 114
171 167 114
170 167 114
172 168 114
172 168 114
172 168 114
174 169 114
173 168 114
174 169 114
176 169 114
175 169 114
176 170 114
177 170 114
177 170 114
178 170 114
178 170 114
179 171 114
179 171 114
181 172 114
182 172 114
182 172 114
184 173 114
184 173 114
184 171 112
181 169 110
171 159 103
176 172 147
195 202 203
214 231 255
214 231 255
214 231 255
214 231 255
214 231 255
214 231 255
214 231 255
214 231 255
214 231 255
214 231 255
214 231 255
214 231 255
214 231 255
214 232 255
214 232 255
214 232 255
214 232 255
214 232 255
214 232 255
214 232 255
214 232 255
214 232 255
214 232 255
214 232 255
214 232 255
214 232 255
214 232 255
215 232 255
215 232 255
215 232 255
215 232 255
215 232 255
215 232 255
215 232 255
215 232 255
215 232 255
215 232 255
215 232 255
215 232 255
215 232 255
215 232 255
215 232 255
215 232 255
215 232 255
215 232 255
215 232 255
215 232 255
215 232 255
215 232 255
215 232 255
215 232 255
215 232 255
215 232 255
215 232 255
215 232 255
215 232 255
215 232 255
215 232 255
215 232 255
215 232 255
215 232 255
215 232 255
215 232 255
215 232 255
215 232 255
215 232 255
215 232 255
215 232 255
215 232 255
215 232 255
214 232 255
214 232 255
214 232 255
214 232 255
214 232 255
214 232 255
214 232 255
214 232 255
214 232 255
214 232 255
214 232 255
214 232 255
214 232 255
214 232 255
214 231 255
214 231 255
214 231 255
214 231 255
208 227 252
194 216 246
185 210 242
183 208 242
181 208 242
180 207 242
179 206 242
178 206 242
177 205 242
176 205 242
175 204 242
174 204 242
173 203 242
173 203 242
172 203 242
171 202 242
171 202 242
170 202 242
170 201 242
169 201 242
168 201 242
168 200 242
167 200 242
167 200 242
166 200 242
166 199 242
166 199 242
165 199 242
165 199 242
164 199 242
164 198 242
164 198 242
163 198 242
163 198 242
163 198 242
163 198 242
162 197 242
162 197 242
162 197 242
162 197 242
162 197 242
162 197 242
162 197 242
162 197 242
162 197 242
162 197 242
162 197 242
162 197 242
162 198 242
163 198 242
163 198 242
164 198 242
164 198 242
165 199 242
166 199 242
167 200 242
168 200 242
169 201 242
171 202 242
173 203 242
175 204 242
183 209 244
197 219 249
211 229 255
211 230 255
211 230 255
211 230 255
211 230 255
211 230 255
211 230 255
211 230 255
211 230 255
211 230 255
210 230 255
210 230 255
210 230 255
210 229 255
210 229 255
210 229 255
210 229 255
210 229 255
210 229 255
210 229 255
210 229 255
210 229 255
210 229 255
210 229 255
210 229 255
210 229 255
210 229 255
210 229 255
210 229 255
210 229 255
186 209 247
94 140 220
75 129 216
76 131 219
78 132 220
73 125 211
75 128 216
76 130 217
75 129 217
74 128 214
75 129 217
76 130 216
75 129 216
77 131 219
75 128 215
74 128 216
76 129 215
76 130 216
75 128 214
77 131 218
74 127 213
74 127 213
74 128 214
77 131 219
76 129 215
75 129 215
74 128 215
77 131 220
74 127 213
76 130 217
75 129 215
74 127 213
76 130 216
75 129 215
76 130 216
74 128 214
76 129 214
74 127 213
76 129 217
76 129 213
77 131 219
76 131 219
75 128 213
76 129 215
78 132 217
74 127 211
101 143 216
193 215 246
210 229 255
210 229 255
210 229 255
210 229 255
210 229 255
210 229 255
210 229 255
210 229 255
210 229 255
210 229 255
210 229 255
210 229 255
210 229 255
210 229 255
210 229 255
210 229 255
210 229 255
210 229 255
210 230 255
210 230 255
211 230 255
211 230 255
211 230 255
211 230 255
211 230 255
211 230 255
211 230 255
211 230 255
211 230 255
211 229 254
200 213 228
165 156 106
178 169 112
179 171 114
177 170 114
176 170 114
174 169 114
173 168 114
171 168 114
170 167 114
170 167 114
170 167 114
169 167 114
168 166 114
168 166 114
168 166 114
168 166 114
168 166 114
167 166 114
167 166 114
167 166 114
167 166 114
168 166 114
168 166 114
168 166 114
168 166 114
168 166 114
169 166 114
168 166 114
169 167 114
169 167 114
170 167 114
170 167 114
170 167 114
171 167 114
171 167 114
172 168 114
172 168 114
173 168 114
173 168 114
174 169 114
174 169 114
174 169 114
176 169 114
175 169 114
176 169 114
177 170 114
178 170 114
178 170 114
180 171 114
180 171 114
180 172 114
181 172 114
182 172 114
183 173 114
184 173 114
184 173 114
185 173 113
182 170 111
180 168 109
167 154 100
171 166 139
200 213 228
214 231 255
214 231 255
214 231 255
214 231 255
214 232 255
214 232 255
214 232 255
214 232 255
214 232 255
214 232 255
214 232 255
214 232 255
214 232 255
214 232 255
214 232 255
214 232 255
214 232 255
214 232 255
215 232 255
215 232 255
215 232 255
215 232 255
215 232 255
215 232 255
215 232 255
215 232 255
215 232 255
215 232 255
215 232 255
215 232 255
215 232 255
215 232 255
215 232 255
215 232 255
215 232 255
215 232 255
215 232 255
215 232 255
215 232 255
215 232 255
215 232 255
215 232 255
215 232 255
215 232 255
215 232 255
215 232 255
215 232 255
215 232 255
215 232 255
215 232 255
215 232 255
215 232 255
215 232 255
215 232 255
215 232 255
215 232 255
215 232 255
215 232 255
215 232 255
215 232 255
215 232 255
215 232 255
215 232 255
215 232 255
215 232 255
215 232 255
215 232 255
215 232 255
215 232 255
215 232 255
215 232 255
215 232 255
215 232 255
215 232 255
215 232 255
214 232 255
214 232 255
214 232 255
214 232 255
214 232 255
214 232 255
214 232 255
214 232 255
214 232 255
211 229 254
197 218 247
186 210 242
184 209 242
182 208 242
181 208 242
180 207 242
179 206 242
178 206 242
177 205 242
176 205 242
175 204 242
174 204 242
174 204 242
173 203 242
172 203 242
172 202 242
171 202 242
171 202 242
170 202 242
169 201 242
169 201 242
168 201 242
168 200 242
167 200 242
167 200 242
166 200 242
166 199 242
166 199 242
165 199 242
165 199 242
164 199 242
164 198 242
164 198 242
163 198 242
163 198 242
163 198 242
163 198 242
162 197 242
162 197 242
162 197 242
162 197 242
162 197 242
162 197 242
161 197 242
161 197 242
161 197 242
162 197 242
162 197 242
162 197 242
162 197 242
162 197 242
162 198 242
163 198 242
163 198 242
164 198 242
164 199 242
165 199 242
166 199 242
167 200 242
168 201 242
170 202 242
172 202 242
174 204 242
177 205 242
186 211 245
206 226 253
211 230 255
211 230 255
211 230 255
211 230 255
211 230 255
211 230 255
211 230 255
211 230 255
211 230 255
211 230 255
211 230 255
211 230 255
211 230 255
211 230 255
211 230 255
211 230 255
211 230 255
210 230 255
210 230 255
210 229 255
210 229 255
210 229 255
210 229 255
210 229 255
210 229 255
210 229 255
210 229 255
161 188 237
84 136 220
76 129 215
76 130 217
77 131 219
75 128 215
76 130 218
72 125 210
75 130 217
75 128 214
75 129 215
76 130 217
77 131 216
74 127 213
75 129 215
75 129 216
76 129 214
77 130 217
76 129 215
77 130 215
76 129 215
75 129 215
75 129 216
76 129 215
76 131 219
74 127 212
75 129 217
76 130 216
75 128 213
76 130 216
75 127 211
77 132 219
75 127 211
76 130 217
75 129 216
75 128 213
76 130 214
74 127 214
74 128 213
74 127 213
78 131 216
74 126 212
76 128 213
75 128 214
73 124 207
75 129 216
74 128 214
74 126 211
80 131 212
182 206 244
210 229 255
210 229 255
210 229 255
210 229 255
210 229 255
210 229 255
210 229 255
210 230 255
210 230 255
210 230 255
211 230 255
211 230 255
211 230 255
211 230 255
211 230 255
211 230 255
211 230 255
211 230 255
211 230 255
211 230 255
211 230 255
211 230 255
211 230 255
211 230 255
211 230 255
211 230 255
211 230 255
193 204 213
178 176 152
175 165 109
178 171 114
177 170 114
176 170 114
174 169 114
173 168 114
172 168 114
171 167 114
170 167 114
170 167 114
169 167 114
169 166 114
169 166 114
168 166 114
168 166 114
168 166 114
168 166 114
167 166 114
167 166 114
167 166 114
167 166 114
167 166 114
167 166 114
168 166 114
168 166 114
168 166 114
168 166 114
169 166 114
169 166 114
169 167 114
169 167 114
169 167 114
170 167 114
170 167 114
170 167 114
171 168 114
171 167 114
171 167 114
173 168 114
172 168 114
173 168 114
174 169 114
174 169 114
175 169 114
175 169 114
176 170 114
176 170 114
177 170 114
179 171 114
178 170 114
179 171 114
179 171 114
180 172 114
181 172 114
182 172 114
183 173 114
184 173 114
185 173 114
186 174 114
187 174 114
181 169 110
172 160 104
174 161 104
180 183 176
208 224 245
214 232 255
214 232 255
214 232 255
214 232 255
214 232 255
214 232 255
214 232 255
214 232 255
214 232 255
214 232 255
215 232 255
215 232 255
215 232 255
215 232 255
215 232 255
215 232 255
215 232 255
215 232 255
215 232 255
215 232 255
215 232 255
215 232 255
215 232 255
215 232 255
215 232 255
215 232 255
215 232 255
215 232 255
215 232 255
215 232 255
215 232 255
215 232 255
215 232 255
215 232 255
215 232 255
215 232 255
215 232 255
215 232 255
215 232 255
215 232 255
215 232 255
216 232 255
216 232 255
216 232 255
216 232 255
216 232 255
216 232 255
215 232 255
215 232 255
215 232 255
215 232 255
215 232 255
215 232 255
215 232 255
215 232 255
215 232 255
215 232 255
215 232 255
215 232 255
215 232 255
215 232 255
215 232 255
215 232 255
215 232 255
215 232 255
215 232 255
215 232 255
215 232 255
215 232 255
215 232 255
215 232 255
215 232 255
215 232 255
215 232 255
215 232 255
215 232 255
215 232 255
215 232 255
215 232 255
215 232 255
214 232 255
207 226 251
190 213 243
185 210 242
184 209 242
182 208 242
181 208 242
180 207 242
179 206 242
178 206 242
177 205 242
176 205 242
176 205 242
175 204 242
174 204 242
174 203 242
173 203 242
172 203 242
172 202 242
171 202 242
170 202 242
170 201 242
169 201 242
169 201 242
168 201 242
168 200 242
167 200 242
167 200 242
167 200 242
166 199 242
166 199 242
165 199 242
165 199 242
165 199 242
164 198 242
164 198 242
164 198 242
163 198 242
163 198 242
163 198 242
162 198 242
162 197 242
162 197 242
162 197 242
162 197 242
162 197 242
162 197 242
161 197 242
161 197 242
161 197 242
162 197 242
162 197 242
162 197 242
162 197 242
162 197 242
162 198 242
163 198 242
163 198 242
164 198 242
164 198 242
165 199 242
166 199 242
167 200 242
168 200 242
169 201 242
171 202 242
173 203 242
175 205 242
180 207 243
195 218 248
211 230 255
211 230 255
211 230 255
211 230 255
211 230 255
211 230 255
211 230 255
211 230 255
211 230 255
211 230 255
211 230 255
211 230 255
211 230 255
211 230 255
211 230 255
211 230 255
211 230 255
211 230 255
211 230 255
211 230 255
211 230 255
211 230 255
211 230 255
211 230 255
211 230 255
156 185 237
76 130 218
75 129 216
74 128 216
75 129 216
74 128 214
75 128 214
74 128 214
74 127 213
76 129 216
77 130 216
74 127 213
73 125 211
76 129 215
75 129 215
75 127 212
76 131 218
73 126 212
77 131 217
74 128 216
76 131 219
75 129 215
74 126 211
75 128 215
75 128 214
74 127 211
75 128 213
76 130 218
76 129 215
76 129 213
75 128 214
75 128 213
73 126 211
75 129 216
76 129 213
77 131 217
76 130 216
76 130 216
74 127 212
75 129 215
76 129 214
75 129 214
77 131 218
75 129 216
76 129 214
76 129 216
76 129 215
75 127 208
75 127 210
75 127 210
76 128 208
160 187 233
209 228 255
211 230 255
211 230 255
211 230 255
211 230 255
211 230 255
211 230 255
211 230 255
211 230 255
211 230 255
211 230 255
211 230 255
211 230 255
211 230 255
211 230 255
211 230 255
211 230 255
211 230 255
211 230 255
211 230 255
211 230 255
211 230 255
211 230 255
211 230 255
211 229 254
193 198 193
167 158 104
180 170 113
179 171 114
177 170 114
175 169 114
174 169 114
173 168 114
172 168 114
171 167 114
170 167 114
170 167 114
169 167 114
169 166 114
168 166 114
168 166 114
168 166 114
168 166 114
167 166 114
167 166 114
167 166 114
167 166 114
167 166 114
167 166 114
167 166 114
168 166 114
168 166 114
168 166 114
168 166 114
169 166 114
169 166 114
169 166 114
169 167 114
170 167 114
170 167 114
170 167 114
170 167 114
171 167 114
171 167 114
171 168 114
172 168 114
173 168 114
173 168 114
174 169 114
174 168 114
174 169 114
175 169 114
174 169 114
176 169 114
177 170 114
176 170 114
178 170 114
178 170 114
178 171 114
180 171 114
179 171 114
180 172 114
181 172 114
182 172 114
183 173 114
184 173 114
185 174 114
185 174 114
187 175 114
190 176 114
176 163 106
174 161 104
175 165 122
188 198 209
214 232 255
214 232 255
215 232 255
215 232 255
215 232 255
215 232 255
215 232 255
215 232 255
215 232 255
215 232 255
215 232 255
215 232 255
215 232 255
215 232 255
215 232 255
215 232 255
215 232 255
215 232 255
215 232 255
215 232 255
215 232 255
215 232 255
215 232 255
215 232 255
215 232 255
215 232 255
215 232 255
215 232 255
215 232 255
215 232 255
215 232 255
215 232 255
215 232 255
215 232 255
216 232 255
216 232 255
216 232 255
216 232 255
216 232 255
216 232 255
216 233 255
216 232 255
216 232 255
216 232 255
216 232 255
216 232 255
216 232 255
216 232 255
216 232 255
216 232 255
216 232 255
216 232 255
216 232 255
215 232 255
215 232 255
215 232 255
215 232 255
215 232 255
215 232 255
215 232 255
215 232 255
215 232 255
215 232 255
215 232 255
215 232 255
215 232 255
215 232 255
215 232 255
215 232 255
215 232 255
215 232 255
215 232 255
215 232 255
215 232 255
215 232 255
215 232 255
215 232 255
215 232 255
215 232 255
199 220 247
187 211 242
185 210 242
184 209 242
182 208 242
181 208 242
180 207 242
179 207 242
178 206 242
178 206 242
177 205 242
176 205 242
175 204 242
175 204 242
174 204 242
173 203 242
173 203 242
172 203 242
172 202 242
171 202 242
171 202 242
170 202 242
170 201 242
169 201 242
169 201 242
168 201 242
168 200 242
167 200 242
167 200 242
166 200 242
166 199 242
166 199 242
165 199 242
165 199 242
165 199 242
164 198 242
164 198 242
164 198 242
163 198 242
163 198 242
163 198 242
163 198 242
162 197 242
162 197 242
162 197 242
162 197 242
162 197 242
162 197 242
162 197 242
162 197 242
162 197 242
162 197 242
162 197 242
162 197 242
162 197 242
162 197 242
163 198 242
163 198 242
163 198 242
164 198 242
164 199 242
165 199 242
166 199 242
167 200 242
168 200 242
169 201 242
170 202 242
172 203 242
175 204 242
178 206 242
190 214 246
208 228 254
212 230 255
212 230 255
212 230 255
212 230 255
212 230 255
212 230 255
211 230 255
211 230 255
211 230 255
211 230 255
211 230 255
211 230 255
211 230 255
211 230 255
211 230 255
211 230 255
211 230 255
211 230 255
211 230 255
211 230 255
211 230 255
211 230 255
143 175 232
75 128 216
75 128 214
76 130 218
74 128 214
76 130 217
74 127 213
76 129 216
75 128 213
76 129 215
76 129 216
74 126 211
75 128 214
74 127 213
77 131 219
73 125 209
74 127 213
74 127 213
76 130 217
76 129 215
75 128 214
75 129 215
76 130 217
75 129 217
75 129 215
76 130 215
76 130 217
77 131 218
76 129 214
75 129 215
76 129 215
73 126 210
76 130 218
75 128 213
75 128 215
77 131 216
78 132 219
76 129 216
76 129 214
76 129 215
76 128 212
76 129 216
75 128 213
75 129 214
75 127 209
75 128 213
76 129 214
74 127 214
73 125 208
74 127 211
75 128 215
78 132 218
75 127 208
144 173 220
211 230 255
211 230 255
211 230 255
211 230 255
211 230 255
211 230 255
211 230 255
211 230 255
211 230 255
211 230 255
211 230 255
211 230 255
211 230 255
211 230 255
211 230 255
211 230 255
212 230 255
212 230 255
212 230 255
212 230 255
212 230 255
212 230 255
201 215 234
162 157 127
176 166 109
181 172 114
179 171 114
177 170 114
175 169 114
174 169 114
173 168 114
171 167 114
171 167 114
170 167 114
170 167 114
169 167 114
169 166 114
168 166 114
168 166 114
168 166 114
168 166 114
168 166 114
168 166 114
168 166 114
168 166 114
167 166 114
168 166 114
168 166 114
168 166 114
168 166 114
168 166 114
168 166 114
169 166 114
169 166 114
169 167 114
169 166 114
170 167 114
170 167 114
170 167 114
170 167 114
171 167 114
171 168 114
171 167 114
172 168 114
173 168 114
172 168 114
174 169 114
173 168 114
174 169 114
174 169 114
175 169 114
175 169 114
177 170 114
177 170 114
177 170 114
178 170 114
179 171 114
179 171 114
178 171 114
180 171 114
180 171 114
181 172 114
182 172 114
182 172 114
183 173 114
184 173 114
186 174 114
186 174 114
188 175 114
188 175 114
188 174 113
173 160 103
167 153 99
187 191 189
215 232 255
215 232 255
215 232 255
215 232 255
215 232 255
215 232 255
215 232 255
215 232 255
215 232 255
215 232 255
215 232 255
215 232 255
215 232 255
215 232 255
215 232 255
215 232 255
215 232 255
215 232 255
215 232 255
215 232 255
215 232 255
215 232 255
215 232 255
215 232 255
215 232 255
215 232 255
216 232 255
216 232 255
216 232 255
216 232 255
216 232 255
216 232 255
216 232 255
216 232 255
216 232 255
216 232 255
216 232 255
216 233 255
216 233 255
216 233 255
216 233 255
216 233 255
216 233 255
216 233 255
216 233 255
216 233 255
216 233 255
216 233 255
216 232 255
216 232 255
216 232 255
216 232 255
216 232 255
216 232 255
216 232 255
216 232 255
216 232 255
216 232 255
216 232 255
216 232 255
215 232 255
215 232 255
215 232 255
215 232 255
215 232 255
215 232 255
215 232 255
215 232 255
215 232 255
215 232 255
215 232 255
215 232 255
215 232 255
215 232 255
215 232 255
215 232 255
212 229 254
196 217 246
187 211 242
185 210 242
184 209 242
183 208 242
182 208 242
181 207 242
180 207 242
179 206 242
178 206 242
177 206 242
177 205 242
176 205 242
175 204 242
175 204 242
174 204 242
174 203 242
173 203 242
172 203 242
172 203 242
171 202 242
171 202 242
170 202 242
170 201 242
169 201 242
169 201 242
169 201 242
168 201 242
168 200 242
167 200 242
167 200 242
166 200 242
166 199 242
166 199 242
165 199 242
165 199 242
165 199 242
164 199 242
164 198 242
164 198 242
164 198 242
163 198 242
163 198 242
163 198 242
163 198 242
163 198 242
162 197 242
162 197 242
162 197 242
162 197 242
162 197 242
162 197 242
162 197 242
162 197 242
162 197 242
162 197 242
162 198 242
163 198 242
163 198 242
163 198 242
164 198 242
164 198 242
165 199 242
165 199 242
166 199 242
167 200 242
168 200 242
169 201 242
171 202 242
172 203 242
175 204 242
177 206 242
184 210 244
202 223 251
212 230 255
212 230 255
212 230 255
212 230 255
212 230 255
212 230 255
212 230 255
212 230 255
212 230 255
212 230 255
212 230 255
212 230 255
212 230 255
212 230 255
212 230 255
211 230 255
211 230 255
211 230 255
211 230 255
211 230 255
164 191 238
74 127 213
76 130 216
73 124 208
73 126 213
75 129 215
73 126 212
75 127 212
74 127 212
75 128 213
74 128 215
77 130 216
75 128 215
75 128 213
74 127 213
74 127 213
78 131 217
74 126 211
72 124 208
76 130 216
76 129 215
74 127 211
75 128 213
77 131 217
73 125 210
75 128 215
75 128 213
75 127 213
74 126 211
74 127 213
72 123 207
75 127 211
75 128 215
74 128 214
75 128 213
73 127 214
74 127 211
75 128 213
76 130 217
74 127 213
74 126 211
74 127 212
74 126 211
76 130 217
75 127 210
76 129 214
75 127 212
76 129 213
74 126 209
76 130 217
74 125 207
75 128 215
75 128 212
76 129 213
75 126 207
166 192 235
211 230 255
211 230 255
211 230 255
211 230 255
211 230 255
211 230 255
212 230 255
212 230 255
212 230 255
212 230 255
212 230 255
212 230 255
212 230 255
212 230 255
212 230 255
212 230 255
212 230 255
212 230 255
212 230 255
212 230 255
197 211 229
179 171 127
181 171 113
180 171 114
177 170 114
176 170 114
175 169 114
174 169 114
172 168 114
172 168 114
171 168 114
170 167 114
170 167 114
169 167 114
170 167 114
168 166 114
169 166 114
168 166 114
168 166 114
168 166 114
168 166 114
168 166 114
168 166 114
168 166 114
168 166 114
168 166 114
168 166 114
168 166 114
168 166 114
169 166 114
169 167 114
169 167 114
169 167 114
170 167 114
169 167 114
169 167 114
170 167 114
171 167 114
171 167 114
171 168 114
171 167 114
172 168 114
172 168 114
173 168 114
173 168 114
174 169 114
174 169 114
175 169 114
175 169 114
174 169 114
176 169 114
176 170 114
177 170 114
177 170 114
178 170 114
178 170 114
178 170 114
179 171 114
180 171 114
180 171 114
181 172 114
181 172 114
182 172 114
184 173 114
184 173 114
185 173 114
186 174 114
187 174 114
187 175 114
188 175 114
188 174 113
176 163 105
179 165 106
183 179 157
208 223 242
215 232 255
215 232 255
215 232 255
215 232 255
215 232 255
215 232 255
215 232 255
215 232 255
215 232 255
215 232 255
215 232 255
215 232 255
215 232 255
215 232 255
215 232 255
216 232 255
216 232 255
216 232 255
216 232 255
216 232 255
216 232 255
216 232 255
216 232 255
216 232 255
216 232 255
216 232 255
216 232 255
216 233 255
216 233 255
216 233 255
216 233 255
216 233 255
216 233 255
216 233 255
216 233 255
216 233 255
216 233 255
216 233 255
216 233 255
216 233 255
216 233 255
216 233 255
216 233 255
216 233 255
216 233 255
216 233 255
216 233 255
216 233 255
216 233 255
216 233 255
216 233 255
216 233 255
216 233 255
216 233 255
216 233 255
216 232 255
216 232 255
216 232 255
216 232 255
216 232 255
216 232 255
216 232 255
216 232 255
216 232 255
216 232 255
216 232 255
215 232 255
215 232 255
215 232 255
215 232 255
215 232 255
215 232 255
215 232 255
212 230 254
192 214 244
187 211 242
185 210 242
184 209 242
183 209 242
182 208 242
181 208 242
180 207 242
179 207 242
179 206 242
178 206 242
177 206 242
177 205 242
176 205 242
175 205 242
175 204 242
174 204 242
174 204 242
173 203 242
173 203 242
172 203 242
172 202 242
171 202 242
171 202 242
170 202 242
170 201 242
169 201 242
169 201 242
169 201 242
168 201 242
168 200 242
167 200 242
167 200 242
167 200 242
166 200 242
166 199 242
166 199 242
165 199 242
165 199 242
165 199 242
164 199 242
164 198 242
164 198 242
164 198 242
164 198 242
163 198 242
163 198 242
163 198 242
163 198 242
163 198 242
163 198 242
163 198 242
163 198 242
163 198 242
163 198 242
163 198 242
163 198 242
163 198 242
163 198 242
163 198 242
163 198 242
164 198 242
164 198 242
165 199 242
165 199 242
166 199 242
166 200 242
167 200 242
168 201 242
169 201 242
171 202 242
172 203 242
174 204 242
177 205 242
182 209 243
202 222 250
212 231 255
212 231 255
212 231 255
212 231 255
212 230 255
212 230 255
212 230 255
212 230 255
212 230 255
212 230 255
212 230 255
212 230 255
212 230 255
212 230 255
212 230 255
212 230 255
212 230 255
212 230 255
172 197 240
75 129 217
75 128 215
74 127 213
72 124 209
74 128 214
74 127 214
75 129 215
74 127 212
76 130 217
75 128 213
76 130 217
77 130 216
75 128 214
75 127 212
74 128 214
75 128 215
76 129 215
76 130 216
74 127 213
75 128 212
74 127 213
75 128 212
75 128 213
77 130 216
75 128 213
73 125 211
75 129 215
72 125 211
74 127 212
75 128 213
75 128 213
75 128 213
75 128 214
74 127 212
75 128 213
74 127 213
74 126 210
73 126 212
75 128 212
76 129 214
74 126 211
76 130 216
74 127 211
74 127 213
74 126 209
74 127 212
74 126 209
75 127 210
74 126 209
74 126 208
76 129 212
75 128 212
76 128 209
76 130 215
74 126 206
77 129 209
178 201 240
212 230 255
212 230 255
212 230 255
212 230 255
212 230 255
212 230 255
212 230 255
212 230 255
212 230 255
212 230 255
212 230 255
212 230 255
212 230 255
212 230 255
212 231 255
212 231 255
212 231 255
212 231 255
188 197 203
173 162 106
179 169 112
181 172 114
178 170 114
177 170 114
175 169 114
174 169 114
174 169 114
172 168 114
172 168 114
171 167 114
170 167 114
170 167 114
170 167 114
169 167 114
169 167 114
169 166 114
169 166 114
168 166 114
168 166 114
168 166 114
168 166 114
168 166 114
168 166 114
168 166 114
169 166 114
169 166 114
169 166 114
169 166 114
170 167 114
169 167 114
170 167 114
170 167 114
170 167 114
170 167 114
171 167 114
171 167 114
172 168 114
171 168 114
172 168 114
172 168 114
172 168 114
173 168 114
173 168 114
174 169 114
174 169 114
174 169 114
175 169 114
176 169 114
176 169 114
176 170 114
177 170 114
177 170 114
178 170 114
178 171 114
179 171 114
179 171 114
180 171 114
181 172 114
180 172 114
182 172 114
182 172 114
183 172 114
183 173 114
184 173 114
185 174 114
185 174 114
187 174 114
187 174 114
188 175 114
190 176 114
190 176 114
184 169 109
176 162 104
173 165 130
211 224 239
215 232 255
215 232 255
215 232 255
215 232 255
215 232 255
215 232 255
215 232 255
216 232 255
216 232 255
216 232 255
216 232 255
216 232 255
216 232 255
216 232 255
216 232 255
216 232 255
216 232 255
216 232 255
216 233 255
216 233 255
216 233 255
216 233 255
216 233 255
216 233 255
216 233 255
216 233 255
216 233 255
216 233 255
216 233 255
216 233 255
216 233 255
216 233 255
216 233 255
216 233 255
216 233 255
216 233 255
216 233 255
216 233 255
216 233 255
216 233 255
216 233 255
216 233 255
216 233 255
216 233 255
216 233 255
216 233 255
216 233 255
216 233 255
216 233 255
216 233 255
216 233 255
216 233 255
216 233 255
216 233 255
216 233 255
216 233 255
216 233 255
216 233 255
216 233 255
216 233 255
216 233 255
216 233 255
216 233 255
216 232 255
216 232 255
216 232 255
216 232 255
216 232 255
216 232 255
216 232 255
216 232 255
211 229 253
191 213 243
187 211 242
186 210 242
185 210 242
183 209 242
182 208 242
182 208 242
181 207 242
180 207 242
179 207 242
179 206 242
178 206 242
177 206 242
177 205 242
176 205 242
176 205 242
175 204 242
175 204 242
174 204 242
174 204 242
173 203 242
173 203 242
172 203 242
172 202 242
171 202 242
171 202 242
170 202 242
170 202 242
170 201 242
169 201 242
169 201 242
169 201 242
168 201 242
168 200 242
167 200 242
167 200 242
167 200 242
166 200 242
166 199 242
166 199 242
166 199 242
165 199 242
165 199 242
165 199 242
165 199 242
164 199 242
164 198 242
164 198 242
164 198 242
164 198 242
164 198 242
163 198 242
163 198 242
163 198 242
163 198 242
163 198 242
163 198 242
163 198 242
163 198 242
163 198 242
164 198 242
164 198 242
164 198 242
164 199 242
165 199 242
165 199 242
166 199 242
166 200 242
167 200 242
168 200 242
169 201 242
170 201 242
171 202 242
173 203 242
175 204 242
177 205 242
181 207 242
198 220 249
213 231 255
213 231 255
213 231 255
213 231 255
212 231 255
212 231 255
212 231 255
212 231 255
212 231 255
212 231 255
212 231 255
212 231 255
212 231 255
212 231 255
212 230 255
212 230 255
189 211 247
89 136 216
73 126 212
76 130 216
75 129 215
75 128 213
74 128 214
75 128 213
73 126 210
74 127 212
75 128 214
76 130 216
75 127 211
74 128 216
73 126 211
76 129 214
76 130 215
75 127 212
75 128 213
74 127 213
74 126 211
77 130 214
75 128 213
75 128 213
73 124 206
76 130 215
75 128 214
75 128 212
74 127 212
77 130 215
74 126 210
74 125 208
73 126 211
77 131 217
76 129 215
75 128 215
75 128 212
75 129 215
75 129 215
73 126 212
75 128 213
76 129 214
76 129 213
75 127 212
73 124 207
73 125 209
74 127 212
77 130 215
75 128 214
77 131 216
75 127 212
73 126 210
75 129 214
77 129 210
75 127 211
75 127 210
73 124 206
74 126 208
75 128 213
189 211 246
212 230 255
212 230 255
212 231 255
212 231 255
212 231 255
212 231 255
212 231 255
212 231 255
212 231 255
212 231 255
212 231 255
213 231 255
213 231 255
213 231 255
213 231 255
213 231 255
191 197 196
171 160 105
182 172 114
181 172 114
179 171 114
177 170 114
175 169 114
175 169 114
174 169 114
173 168 114
172 168 114
172 168 114
171 167 114
171 167 114
170 167 114
170 167 114
170 167 114
169 166 114
169 167 114
169 167 114
169 167 114
169 166 114
169 167 114
169 166 114
169 167 114
169 167 114
169 166 114
169 167 114
169 167 114
170 167 114
170 167 114
170 167 114
170 167 114
170 167 114
170 167 114
171 167 114
171 167 114
172 168 114
172 168 114
172 168 114
172 168 114
173 168 114
173 168 114
173 168 114
174 169 114
174 169 114
174 169 114
174 169 114
175 169 114
176 169 114
176 169 114
177 170 114
176 170 114
177 170 114
178 170 114
178 170 114
178 171 114
178 171 114
179 171 114
180 171 114
179 171 114
181 172 114
182 172 114
182 172 114
183 173 114
184 173 114
184 173 114
185 173 114
186 174 114
186 174 114
187 175 114
188 175 114
189 175 114
191 176 114
189 175 113
189 175 113
180 165 106
162 153 115
206 220 236
216 232 255
216 232 255
216 232 255
216 232 255
216 232 255
216 232 255
216 232 255
216 232 255
216 232 255
216 233 255
216 233 255
216 233 255
216 233 255
216 233 255
216 233 255
216 233 255
216 233 255
216 233 255
216 233 255
216 233 255
216 233 255
216 233 255
216 233 255
216 233 255
216 233 255
216 233 255
216 233 255
216 233 255
216 233 255
216 233 255
216 233 255
216 233 255
216 233 255
216 233 255
216 233 255
217 233 255
217 233 255
217 233 255
217 233 255
217 233 255
217 233 255
217 233 255
216 233 255
216 233 255
216 233 255
216 233 255
216 233 255
216 233 255
216 233 255
216 233 255
216 233 255
216 233 255
216 233 255
216 233 255
216 233 255
216 233 255
216 233 255
216 233 255
216 233 255
216 233 255
216 233 255
216 233 255
216 233 255
216 233 255
216 233 255
216 233 255
216 233 255
216 233 255
216 233 255
212 230 254
190 213 243
187 211 242
186 210 242
185 210 242
184 209 242
183 209 242
182 208 242
182 208 242
181 207 242
180 207 242
180 207 242
179 206 242
178 206 242
178 206 242
177 205 242
177 205 242
176 205 242
176 205 242
175 204 242
175 204 242
174 204 242
174 204 242
173 203 242
173 203 242
172 203 242
172 203 242
172 202 242
171 202 242
171 202 242
170 202 242
170 202 242
170 201 242
169 201 242
169 201 242
169 201 242
168 201 242
168 200 242
168 200 242
167 200 242
167 200 242
167 200 242
166 200 242
166 199 242
166 199 242
166 199 242
165 199 242
165 199 242
165 199 242
165 199 242
165 199 242
164 199 242
164 199 242
164 198 242
164 198 242
164 198 242
164 198 242
164 198 242
164 198 242
164 198 242
164 198 242
164 198 242
164 198 242
164 199 242
165 199 242
165 199 242
165 199 242
166 199 242
166 199 242
167 200 242
167 200 242
168 200 242
169 201 242
170 201 242
171 202 242
172 203 242
173 203 242
175 204 242
178 206 242
181 208 242
198 219 248
213 231 255
213 231 255
213 231 255
213 231 255
213 231 255
213 231 255
213 231 255
213 231 255
213 231 255
213 231 255
213 231 255
213 231 255
213 231 255
213 231 255
201 220 250
95 138 215
74 127 213
74 128 214
75 129 216
73 125 210
74 128 216
75 128 212
76 129 215
74 127 213
74 127 213
74 127 211
75 127 210
76 128 211
74 127 212
75 127 212
74 125 208
76 128 211
75 127 212
74 127 212
74 126 211
75 127 211
75 128 214
76 129 215
75 127 212
74 127 213
76 128 213
74 127 213
76 128 212
75 130 217
74 127 212
72 124 209
76 129 214
75 127 212
75 129 216
75 128 212
77 130 215
76 129 214
73 125 209
73 126 212
75 127 211
76 130 216
74 126 210
74 126 210
76 130 215
74 127 212
75 128 213
75 127 213
74 127 212
75 128 212
74 128 214
75 128 213
74 126 208
73 125 208
75 127 210
75 127 208
72 123 203
75 126 205
73 125 209
73 124 202
100 141 211
209 228 253
213 231 255
213 231 255
213 231 255
213 231 255
213 231 255
213 231 255
213 231 255
213 231 255
213 231 255
213 231 255
213 231 255
213 231 255
213 231 255
213 231 255
185 188 181
178 167 109
183 173 114
181 172 114
179 171 114
177 170 114
176 170 114
175 169 114
174 169 114
174 169 114
173 168 114
172 168 114
172 168 114
172 168 114
171 167 114
171 167 114
171 167 114
171 167 114
170 167 114
170 167 114
170 167 114
170 167 114
170 167 114
170 167 114
170 167 114
170 167 114
169 167 114
170 167 114
170 167 114
170 167 114
171 167 114
170 167 114
171 167 114
171 167 114
171 168 114
172 168 114
172 168 114
172 168 114
172 168 114
172 168 114
172 168 114
173 168 114
174 169 114
174 169 114
174 169 114
174 169 114
174 169 114
175 169 114
175 169 114
177 170 114
176 170 114
176 170 114
177 170 114
178 170 114
177 170 114
178 171 114
178 170 114
180 172 114
180 171 114
180 171 114
182 172 114
180 172 114
181 172 114
183 173 114
182 172 114
184 173 114
183 173 114
184 173 114
185 174 114
186 174 114
186 174 114
186 174 114
188 175 114
188 175 114
189 175 114
189 176 114
192 177 114
185 170 109
182 168 108
150 140 101
206 215 223
216 233 255
216 233 255
216 233 255
216 233 255
216 233 255
216 233 255
216 233 255
216 233 255
216 233 255
216 233 255
216 233 255
216 233 255
216 233 255
216 233 255
216 233 255
216 233 255
216 233 255
216 233 255
216 233 255
216 233 255
216 233 255
216 233 255
216 233 255
216 233 255
216 233 255
216 233 255
216 233 255
217 233 255
217 233 255
217 233 255
217 233 255
217 233 255
217 233 255
217 233 255
217 233 255
217 233 255
217 233 255
217 233 255
217 233 255
217 233 255
217 233 255
217 233 255
217 233 255
217 233 255
217 233 255
217 233 255
217 233 255
217 233 255
217 233 255
217 233 255
217 233 255
216 233 255
216 233 255
216 233 255
216 233 255
216 233 255
216 233 255
216 233 255
216 233 255
216 233 255
216 233 255
216 233 255
216 233 255
216 233 255
216 233 255
216 233 255
216 233 255
211 229 253
191 213 243
188 212 242
187 211 242
186 210 242
185 210 242
184 209 242
183 209 242
182 208 242
182 208 242
181 208 242
180 207 242
180 207 242
179 207 242
179 206 242
178 206 242
178 206 242
177 205 242
177 205 242
176 205 242
176 205 242
175 204 242
175 204 242
174 204 242
174 204 242
174 203 242
173 203 242
173 203 242
172 203 242
172 203 242
172 202 242
171 202 242
171 202 242
170 202 242
170 202 242
170 201 242
169 201 242
169 201 242
169 201 242
169 201 242
168 201 242
168 200 242
168 200 242
167 200 242
167 200 242
167 200 242
167 200 242
166 200 242
166 199 242
166 199 242
166 199 242
166 199 242
165 199 242
165 199 242
165 199 242
165 199 242
165 199 242
165 199 242
165 199 242
165 199 242
165 199 242
165 199 242
165 199 242
165 199 242
165 199 242
165 199 242
166 199 242
166 199 242
166 199 242
166 200 242
167 200 242
167 200 242
168 200 242
169 201 242
169 201 242
170 202 242
171 202 242
173 203 242
174 204 242
176 205 242
178 206 242
182 208 242
199 220 249
213 231 255
213 231 255
213 231 255
213 231 255
213 231 255
213 231 255
213 231 255
213 231 255
213 231 255
213 231 255
213 231 255
213 231 255
211 230 255
122 159 227
75 128 214
75 128 214
74 126 211
74 128 214
73 126 211
75 129 217
75 129 215
74 127 211
73 126 211
76 129 216
74 126 211
76 129 216
74 126 210
75 127 211
75 128 214
77 130 216
74 126 210
74 127 212
75 127 211
75 128 214
73 125 208
77 130 216
75 128 213
73 125 208
73 125 209
73 125 210
76 129 214
77 131 217
76 128 213
73 124 207
75 128 213
74 127 212
72 124 207
73 126 211
74 127 213
74 126 211
75 127 212
76 129 215
75 128 213
75 129 215
74 126 209
76 127 208
75 127 208
74 126 209
76 129 213
73 124 204
73 126 209
74 125 208
76 129 214
71 122 205
76 128 213
73 124 206
73 124 204
74 126 208
74 126 208
72 123 201
74 125 205
75 126 204
75 125 203
76 127 204
127 159 216
213 231 255
213 231 255
213 231 255
213 231 255
213 231 255
213 231 255
213 231 255
213 231 255
213 231 255
213 231 255
213 231 255
213 231 255
213 231 255
188 194 193
181 169 110
185 174 114
182 172 114
180 171 114
179 171 114
178 170 114
177 170 114
175 169 114
175 169 114
174 169 114
174 168 114
173 168 114
172 168 114
172 168 114
172 168 114
171 168 114
172 168 114
171 167 114
171 167 114
171 167 114
171 167 114
171 168 114
171 167 114
170 167 114
171 167 114
171 167 114
171 167 114
171 167 114
172 168 114
171 167 114
171 168 114
172 168 114
172 168 114
172 168 114
172 168 114
172 168 114
173 168 114
174 169 114
173 168 114
174 169 114
174 169 114
174 169 114
174 169 114
175 169 114
175 169 114
175 169 114
176 169 114
175 169 114
176 170 114
177 170 114
177 170 114
178 170 114
178 170 114
178 170 114
179 171 114
180 171 114
179 171 114
180 171 114
180 171 114
180 172 114
181 172 114
182 172 114
183 173 114
182 172 114
183 172 114
184 173 114
184 173 114
184 173 114
184 173 114
187 174 114
186 174 114
186 174 114
188 175 114
188 175 114
190 176 114
190 176 114
191 176 114
191 176 114
189 174 112
181 166 106
166 153 105
206 218 232
216 233 255
216 233 255
216 233 255
216 233 255
216 233 255
216 233 255
216 233 255
216 233 255
216 233 255
216 233 255
216 233 255
216 233 255
216 233 255
216 233 255
216 233 255
216 233 255
216 233 255
217 233 255
217 233 255
217 233 255
217 233 255
217 233 255
217 233 255
217 233 255
217 233 255
217 233 255
217 233 255
217 233 255
217 233 255
217 233 255
217 233 255
217 233 255
217 233 255
217 233 255
217 233 255
217 233 255
217 233 255
217 233 255
217 233 255
217 233 255
217 233 255
217 233 255
217 233 255
217 233 255
217 233 255
217 233 255
217 233 255
217 233 255
217 233 255
217 233 255
217 233 255
217 233 255
217 233 255
217 233 255
217 233 255
217 233 255
217 233 255
217 233 255
217 233 255
216 233 255
216 233 255
216 233 255
216 233 255
216 233 255
216 233 255
211 228 252
193 215 244
189 212 242
187 211 242
186 211 242
185 210 242
185 210 242
184 209 242
183 209 242
182 208 242
182 208 242
181 208 242
181 207 242
180 207 242
180 207 242
179 206 242
179 206 242
178 206 242
178 206 242
177 205 242
177 205 242
176 205 242
176 205 242
175 204 242
175 204 242
175 204 242
174 204 242
174 204 242
174 203 242
173 203 242
173 203 242
172 203 242
172 203 242
172 202 242
171 202 242
171 202 242
171 202 242
170 202 242
170 202 242
170 201 242
170 201 242
169 201 242
169 201 242
169 201 242
168 201 242
168 201 242
168 200 242
168 200 242
168 200 242
167 200 242
167 200 242
167 200 242
167 200 242
167 200 242
166 200 242
166 200 242
166 199 242
166 199 242
166 199 242
166 199 242
166 199 242
166 199 242
166 199 242
166 199 242
166 199 242
166 199 242
166 200 242
166 200 242
167 200 242
167 200 242
167 200 242
167 200 242
168 200 242
168 201 242
169 201 242
170 201 242
170 202 242
171 202 242
172 203 242
174 203 242
175 204 242
177 205 242
179 207 242
183 208 242
205 224 251
214 231 255
214 231 255
214 231 255
214 231 255
213 231 255
213 231 255
213 231 255
213 231 255
213 231 255
213 231 255
213 231 255
177 200 241
74 127 214
73 126 211
72 125 211
75 128 213
74 127 212
75 127 212
72 124 209
73 126 210
74 126 209
76 129 214
74 126 209
73 124 208
76 129 214
74 126 210
73 125 209
72 124 209
74 128 213
74 127 211
74 127 210
73 125 209
73 125 209
75 127 212
77 130 215
75 128 213
74 126 211
74 126 211
74 127 211
73 125 209
74 125 208
74 126 211
73 124 207
75 128 213
75 127 211
72 123 205
73 125 209
75 128 214
76 128 211
76 129 213
76 129 213
73 126 211
75 128 213
74 126 210
75 127 210
76 130 216
74 127 211
74 127 213
75 127 210
75 127 211
75 127 211
75 128 213
71 122 203
75 127 211
76 128 211
72 124 207
75 127 213
72 123 203
73 125 208
73 124 204
75 127 207
74 125 208
74 125 204
73 125 205
166 191 233
213 231 255
213 231 255
213 231 255
213 231 255
213 231 255
213 231 255
214 231 255
214 231 255
214 231 255
214 231 255
214 231 255
197 206 214
177 165 107
185 173 114
183 173 114
181 172 114
180 171 114
178 170 114
177 170 114
175 169 114
176 170 114
175 169 114
173 168 114
174 169 114
172 168 114
174 169 114
173 168 114
173 168 114
172 168 114
172 168 114
172 168 114
171 167 114
172 168 114
172 168 114
172 168 114
172 168 114
172 168 114
172 168 114
172 168 114
172 168 114
172 168 114
173 168 114
173 168 114
173 168 114
173 168 114
173 168 114
173 168 114
173 168 114
173 168 114
175 169 114
174 169 114
175 169 114
175 169 114
175 169 114
175 169 114
176 170 114
175 169 114
176 169 114
176 169 114
176 169 114
178 170 114
177 170 114
177 170 114
178 170 114
178 171 114
179 171 114
178 170 114
180 171 114
180 171 114
180 171 114
180 171 114
181 172 114
181 172 114
182 172 114
183 173 114
183 173 114
183 173 114
183 173 114
185 174 114
185 173 114
185 173 114
185 174 114
186 174 114
187 175 114
187 175 114
188 175 114
189 175 114
190 176 114
190 176 114
190 176 114
192 177 114
190 175 113
190 175 113
183 167 107
171 161 122
215 230 249
216 233 255
216 233 255
216 233 255
216 233 255
216 233 255
216 233 255
217 233 255
217 233 255
217 233 255
217 233 255
217 233 255
217 233 255
217 233 255
217 233 255
217 233 255
217 233 255
217 233 255
217 233 255
217 233 255
217 233 255
217 233 255
217 233 255
217 233 255
217 233 255
217 233 255
217 233 255
217 233 255
217 233 255
217 233 255
217 233 255
217 233 255
217 233 255
217 233 255
217 233 255
217 233 255
217 233 255
217 233 255
217 233 255
217 233 255
217 233 255
217 233 255
217 233 255
217 233 255
217 233 255
217 233 255
217 233 255
217 233 255
217 233 255
217 233 255
217 233 255
217 233 255
217 233 255
217 233 255
217 233 255
217 233 255
217 233 255
217 233 255
217 233 255
217 233 255
217 233 255
217 233 255
217 233 255
217 233 255
215 232 255
198 218 246
189 212 242
188 212 242
187 211 242
186 210 242
185 210 242
185 210 242
184 209 242
183 209 242
183 208 242
182 208 242
182 208 242
181 208 242
181 207 242
180 207 242
180 207 242
179 207 242
179 206 242
178 206 242
178 206 242
177 206 242
177 205 242
177 205 242
176 205 242
176 205 242
175 204 242
175 204 242
175 204 242
174 204 242
174 204 242
174 204 242
173 203 242
173 203 242
173 203 242
172 203 242
172 203 242
172 202 242
171 202 242
171 202 242
171 202 242
171 202 242
170 202 242
170 202 242
170 201 242
170 201 242
169 201 242
169 201 242
169 201 242
169 201 242
168 201 242
168 201 242
168 200 242
168 200 242
168 200 242
168 200 242
168 200 242
167 200 242
167 200 242
167 200 242
167 200 242
167 200 242
167 200 242
167 200 242
167 200 242
167 200 242
167 200 242
167 200 242
167 200 242
168 200 242
168 200 242
168 200 242
168 201 242
169 201 242
169 201 242
170 201 242
170 202 242
171 202 242
172 202 242
172 203 242
173 203 242
175 204 242
176 205 242
178 206 242
180 207 242
185 210 243
207 226 252
214 231 255
214 231 255
214 231 255
214 231 255
214 231 255
214 231 255
214 231 255
214 231 255
214 231 255
205 224 251
79 130 213
74 127 212
74 125 209
74 126 211
74 127 214
74 126 210
75 128 214
74 127 213
74 126 211
75 127 212
73 126 210
75 127 213
73 125 210
75 128 213
75 128 212
74 126 210
72 123 207
75 127 211
74 126 209
72 124 207
75 127 211
75 127 211
74 126 210
75 128 213
73 125 208
75 128 213
75 127 210
75 128 213
75 128 213
74 127 213
74 125 206
72 125 209
74 125 208
73 126 210
73 124 208
73 125 207
74 126 209
72 124 207
76 129 215
75 128 212
75 127 211
75 128 213
75 128 211
74 125 208
74 127 211
74 125 208
74 125 207
73 125 210
76 128 212
76 130 216
75 128 214
74 126 210
76 128 211
73 124 207
75 127 210
73 124 205
73 124 205
76 129 214
74 125 206
74 125 205
76 129 213
73 123 199
75 126 203
86 129 196
207 226 251
214 231 255
214 231 255
214 231 255
214 231 255
214 231 255
214 231 255
214 231 255
214 231 255
214 231 255
205 216 229
177 165 107
186 174 114
185 173 114
183 172 114
180 171 114
180 171 114
178 171 114
178 171 114
177 170 114
177 170 114
177 170 114
175 169 114
174 169 114
175 169 114
174 169 114
173 168 114
173 168 114
173 168 114
173 168 114
173 168 114
173 168 114
173 168 114
173 168 114
173 168 114
173 168 114
173 168 114
173 168 114
173 168 114
173 168 114
174 169 114
173 168 114
174 169 114
173 168 114
174 169 114
174 169 114
174 169 114
175 169 114
174 169 114
175 169 114
176 170 114
176 169 114
176 170 114
176 169 114
175 169 114
176 170 114
177 170 114
177 170 114
177 170 114
178 170 114
178 170 114
179 171 114
179 171 114
179 171 114
179 171 114
180 171 114
180 171 114
180 172 114
181 172 114
181 172 114
183 173 114
182 172 114
181 172 114
183 173 114
183 173 114
184 173 114
184 173 114
183 173 114
184 173 114
185 174 114
186 174 114
186 174 114
186 174 114
186 174 114
187 175 114
188 175 114
189 175 114
190 176 114
189 175 114
191 176 114
191 176 114
192 177 114
192 176 113
187 172 110
170 156 100
175 168 137
215 231 253
217 233 255
217 233 255
217 233 255
217 233 255
217 233 255
217 233 255
217 233 255
217 233 255
217 233 255
217 233 255
217 233 255
217 233 255
217 233 255
217 233 255
217 233 255
217 233 255
217 233 255
217 233 255
217 233 255
217 233 255
217 233 255
217 233 255
217 233 255
217 233 255
217 233 255
217 233 255
217 233 255
217 233 255
217 233 255
217 233 255
217 233 255
217 233 255
217 233 255
217 233 255
217 233 255
217 233 255
217 233 255
217 233 255
217 233 255
217 233 255
217 233 255
217 233 255
217 233 255
217 233 255
217 233 255
217 233 255
217 233 255
217 233 255
217 233 255
217 233 255
217 233 255
217 233 255
217 233 255
217 233 255
217 233 255
217 233 255
217 233 255
217 233 255
217 233 255
217 233 255
217 233 255
217 233 255
202 221 247
190 213 242
189 212 242
188 211 242
187 211 242
186 210 242
185 210 242
185 210 242
184 209 242
184 209 242
183 209 242
183 208 242
182 208 242
182 208 242
181 208 242
181 207 242
180 207 242
180 207 242
179 207 242
179 206 242
179 206 242
178 206 242
178 206 242
177 206 242
177 205 242
177 205 242
176 205 242
176 205 242
176 205 242
175 204 242
175 204 242
175 204 242
174 204 242
174 204 242
174 204 242
173 203 242
173 203 242
173 203 242
173 203 242
172 203 242
172 203 242
172 202 242
172 202 242
171 202 242
171 202 242
171 202 242
170 202 242
170 202 242
170 202 242
170 201 242
170 201 242
169 201 242
169 201 242
169 201 242
169 201 242
169 201 242
169 201 242
169 201 242
169 201 242
168 201 242
168 201 242
168 201 242
168 201 242
168 201 242
168 201 242
168 201 242
168 201 242
168 201 242
169 201 242
169 201 242
169 201 242
169 201 242
169 201 242
170 201 242
170 201 242
170 202 242
171 202 242
171 202 242
172 203 242
173 203 242
174 203 242
175 204 242
176 205 242
177 206 242
179 207 242
182 208 242
189 213 244
212 230 254
214 232 255
214 232 255
214 232 255
214 232 255
214 232 255
214 232 255
214 232 255
214 232 255
144 173 228
72 125 212
76 130 216
72 124 208
74 127 213
72 125 210
73 125 207
74 127 213
74 127 213
74 126 211
75 127 212
74 125 209
74 127 211
75 128 214
73 125 208
74 127 213
74 125 210
75 128 214
74 126 210
75 127 211
75 127 211
75 127 210
72 123 205
74 127 211
72 123 206
74 126 209
73 124 207
72 124 207
76 128 211
76 129 213
74 126 211
73 124 207
75 127 211
74 126 210
75 127 211
74 126 211
74 127 213
76 129 215
75 128 213
75 128 212
74 126 211
73 125 209
73 124 204
74 125 208
74 126 209
76 129 213
75 127 211
72 123 205
73 126 211
74 127 211
74 125 206
74 126 207
75 128 213
73 125 209
73 125 209
74 126 209
76 129 213
73 125 205
74 126 209
74 123 197
74 125 206
73 124 204
72 123 202
72 121 196
73 124 201
123 156 211
214 232 255
214 232 255
214 232 255
214 232 255
214 232 255
214 232 255
214 232 255
214 232 255
208 223 244
181 170 122
188 175 114
184 173 114
183 173 114
182 172 114
180 171 114
179 171 114
179 171 114
178 170 114
177 170 114
177 170 114
176 170 114
176 170 114
176 170 114
175 169 114
175 169 114
175 169 114
174 169 114
174 169 114
174 169 114
174 169 114
174 169 114
175 169 114
174 169 114
173 168 114
174 169 114
174 169 114
174 169 114
175 169 114
174 169 114
174 169 114
176 169 114
174 169 114
175 169 114
175 169 114
175 169 114
176 169 114
176 169 114
176 169 114
176 170 114
177 170 114
176 169 114
177 170 114
177 170 114
177 170 114
177 170 114
177 170 114
178 170 114
180 171 114
178 171 114
179 171 114
179 171 114
180 171 114
180 171 114
180 171 114
181 172 114
182 172 114
181 172 114
181 172 114
182 172 114
182 172 114
182 172 114
183 172 114
183 173 114
184 173 114
184 173 114
184 173 114
185 173 114
185 174 114
187 174 114
187 174 114
186 174 114
186 174 114
187 175 114
188 175 114
188 175 114
189 175 114
190 176 114
190 176 114
191 176 114
191 176 114
192 177 114
193 177 114
192 176 113
190 174 111
175 160 102
179 178 167
217 233 255
217 233 255
217 233 255
217 233 255
217 233 255
217 233 255
217 233 255
217 233 255
217 233 255
217 233 255
217 233 255
217 233 255
217 233 255
217 233 255
217 233 255
217 233 255
217 233 255
217 233 255
217 233 255
217 233 255
217 233 255
217 233 255
217 233 255
217 233 255
217 233 255
217 233 255
217 233 255
217 233 255
217 233 255
217 233 255
217 233 255
218 234 255
218 234 255
218 234 255
218 234 255
218 233 255
218 233 255
218 233 255
218 233 255
218 233 255
218 233 255
217 233 255
217 233 255
217 233 255
217 233 255
217 233 255
217 233 255
217 233 255
217 233 255
217 233 255
217 233 255
217 233 255
217 233 255
217 233 255
217 233 255
217 233 255
217 233 255
217 233 255
217 233 255
217 233 255
217 233 255
210 228 252
191 213 242
190 212 242
189 212 242
188 211 242
187 211 242
186 211 242
186 210 242
185 210 242
185 210 242
184 209 242
184 209 242
183 209 242
183 208 242
182 208 242
182 208 242
181 208 242
181 207 242
181 207 242
180 207 242
180 207 242
179 207 242
179 206 242
179 206 242
178 206 242
178 206 242
178 206 242
177 206 242
177 205 242
177 205 242
176 205 242
176 205 242
176 205 242
175 204 242
175 204 242
175 204 242
175 204 242
174 204 242
174 204 242
174 204 242
174 203 242
173 203 242
173 203 242
173 203 242
172 203 242
172 203 242
172 203 242
172 202 242
172 202 242
171 202 242
171 202 242
171 202 242
171 202 242
171 202 242
170 202 242
170 202 242
170 202 242
170 202 242
170 201 242
170 201 242
170 201 242
170 201 242
170 201 242
170 201 242
169 201 242
169 201 242
170 201 242
170 201 242
170 201 242
170 201 242
170 201 242
170 201 242
170 202 242
170 202 242
171 202 242
171 202 242
171 202 242
172 202 242
172 203 242
173 203 242
173 203 242
174 204 242
175 204 242
176 205 242
177 205 242
179 206 242
181 207 242
183 209 242
194 216 245
215 232 255
215 232 255
215 232 255
215 232 255
215 232 255
215 232 255
215 232 255
191 212 247
74 128 216
72 123 208
75 127 212
71 123 207
73 126 210
74 127 211
73 125 209
75 127 211
74 127 211
74 127 213
73 126 211
74 127 212
74 128 213
75 127 211
73 125 208
74 127 213
74 127 212
74 126 210
74 126 210
74 126 209
74 125 207
74 127 210
73 124 207
71 122 204
72 123 205
74 126 211
74 125 208
74 126 210
76 129 213
74 125 209
75 127 213
73 126 211
76 128 211
73 125 209
74 126 209
74 126 210
77 130 215
75 128 212
73 124 205
73 125 209
74 125 208
74 126 211
75 128 212
73 125 206
74 126 210
72 123 205
75 127 212
73 125 207
77 130 213
76 128 211
76 129 213
76 129 212
74 126 210
75 127 209
75 128 213
75 127 209
74 127 211
74 127 210
74 124 203
75 127 210
71 122 204
73 123 202
74 124 201
74 125 204
73 122 197
77 126 202
196 216 247
214 232 255
215 232 255
215 232 255
215 232 255
215 232 255
215 232 255
213 230 253
183 181 163
189 175 114
185 174 114
184 173 114
183 173 114
182 172 114
181 172 114
180 171 114
179 171 114
178 170 114
178 170 114
177 170 114
177 170 114
177 170 114
177 170 114
176 170 114
176 170 114
176 170 114
176 170 114
175 169 114
175 169 114
176 170 114
175 169 114
175 169 114
176 169 114
175 169 114
175 169 114
176 169 114
175 169 114
176 170 114
176 170 114
176 169 114
176 170 114
176 170 114
176 169 114
176 170 114
176 169 114
177 170 114
177 170 114
177 170 114
177 170 114
178 170 114
177 170 114
178 171 114
178 171 114
178 171 114
178 170 114
179 171 114
179 171 114
179 171 114
180 171 114
181 172 114
181 172 114
180 171 114
181 172 114
181 172 114
182 172 114
181 172 114
182 172 114
182 172 114
182 172 114
184 173 114
182 172 114
184 173 114
183 173 114
185 174 114
185 174 114
186 174 114
187 174 114
187 174 114
187 174 114
187 174 114
188 175 114
188 175 114
189 175 114
188 175 114
190 176 114
190 176 114
190 176 114
191 176 114
191 177 114
191 176 114
193 177 114
192 177 114
193 177 114
191 175 112
185 169 108
175 160 102
186 192 197
217 233 255
217 233 255
217 233 255
217 233 255
217 233 255
217 233 255
217 233 255
217 233 255
217 233 255
217 233 255
217 233 255
217 233 255
217 233 255
217 233 255
217 233 255
217 233 255
217 233 255
217 233 255
217 233 255
217 233 255
218 233 255
218 233 255
218 233 255
218 233 255
218 233 255
218 233 255
218 233 255
218 234 255
218 234 255
218 234 255
218 234 255
218 234 255
218 234 255
218 234 255
218 234 255
218 234 255
218 234 255
218 234 255
218 234 255
218 234 255
218 234 255
218 234 255
218 234 255
218 234 255
218 234 255
218 234 255
218 233 255
218 233 255
218 233 255
218 233 255
218 233 255
218 233 255
217 233 255
217 233 255
217 233 255
217 233 255
217 233 255
217 233 255
217 233 255
214 231 254
193 214 243
191 213 242
189 212 242
189 212 242
188 211 242
187 211 242
187 211 242
186 210 242
186 210 242
185 210 242
184 210 242
184 209 242
184 209 242
183 209 242
183 209 242
182 208 242
182 208 242
182 208 242
181 208 242
181 207 242
181 207 242
180 207 242
180 207 242
180 207 242
179 207 242
179 206 242
179 206 242
178 206 242
178 206 242
178 206 242
177 206 242
177 205 242
177 205 242
177 205 242
176 205 242
176 205 242
176 205 242
175 205 242
175 204 242
175 204 242
175 204 242
174 204 242
174 204 242
174 204 242
174 203 242
174 203 242
173 203 242
173 203 242
173 203 242
173 203 242
172 203 242
172 203 242
172 203 242
172 203 242
172 203 242
172 202 242
172 202 242
171 202 242
171 202 242
171 202 242
171 202 242
171 202 242
171 202 242
171 202 242
171 202 242
171 202 242
171 202 242
171 202 242
171 202 242
171 202 242
171 202 242
171 202 242
171 202 242
171 202 242
172 202 242
172 203 242
172 203 242
173 203 242
173 203 242
174 203 242
174 204 242
175 204 242
175 204 242
176 205 242
177 206 242
179 206 242
180 207 242
182 208 242
185 210 242
204 223 250
215 232 255
215 232 255
215 232 255
215 232 255
215 232 255
215 232 255
137 168 227
72 124 209
75 128 213
73 125 210
73 125 208
73 125 209
73 126 211
72 124 208
75 128 213
76 129 212
73 125 210
73 124 207
74 127 210
75 128 214
72 123 206
73 124 207
75 127 211
74 126 211
74 126 210
73 126 211
74 127 212
73 125 209
74 127 212
75 128 212
74 126 211
75 128 213
73 125 210
73 125 208
74 125 208
74 125 206
75 128 212
73 125 210
74 127 211
76 129 214
74 125 208
73 125 207
73 124 206
74 125 209
74 126 208
73 126 211
74 126 209
74 126 210
70 120 201
74 126 211
73 125 210
75 127 210
75 127 209
74 125 209
74 126 208
75 128 211
75 127 212
75 127 210
72 122 202
75 128 211
75 126 207
73 124 203
72 122 202
75 128 212
74 125 204
74 124 202
72 121 196
74 125 205
75 126 205
70 119 194
74 125 206
73 122 197
72 122 200
154 178 218
215 232 255
215 232 255
215 232 255
215 232 255
215 232 255
215 232 255
198 204 207
185 171 110
188 175 114
187 174 114
184 173 114
183 172 114
183 173 114
181 172 114
180 171 114
180 171 114
180 171 114
178 171 114
178 171 114
178 170 114
178 171 114
178 170 114
177 170 114
177 170 114
176 169 114
178 170 114
176 170 114
176 170 114
177 170 114
177 170 114
176 170 114
177 170 114
178 170 114
177 170 114
176 170 114
178 170 114
177 170 114
178 170 114
177 170 114
178 170 114
177 170 114
177 170 114
178 170 114
179 171 114
179 171 114
178 171 114
179 171 114
179 171 114
180 171 114
179 171 114
179 171 114
180 171 114
180 171 114
180 171 114
180 171 114
181 172 114
181 172 114
181 172 114
181 172 114
182 172 114
182 172 114
183 172 114
183 173 114
184 173 114
184 173 114
184 173 114
183 173 114
185 173 114
184 173 114
185 173 114
185 173 114
185 174 114
186 174 114
185 174 114
187 175 114
187 175 114
186 174 114
188 175 114
187 175 114
188 175 114
189 175 114
189 175 114
189 176 114
191 176 114
190 176 114
191 176 114
190 176 114
192 177 114
190 176 114
193 177 114
193 177 114
194 178 114
196 178 114
190 174 111
188 171 109
168 155 109
213 227 246
217 233 255
217 233 255
217 233 255
217 233 255
217 233 255
217 233 255
217 233 255
218 233 255
218 233 255
218 233 255
218 233 255
218 233 255
218 233 255
218 233 255
218 234 255
218 234 255
218 234 255
218 234 255
218 234 255
218 234 255
218 234 255
218 234 255
218 234 255
218 234 255
218 234 255
218 234 255
218 234 255
218 234 255
218 234 255
218 234 255
218 234 255
218 234 255
218 234 255
218 234 255
218 234 255
218 234 255
218 234 255
218 234 255
218 234 255
218 234 255
218 234 255
218 234 255
218 234 255
218 234 255
218 234 255
218 234 255
218 234 255
218 234 255
218 234 255
218 234 255
218 234 255
218 234 255
218 234 255
218 234 255
218 234 255
218 234 255
218 234 255
218 233 255
200 220 246
191 213 242
190 213 242
189 212 242
189 212 242
188 212 242
187 211 242
187 211 242
186 211 242
186 210 242
185 210 242
185 210 242
185 210 242
184 209 242
184 209 242
183 209 242
183 209 242
183 209 242
182 208 242
182 208 242
182 208 242
181 208 242
181 208 242
181 207 242
180 207 242
180 207 242
180 207 242
180 207 242
179 207 242
179 206 242
179 206 242
178 206 242
178 206 242
178 206 242
178 206 242
177 206 242
177 205 242
177 205 242
177 205 242
176 205 242
176 205 242
176 205 242
176 205 242
175 204 242
175 204 242
175 204 242
175 204 242
175 204 242
174 204 242
174 204 242
174 204 242
174 204 242
174 204 242
174 203 242
173 203 242
173 203 242
173 203 242
173 203 242
173 203 242
173 203 242
173 203 242
173 203 242
172 203 242
172 203 242
172 203 242
172 203 242
172 203 242
172 203 242
172 203 242
172 203 242
172 203 242
172 203 242
173 203 242
173 203 242
173 203 242
173 203 242
173 203 242
173 203 242
174 204 242
174 204 242
175 204 242
175 204 242
176 205 242
176 205 242
177 205 242
178 206 242
179 206 242
180 207 242
182 208 242
184 209 242
190 213 243
214 231 255
215 232 255
215 232 255
215 232 255
215 232 255
205 223 251
76 126 211
71 123 208
73 125 209
75 127 212
72 124 208
74 127 213
74 127 212
74 127 212
74 126 210
72 123 206
73 125 208
75 127 211
74 125 208
73 125 208
73 125 209
76 128 210
75 127 210
76 128 213
73 125 208
75 128 212
73 124 206
74 126 211
75 127 212
75 127 211
75 128 213
72 123 204
73 124 206
75 126 209
73 126 211
75 128 211
73 126 210
74 126 210
73 125 209
74 126 209
74 126 209
73 124 208
73 124 206
73 125 208
72 124 205
76 128 213
74 125 208
72 123 206
76 128 213
73 124 205
74 126 210
75 127 211
74 126 209
75 128 212
74 126 208
71 122 204
73 126 210
74 127 211
75 126 206
74 125 207
75 127 211
76 128 211
74 126 210
73 124 206
74 125 207
71 122 202
74 124 199
74 124 203
74 124 202
72 122 200
72 120 192
75 123 195
71 120 193
76 122 192
200 219 248
215 232 255
215 232 255
215 232 255
215 232 255
209 223 239
177 165 116
189 176 114
187 175 114
186 174 114
185 173 114
184 173 114
184 173 114
181 171 114
177 169 113
178 170 113
175 168 113
176 168 113
177 169 114
176 169 113
179 171 114
179 171 114
179 171 114
178 170 114
178 170 114
179 171 114
179 171 114
178 171 114
179 171 114
178 170 114
178 171 114
178 171 114
178 171 114
178 171 114
178 170 114
178 170 114
178 171 114
179 171 114
178 170 114
179 171 114
180 171 114
179 171 114
180 171 114
179 171 114
180 171 114
180 171 114
180 171 114
180 171 114
180 171 114
182 172 114
181 172 114
180 171 114
181 172 114
181 172 114
181 172 114
182 172 114
182 172 114
182 172 114
184 173 114
183 173 114
182 172 114
184 173 114
183 173 114
185 173 114
184 173 114
184 173 114
184 173 114
186 174 114
186 174 114
186 174 114
186 174 114
187 175 114
187 174 114
186 174 114
187 175 114
188 175 114
187 175 114
189 175 114
189 176 114
188 175 114
189 175 114
189 175 114
189 175 114
189 176 114
190 176 114
190 176 114
191 176 114
193 177 114
192 177 114
193 177 114
193 177 114
194 178 114
195 178 114
195 178 114
181 165 105
181 165 105
187 185 168
218 233 255
218 234 255
218 234 255
218 234 255
218 234 255
218 234 255
218 234 255
218 234 255
218 234 255
218 234 255
218 234 255
218 234 255
218 234 255
218 234 255
218 234 255
218 234 255
218 234 255
218 234 255
218 234 255
218 234 255
218 234 255
218 234 255
218 234 255
218 234 255
218 234 255
218 234 255
218 234 255
218 234 255
218 234 255
218 234 255
218 234 255
218 234 255
218 234 255
218 234 255
218 234 255
218 234 255
218 234 255
218 234 255
218 234 255
218 234 255
218 234 255
218 234 255
218 234 255
218 234 255
218 234 255
218 234 255
218 234 255
218 234 255
218 234 255
218 234 255
218 234 255
218 234 255
218 234 255
218 234 255
218 234 255
218 234 255
218 234 255
212 229 252
192 214 242
191 213 242
190 213 242
190 212 242
189 212 242
188 212 242
188 211 242
187 211 242
187 211 242
186 211 242
186 210 242
186 210 242
185 210 242
185 210 242
185 210 242
184 209 242
184 209 242
184 209 242
183 209 242
183 209 242
183 208 242
182 208 242
182 208 242
182 208 242
181 208 242
181 208 242
181 208 242
181 207 242
180 207 242
180 207 242
180 207 242
180 207 242
179 207 242
179 206 242
179 206 242
179 206 242
178 206 242
178 206 242
178 206 242
178 206 242
177 206 242
177 205 242
177 205 242
177 205 242
177 205 242
176 205 242
176 205 242
176 205 242
176 205 242
176 205 242
175 204 242
175 204 242
175 204 242
175 204 242
175 204 242
175 204 242
174 204 242
174 204 242
174 204 242
174 204 242
174 204 242
174 204 242
174 204 242
174 204 242
174 204 242
174 204 242
174 204 242
174 204 242
174 203 242
174 203 242
174 204 242
174 204 242
174 204 242
174 204 242
174 204 242
174 204 242
174 204 242
175 204 242
175 204 242
175 204 242
176 205 242
176 205 242
176 205 242
177 205 242
178 206 242
178 206 242
179 207 242
180 207 242
182 208 242
183 209 242
186 210 242
201 221 248
216 232 255
216 232 255
216 232 255
216 232 255
150 178 231
70 122 206
71 123 207
75 127 211
74 127 212
73 125 210
73 125 209
71 122 205
74 126 209
73 126 212
72 123 207
73 125 208
75 128 213
73 125 207
74 126 212
74 127 211
72 124 207
75 126 209
72 124 208
73 125 209
74 128 214
74 126 209
74 126 209
74 126 209
73 125 210
72 123 204
73 124 205
72 124 207
72 121 202
76 128 212
73 124 206
72 123 206
74 126 210
73 124 206
73 125 207
75 126 209
73 125 208
74 127 211
71 123 207
72 124 207
74 126 209
70 120 202
75 126 209
75 127 210
73 125 208
73 125 210
74 125 207
74 125 206
71 122 203
75 127 210
72 123 205
73 124 207
74 126 207
71 122 203
73 124 204
72 123 205
73 124 205
72 123 202
74 125 205
71 121 200
73 124 205
74 125 207
72 123 204
73 124 205
75 127 208
72 119 190
71 118 188
72 119 190
72 121 194
171 195 234
216 232 255
216 232 255
216 232 255
216 232 255
180 180 169
191 176 114
191 176 114
188 175 114
186 174 114
185 174 114
180 170 113
172 164 111
165 160 110
164 159 110
158 155 108
164 159 109
164 159 110
168 163 111
170 164 112
173 166 112
177 169 114
181 172 114
180 171 114
179 171 114
179 171 114
180 171 114
180 171 114
179 171 114
180 171 114
179 171 114
179 171 114
180 171 114
179 171 114
179 171 114
180 171 114
180 171 114
180 171 114
181 172 114
181 172 114
181 172 114
182 172 114
181 172 114
181 172 114
181 172 114
181 172 114
182 172 114
181 172 114
182 172 114
182 172 114
183 173 114
182 172 114
183 173 114
183 173 114
183 173 114
184 173 114
182 172 114
183 173 114
184 173 114
182 172 114
185 174 114
184 173 114
185 173 114
184 173 114
184 173 114
186 174 114
185 174 114
186 174 114
187 174 114
188 175 114
188 175 114
187 174 114
187 175 114
189 175 114
188 175 114
189 176 114
189 176 114
189 176 114
188 175 114
190 176 114
189 175 114
190 176 114
190 176 114
191 176 114
192 177 114
191 176 114
191 177 114
193 177 114
193 177 114
194 178 114
194 178 114
193 177 114
195 178 114
196 179 114
196 178 114
188 171 109
163 148 94
197 206 218
218 234 255
218 234 255
218 234 255
218 234 255
218 234 255
218 234 255
218 234 255
218 234 255
218 234 255
218 234 255
218 234 255
218 234 255
218 234 255
218 234 255
218 234 255
218 234 255
218 234 255
218 234 255
218 234 255
218 234 255
218 234 255
218 234 255
218 234 255
218 234 255
218 234 255
218 234 255
218 234 255
218 234 255
218 234 255
218 234 255
218 234 255
218 234 255
218 234 255
218 234 255
218 234 255
218 234 255
218 234 255
218 234 255
218 234 255
218 234 255
218 234 255
218 234 255
218 234 255
218 234 255
218 234 255
218 234 255
218 234 255
218 234 255
218 234 255
218 234 255
218 234 255
218 234 255
218 234 255
218 234 255
218 234 255
218 234 255
200 220 246
192 214 242
191 213 242
190 213 242
190 213 242
189 212 242
189 212 242
188 212 242
188 211 242
187 211 242
187 211 242
187 211 242
186 211 242
186 210 242
186 210 242
185 210 242
185 210 242
185 210 242
184 209 242
184 209 242
184 209 242
184 209 242
183 209 242
183 209 242
183 209 242
182 208 242
182 208 242
182 208 242
182 208 242
181 208 242
181 208 242
181 208 242
181 207 242
181 207 242
180 207 242
180 207 242
180 207 242
180 207 242
179 207 242
179 207 242
179 206 242
179 206 242
179 206 242
178 206 242
178 206 242
178 206 242
178 206 242
177 206 242
177 206 242
177 205 242
177 205 242
177 205 242
177 205 242
177 205 242
176 205 242
176 205 242
176 205 242
176 205 242
176 205 242
176 205 242
176 205 242
176 205 242
176 205 242
175 204 242
175 204 242
175 204 242
175 204 242
175 204 242
175 204 242
175 204 242
175 204 242
175 204 242
175 204 242
175 204 242
175 204 242
176 205 242
176 205 242
176 205 242
176 205 242
176 205 242
177 205 242
177 205 242
177 205 242
177 206 242
178 206 242
179 206 242
179 207 242
180 207 242
181 207 242
182 208 242
183 209 242
185 210 242
188 212 242
213 230 254
216 233 255
216 233 255
214 231 255
94 139 217
72 123 207
72 124 207
71 122 204
71 121 203
72 124 209
73 125 209
74 126 211
73 125 209
75 127 210
76 128 211
77 129 214
71 122 204
73 124 207
72 122 202
72 123 204
74 126 210
72 124 208
74 126 210
72 124 206
75 128 212
74 125 207
72 124 207
71 123 206
75 127 210
71 121 201
74 125 207
71 122 204
72 123 205
74 125 205
74 126 209
70 121 203
74 125 207
74 126 209
73 124 207
74 125 207
75 127 209
73 124 206
74 126 209
72 123 206
71 122 204
76 128 213
72 123 206
75 126 208
75 128 211
72 124 208
73 123 203
76 128 212
74 125 208
75 127 210
73 124 206
72 123 204
73 124 205
76 128 211
75 127 211
73 124 205
73 124 205
72 122 202
73 123 203
73 124 207
74 124 204
72 124 207
73 124 203
73 123 202
71 119 193
73 123 202
73 122 197
72 121 197
72 118 186
89 131 199
216 233 255
216 233 255
216 233 255
205 217 232
184 170 112
192 177 114
190 176 114
188 175 114
181 170 112
164 158 109
169 162 111
163 157 106
146 145 103
146 145 104
144 144 104
147 147 105
146 147 106
167 161 109
159 155 106
159 156 110
173 166 111
181 172 114
181 172 114
182 172 114
181 172 114
182 172 114
181 172 114
181 172 114
181 172 114
181 172 114
180 172 114
181 172 114
182 172 114
183 173 114
182 172 114
180 171 114
181 172 114
181 172 114
182 172 114
183 173 114
183 173 114
182 172 114
183 173 114
183 173 114
182 172 114
182 172 114
183 173 114
184 173 114
184 173 114
184 173 114
184 173 114
184 173 114
184 173 114
184 173 114
185 174 114
185 173 114
186 174 114
186 174 114
185 174 114
185 173 114
186 174 114
186 174 114
186 174 114
186 174 114
187 175 114
188 175 114
186 174 114
187 175 114
188 175 114
188 175 114
188 175 114
189 175 114
189 175 114
189 175 114
190 176 114
191 176 114
190 176 114
189 176 114
190 176 114
190 176 114
190 176 114
191 176 114
192 177 114
193 177 114
193 177 114
192 177 114
193 177 114
194 178 114
195 178 114
194 178 114
196 178 114
194 178 114
197 179 114
197 179 114
188 170 108
169 153 98
182 175 147
218 234 255
218 234 255
218 234 255
218 234 255
218 234 255
218 234 255
218 234 255
218 234 255
218 234 255
218 234 255
218 234 255
218 234 255
218 234 255
218 234 255
218 234 255
218 234 255
218 234 255
218 234 255
218 234 255
218 234 255
218 234 255
218 234 255
218 234 255
218 234 255
218 234 255
218 234 255
218 234 255
218 234 255
219 234 255
219 234 255
219 234 255
219 234 255
219 234 255
219 234 255
219 234 255
219 234 255
219 234 255
219 234 255
219 234 255
219 234 255
219 234 255
218 234 255
218 234 255
218 234 255
218 234 255
218 234 255
218 234 255
218 234 255
218 234 255
218 234 255
218 234 255
218 234 255
218 234 255
218 234 255
218 234 255
213 230 253
193 214 242
192 214 242
191 213 242
191 213 242
190 213 242
190 212 242
189 212 242
189 212 242
188 212 242
188 212 242
188 211 242
187 211 242
187 211 242
187 211 242
186 211 242
186 210 242
186 210 242
186 210 242
185 210 242
185 210 242
185 210 242
184 209 242
184 209 242
184 209 242
184 209 242
184 209 242
183 209 242
183 209 242
183 209 242
183 208 242
182 208 242
182 208 242
182 208 242
182 208 242
181 208 242
181 208 242
181 208 242
181 207 242
181 207 242
180 207 242
180 207 242
180 207 242
180 207 242
180 207 242
180 207 242
179 207 242
179 207 242
179 206 242
179 206 242
179 206 242
179 206 242
178 206 242
178 206 242
178 206 242
178 206 242
178 206 242
178 206 242
178 206 242
177 206 242
177 206 242
177 205 242
177 205 242
177 205 242
177 205 242
177 205 242
177 205 242
177 205 242
177 205 242
177 205 242
177 205 242
177 205 242
177 205 242
177 205 242
177 205 242
177 205 242
177 205 242
177 205 242
177 205 242
177 206 242
170 199 239
138 171 227
114 152 219
90 134 212
104 145 217
106 145 214
142 174 227
167 195 237
181 207 242
182 208 242
183 208 242
184 209 242
185 210 242
187 211 242
199 219 246
216 233 255
216 233 255
181 202 240
73 126 211
69 118 200
71 123 206
72 124 207
73 124 207
75 127 211
73 125 210
73 126 210
72 123 205
73 125 207
71 122 204
73 124 205
72 123 205
73 124 206
72 123 205
74 127 211
72 123 206
73 125 207
74 125 209
71 122 205
75 127 209
74 126 211
74 125 208
77 129 212
73 124 208
73 125 209
73 124 206
72 123 205
75 127 209
75 127 211
74 126 209
72 123 206
73 124 207
73 124 207
75 127 211
73 125 207
72 124 208
73 124 206
71 121 201
74 126 209
70 120 200
73 125 208
73 124 207
75 127 209
74 126 209
74 125 207
72 122 204
73 124 206
72 122 202
73 124 208
72 122 203
73 124 204
74 125 209
72 123 204
73 125 207
73 124 207
74 125 206
74 125 205
74 124 203
74 122 197
72 122 198
72 122 201
73 123 201
71 121 200
72 121 197
71 118 189
76 128 211
72 119 190
71 120 193
72 119 191
185 205 237
216 233 255
216 233 255
188 187 171
190 175 113
191 177 114
190 176 114
185 172 112
170 162 110
149 146 102
149 146 103
157 153 107
140 141 101
133 135 99
139 141 102
140 142 103
142 143 104
155 152 107
161 158 110
167 161 110
160 156 109
165 161 111
172 165 112
181 171 114
183 173 114
183 172 114
183 173 114
182 172 114
182 172 114
183 173 114
183 172 114
182 172 114
182 172 114
183 173 114
182 172 114
183 172 114
183 173 114
184 173 114
183 173 114
184 173 114
183 173 114
184 173 114
184 173 114
184 173 114
185 174 114
184 173 114
184 173 114
184 173 114
185 174 114
185 174 114
185 173 114
185 174 114
185 173 114
186 174 114
186 174 114
186 174 114
186 174 114
187 174 114
186 174 114
187 174 114
187 175 114
187 174 114
187 175 114
187 175 114
188 175 114
188 175 114
187 175 114
188 175 114
188 175 114
190 176 114
189 176 114
189 176 114
190 176 114
190 176 114
189 176 114
191 176 114
192 177 114
190 176 114
191 176 114
193 177 114
192 177 114
192 177 114
192 177 114
192 177 114
193 177 114
194 178 114
193 177 114
192 177 114
194 178 114
195 178 114
196 179 114
196 179 114
195 178 114
197 179 114
194 176 112
184 167 106
167 151 96
208 218 230
218 234 255
218 234 255
218 234 255
218 234 255
218 234 255
218 234 255
218 234 255
218 234 255
218 234 255
218 234 255
218 234 255
218 234 255
218 234 255
219 234 255
219 234 255
219 234 255
219 234 255
219 234 255
219 234 255
219 234 255
219 234 255
219 234 255
219 234 255
219 234 255
219 234 255
219 234 255
219 234 255
219 234 255
219 234 255
219 234 255
219 234 255
219 234 255
219 234 255
219 234 255
219 234 255
219 234 255
219 234 255
219 234 255
219 234 255
219 234 255
219 234 255
219 234 255
219 234 255
219 234 255
219 234 255
219 234 255
219 234 255
219 234 255
219 234 255
219 234 255
219 234 255
219 234 255
219 234 255
219 234 255
201 221 246
193 214 242
192 214 242
192 214 242
191 213 242
191 213 242
190 213 242
190 212 242
189 212 242
189 212 242
189 212 242
188 212 242
188 212 242
188 211 242
188 211 242
187 211 242
187 211 242
187 211 242
186 211 242
186 210 242
186 210 242
186 210 242
185 210 242
185 210 242
185 210 242
185 210 242
185 210 242
184 209 242
184 209 242
184 209 242
184 209 242
183 209 242
183 209 242
183 209 242
183 209 242
183 208 242
183 208 242
182 208 242
182 208 242
182 208 242
182 208 242
182 208 242
181 208 242
181 208 242
181 208 242
181 208 242
181 207 242
181 207 242
181 207 242
180 207 242
180 207 242
180 207 242
180 207 242
180 207 242
180 207 242
179 207 242
179 207 242
179 207 242
179 206 242
179 206 242
179 206 242
179 206 242
179 206 242
179 206 242
179 206 242
179 206 242
178 206 242
178 206 242
178 206 242
178 206 242
178 206 242
178 206 242
178 206 242
178 206 242
178 206 242
178 206 242
179 206 242
179 206 242
175 203 241
124 160 221
69 120 206
67 118 205
66 118 205
67 120 207
62 113 201
66 117 203
64 115 204
68 118 205
127 160 220
178 205 240
183 209 242
184 209 242
186 210 242
187 211 242
189 212 242
215 232 254
217 233 255
127 160 221
71 122 206
71 123 207
71 121 204
73 124 207
73 125 209
71 121 203
73 124 206
72 123 205
72 124 208
72 123 204
73 124 207
72 123 206
71 120 199
73 125 209
74 127 212
74 126 209
72 122 202
76 129 215
72 123 206
75 127 212
71 121 202
75 127 210
73 124 207
76 129 214
72 123 205
72 122 203
74 125 209
73 124 205
73 123 204
74 126 211
73 125 208
73 124 206
74 126 208
74 126 209
74 126 209
74 126 211
74 126 210
74 125 208
74 126 211
73 125 209
73 124 206
71 121 202
75 127 212
73 124 206
73 124 206
74 125 207
73 124 206
71 121 202
74 126 209
75 127 212
75 127 211
76 128 212
74 127 210
72 123 203
72 123 202
71 121 200
73 124 206
71 121 200
74 126 207
73 125 208
72 123 203
73 124 203
73 123 201
73 124 204
73 124 205
74 123 201
72 122 200
73 123 202
71 119 194
73 122 195
142 169 216
217 233 255
213 225 241
184 168 107
194 178 114
192 177 114
186 173 113
174 165 110
156 151 105
139 138 98
141 141 101
128 131 95
110 118 91
120 126 94
117 125 97
121 126 95
126 132 99
129 134 101
145 145 104
145 144 104
162 158 109
162 157 110
169 163 111
179 169 113
185 174 114
183 173 114
184 173 114
185 173 114
184 173 114
185 174 114
183 173 114
184 173 114
185 173 114
184 173 114
185 174 114
185 174 114
185 173 114
184 173 114
185 174 114
185 173 114
185 174 114
186 174 114
186 174 114
186 174 114
186 174 114
185 174 114
187 174 114
186 174 114
186 174 114
186 174 114
187 175 114
187 174 114
186 174 114
187 175 114
187 174 114
188 175 114
187 175 114
188 175 114
187 174 114
187 175 114
189 175 114
189 175 114
187 175 114
189 175 114
189 175 114
189 176 114
190 176 114
189 176 114
189 176 114
191 176 114
192 177 114
190 176 114
190 176 114
190 176 114
191 176 114
191 176 114
192 177 114
192 177 114
192 177 114
192 177 114
193 177 114
193 177 114
192 177 114
193 177 114
194 178 114
195 178 114
194 178 114
194 178 114
194 178 114
194 178 114
197 179 114
197 179 114
197 179 114
197 179 114
197 179 114
191 173 110
181 164 104
182 177 155
219 234 255
219 234 255
219 234 255
219 234 255
219 234 255
219 234 255
219 234 255
219 234 255
219 234 255
219 234 255
219 234 255
219 234 255
219 234 255
219 234 255
219 234 255
219 234 255
219 234 255
219 234 255
219 234 255
219 234 255
219 234 255
219 234 255
219 234 255
219 234 255
219 234 255
219 234 255
219 234 255
219 234 255
219 234 255
219 234 255
219 234 255
219 234 255
219 234 255
219 234 255
219 234 255
219 234 255
219 234 255
219 234 255
219 234 255
219 234 255
219 234 255
219 234 255
219 234 255
219 234 255
219 234 255
219 234 255
219 234 255
219 234 255
219 234 255
219 234 255
219 234 255
219 234 255
219 234 255
216 232 254
194 215 242
193 214 242
192 214 242
192 214 242
191 213 242
191 213 242
191 213 242
190 213 242
190 213 242
190 212 242
189 212 242
189 212 242
189 212 242
189 212 242
188 212 242
188 212 242
188 211 242
188 211 242
187 211 242
187 211 242
187 211 242
187 211 242
186 211 242
186 210 242
186 210 242
186 210 242
186 210 242
185 210 242
185 210 242
185 210 242
185 210 242
185 210 242
185 210 242
184 209 242
184 209 242
184 209 242
184 209 242
184 209 242
183 209 242
183 209 242
183 209 242
183 209 242
183 209 242
183 208 242
182 208 242
182 208 242
182 208 242
182 208 242
182 208 242
182 208 242
182 208 242
182 208 242
181 208 242
181 208 242
181 208 242
181 208 242
181 207 242
181 207 242
181 207 242
181 207 242
181 207 242
180 207 242
180 207 242
180 207 242
180 207 242
180 207 242
180 207 242
180 207 242
180 207 242
180 207 242
180 207 242
180 207 242
180 207 242
180 207 242
180 207 242
180 207 242
180 207 242
172 200 239
101 142 214
66 118 204
66 118 204
64 116 203
66 117 204
64 114 200
62 111 196
62 113 201
62 112 200
63 113 201
64 116 204
100 139 211
159 187 232
185 210 242
186 210 242
187 211 242
189 212 242
202 222 248
210 227 252
74 122 204
69 119 201
73 124 206
72 123 206
73 124 207
71 121 202
72 123 206
70 120 201
74 125 208
71 121 202
73 124 207
75 127 211
74 126 210
73 125 210
70 120 202
73 124 207
73 124 205
73 124 206
71 123 205
72 124 207
74 126 210
73 124 206
72 121 201
73 126 210
74 126 209
70 121 203
74 126 209
71 121 203
72 124 208
76 129 214
72 123 206
72 122 203
75 128 212
72 123 204
75 127 210
74 125 207
73 124 205
74 125 208
72 124 208
73 124 206
71 122 202
74 126 209
73 124 206
75 128 212
71 122 204
74 125 207
73 125 207
73 124 206
74 126 210
72 123 206
74 126 210
75 127 209
72 122 203
74 125 207
74 126 209
72 122 202
74 124 203
72 123 205
75 126 207
74 125 207
72 122 203
77 128 208
73 124 204
72 123 206
74 126 207
72 122 199
73 123 201
72 121 196
75 125 202
74 125 203
71 118 189
75 120 188
217 233 255
197 198 190
192 175 112
193 177 114
187 173 112
174 163 108
156 151 103
136 136 98
121 126 94
105 113 86
100 110 84
104 115 92
88 105 86
90 106 88
115 123 94
104 115 91
117 126 98
137 139 102
144 144 103
149 147 105
153 150 105
173 165 111
174 165 112
182 171 113
186 174 114
187 174 114
186 174 114
186 174 114
186 174 114
185 174 114
185 174 114
187 174 114
186 174 114
186 174 114
185 174 114
187 174 114
186 174 114
187 175 114
188 175 114
186 174 114
186 174 114
187 174 114
186 174 114
187 174 114
187 174 114
188 175 114
189 175 114
187 174 114
188 175 114
188 175 114
187 174 114
188 175 114
189 175 114
189 175 114
189 176 114
189 175 114
188 175 114
190 176 114
190 176 114
190 176 114
189 176 114
190 176 114
189 176 114
191 176 114
192 177 114
191 176 114
191 176 114
192 177 114
191 176 114
192 177 114
191 176 114
193 177 114
192 177 114
192 177 114
192 177 114
194 177 114
194 178 114
194 178 114
194 177 114
194 178 114
194 178 114
193 177 114
194 178 114
195 178 114
194 178 114
197 179 114
196 178 114
196 178 114
196 178 114
197 179 114
197 179 114
197 179 114
198 180 114
198 179 114
197 178 113
182 164 104
171 155 98
214 228 246
219 234 255
219 234 255
219 234 255
219 234 255
219 234 255
219 234 255
219 234 255
219 234 255
219 234 255
219 234 255
219 234 255
219 234 255
219 234 255
219 234 255
219 234 255
219 234 255
219 234 255
219 234 255
219 234 255
219 234 255
219 234 255
219 234 255
219 234 255
219 234 255
219 234 255
219 234 255
219 234 255
219 234 255
219 234 255
219 234 255
219 234 255
219 234 255
219 234 255
219 234 255
219 234 255
219 234 255
219 234 255
219 234 255
219 234 255
219 234 255
219 234 255
219 234 255
219 234 255
219 234 255
219 234 255
219 234 255
219 234 255
219 234 255
219 234 255
219 234 255
219 234 255
219 234 255
207 225 249
194 215 242
193 215 242
193 214 242
192 214 242
192 214 242
192 214 242
191 213 242
191 213 242
191 213 242
190 213 242
190 213 242
190 213 242
190 212 242
189 212 242
189 212 242
189 212 242
189 212 242
189 212 242
188 212 242
188 212 242
188 211 242
188 211 242
188 211 242
187 211 242
187 211 242
187 211 242
187 211 242
187 211 242
186 211 242
186 211 242
186 210 242
186 210 242
186 210 242
186 210 242
185 210 242
185 210 242
185 210 242
185 210 242
185 210 242
185 210 242
184 209 242
184 209 242
184 209 242
184 209 242
184 209 242
184 209 242
184 209 242
184 209 242
184 209 242
183 209 242
183 209 242
183 209 242
183 209 242
183 209 242
183 209 242
183 208 242
182 208 242
182 208 242
182 208 242
182 208 242
182 208 242
182 208 242
182 208 242
182 208 242
182 208 242
182 208 242
182 208 242
182 208 242
182 208 242
182 208 242
182 208 242
182 208 242
182 208 242
181 208 242
182 208 242
182 208 242
178 204 241
105 144 213
66 118 205
65 115 201
65 117 203
64 115 199
64 115 202
63 113 197
63 114 202
61 111 196
58 106 192
61 111 198
61 111 200
58 107 194
71 118 202
164 191 232
187 211 242
188 211 242
189 212 242
193 215 243
178 200 240
72 123 208
71 123 208
72 123 207
70 121 204
70 120 202
70 120 201
74 126 211
73 124 207
70 121 203
72 123 206
73 124 207
71 121 203
75 126 208
72 122 204
71 122 203
71 122 203
73 124 208
70 121 204
74 126 210
72 123 204
72 123 204
73 124 207
73 125 207
73 125 208
76 128 213
73 124 205
70 119 198
75 127 210
75 127 209
72 122 202
73 124 207
73 123 204
75 127 210
72 122 203
73 124 207
72 122 203
72 124 206
73 124 207
74 126 208
74 126 210
71 122 204
71 121 203
72 122 203
74 125 207
75 128 213
75 128 212
74 126 209
71 122 203
71 121 202
73 123 204
72 122 201
72 121 200
73 124 204
75 128 211
74 125 205
72 122 203
73 123 203
74 125 204
73 124 204
72 123 203
74 124 203
74 125 205
73 124 206
72 122 202
71 122 202
74 125 206
71 121 201
71 119 191
71 116 183
71 119 194
71 119 191
70 116 184
184 203 232
189 178 139
195 178 114
193 177 114
174 163 109
154 147 100
132 131 93
95 105 81
79 93 72
76 94 80
70 91 79
67 91 80
69 92 80
70 95 84
83 101 84
84 102 87
107 119 96
115 123 95
124 130 99
134 136 101
154 151 107
160 154 107
166 158 107
178 168 112
184 172 113
189 175 114
187 174 114
188 175 114
187 175 114
187 175 114
187 175 114
188 175 114
187 174 114
187 175 114
188 175 114
188 175 114
188 175 114
188 175 114
188 175 114
190 176 114
189 175 114
190 176 114
189 176 114
190 176 114
189 175 114
189 175 114
189 175 114
190 176 114
189 175 114
190 176 114
190 176 114
190 176 114
189 175 114
191 176 114
191 176 114
190 176 114
191 176 114
191 176 114
192 177 114
192 177 114
192 177 114
191 176 114
192 177 114
191 176 114
192 177 114
192 177 114
192 177 114
192 177 114
192 177 114
192 177 114
192 177 114
193 177 114
192 177 114
194 178 114
193 177 114
194 177 114
194 178 114
194 178 114
195 178 114
195 178 114
196 179 114
194 178 114
194 178 114
194 178 114
196 178 114
196 179 114
197 179 114
196 179 114
197 179 114
196 179 114
198 180 114
198 179 114
199 180 114
199 180 114
198 180 114
195 176 111
159 144 92
189 186 171
219 234 255
219 234 255
219 234 255
219 234 255
219 234 255
219 234 255
219 234 255
219 234 255
219 234 255
219 234 255
219 234 255
219 234 255
219 234 255
219 234 255
219 234 255
219 234 255
219 234 255
219 234 255
219 234 255
219 234 255
219 234 255
219 234 255
219 234 255
219 234 255
219 234 255
219 234 255
219 235 255
219 235 255
219 235 255
219 235 255
219 235 255
219 235 255
219 235 255
219 235 255
219 235 255
219 235 255
219 235 255
219 235 255
219 234 255
219 234 255
219 234 255
219 234 255
219 234 255
219 234 255
219 234 255
219 234 255
219 234 255
219 234 255
219 234 255
219 234 255
219 234 255
219 234 255
197 217 243
194 215 242
194 215 242
193 214 242
193 214 242
192 214 242
192 214 242
192 214 242
192 214 242
191 213 242
191 213 242
191 213 242
191 213 242
190 213 242
190 213 242
190 213 242
190 213 242
190 212 242
189 212 242
189 212 242
189 212 242
189 212 242
189 212 242
189 212 242
188 212 242
188 212 242
188 212 242
188 211 242
188 211 242
188 211 242
187 211 242
187 211 242
187 211 242
187 211 242
187 211 242
187 211 242
187 211 242
186 211 242
186 211 242
186 210 242
186 210 242
186 210 242
186 210 242
186 210 242
185 210 242
185 210 242
185 210 242
185 210 242
185 210 242
185 210 242
185 210 242
185 210 242
185 210 242
184 209 242
184 209 242
184 209 242
184 209 242
184 209 242
184 209 242
184 209 242
184 209 242
184 209 242
184 209 242
184 209 242
184 209 242
184 209 242
183 209 242
183 209 242
183 209 242
183 209 242
183 209 242
183 209 242
183 209 242
183 209 242
183 209 242
183 209 242
183 209 242
116 152 215
66 117 202
66 117 203
65 116 203
64 114 200
64 115 200
61 110 196
62 112 197
60 109 196
56 103 189
60 110 196
56 103 190
59 109 196
57 105 194
58 107 194
85 126 203
177 202 237
188 212 242
190 212 242
192 214 242
137 167 223
74 126 210
68 119 203
70 120 204
73 125 209
73 125 208
72 124 207
72 124 207
72 123 205
71 122 203
74 125 208
74 127 211
74 127 213
74 125 207
71 122 205
70 121 202
71 122 204
72 123 204
72 122 203
72 122 204
73 125 209
76 128 211
74 125 208
71 120 201
75 127 210
73 125 209
73 123 204
70 120 200
71 122 204
72 122 204
71 122 203
72 123 203
69 119 199
73 124 206
74 125 207
74 125 207
74 125 208
71 121 203
72 123 207
72 123 205
73 124 205
71 120 199
71 122 205
71 122 203
71 122 203
72 124 207
73 124 205
72 122 201
71 121 201
73 124 206
74 126 209
72 122 202
75 128 212
73 124 204
72 122 204
71 120 199
73 123 204
74 124 202
73 124 204
71 121 201
74 126 210
75 127 210
72 122 202
75 126 204
71 120 197
73 125 207
73 123 202
73 122 198
71 121 198
69 116 186
72 122 200
71 118 190
69 116 186
131 152 183
189 172 109
195 178 114
190 174 112
158 150 102
141 138 96
105 111 82
69 87 70
62 81 65
59 81 69
63 86 75
64 88 78
64 90 82
63 88 77
66 92 83
73 96 84
82 101 86
93 107 87
121 126 96
129 133 99
134 135 99
148 146 104
161 155 108
174 165 110
184 172 113
186 174 114
188 175 114
189 175 114
189 175 114
189 175 114
189 175 114
189 175 114
188 175 114
190 176 114
189 176 114
190 176 114
190 176 114
189 175 114
190 176 114
190 176 114
189 176 114
191 176 114
190 176 114
191 176 114
190 176 114
190 176 114
191 176 114
190 176 114
190 176 114
191 176 114
191 176 114
191 176 114
192 177 114
191 177 114
192 177 114
191 176 114
191 176 114
192 177 114
192 177 114
192 177 114
193 177 114
193 177 114
192 177 114
193 177 114
192 177 114
192 177 114
194 178 114
194 178 114
193 177 114
193 177 114
193 177 114
193 177 114
194 178 114
195 178 114
194 178 114
195 178 114
195 178 114
195 178 114
196 179 114
197 179 114
196 179 114
196 178 114
196 179 114
197 179 114
197 179 114
196 179 114
196 179 114
197 179 114
197 179 114
197 179 114
198 179 114
199 180 114
198 179 114
198 180 114
199 180 114
192 174 110
190 172 109
176 167 136
219 234 255
219 234 255
219 234 255
219 234 255
219 234 255
219 234 255
219 234 255
219 234 255
219 234 255
219 234 255
219 234 255
219 234 255
219 234 255
219 234 255
219 234 255
219 234 255
219 235 255
219 235 255
219 235 255
219 235 255
219 235 255
219 235 255
219 235 255
219 235 255
219 235 255
219 235 255
220 235 255
220 235 255
220 235 255
220 235 255
220 235 255
220 235 255
220 235 255
220 235 255
220 235 255
220 235 255
220 235 255
220 235 255
220 235 255
220 235 255
220 235 255
220 235 255
220 235 255
220 235 255
220 235 255
220 235 255
220 235 255
220 235 255
220 235 255
220 235 255
219 235 255
217 232 254
195 216 242
195 215 242
194 215 242
194 215 242
193 215 242
193 214 242
193 214 242
193 214 242
192 214 242
192 214 242
192 214 242
192 214 242
191 213 242
191 213 242
191 213 242
191 213 242
191 213 242
191 213 242
190 213 242
190 213 242
190 213 242
190 213 242
190 212 242
190 212 242
190 212 242
189 212 242
189 212 242
189 212 242
189 212 242
189 212 242
189 212 242
189 212 242
188 212 242
188 212 242
188 212 242
188 211 242
188 211 242
188 211 242
188 211 242
188 211 242
188 211 242
187 211 242
187 211 242
187 211 242
187 211 242
187 211 242
187 211 242
187 211 242
187 211 242
186 211 242
186 211 242
186 211 242
186 210 242
186 210 242
186 210 242
186 210 242
186 210 242
186 210 242
186 210 242
186 210 242
186 210 242
185 210 242
185 210 242
185 210 242
185 210 242
185 210 242
185 210 242
185 210 242
185 210 242
185 210 242
185 210 242
185 210 242
185 210 242
185 210 242
185 210 242
185 210 242
157 185 230
66 117 202
67 117 201
67 118 203
64 115 200
64 114 199
64 115 201
62 111 194
61 110 194
59 107 192
55 102 189
57 104 188
56 102 188
54 100 185
58 106 192
53 99 187
58 106 194
126 155 210
189 212 242
190 213 242
192 214 242
111 146 211
70 121 205
70 120 201
71 122 204
70 121 204
73 124 207
72 123 206
71 123 207
70 120 201
72 124 206
72 123 205
74 125 209
72 122 204
70 120 201
73 125 208
72 123 205
72 123 204
73 124 206
72 122 204
72 123 205
72 123 205
73 124 206
73 124 205
72 122 203
71 121 201
73 124 206
72 123 205
73 124 206
74 126 209
72 123 205
73 124 207
70 120 201
73 124 206
72 123 205
74 125 206
71 122 204
73 125 206
71 120 199
71 121 201
73 123 203
74 125 206
69 119 199
71 122 203
72 124 207
72 122 205
70 120 200
73 124 205
71 121 202
72 121 199
72 122 201
72 124 206
71 121 199
74 126 208
73 125 206
74 126 209
72 123 206
69 119 198
73 124 206
74 125 205
70 120 201
69 118 199
71 121 199
75 126 207
74 126 208
73 123 201
72 121 197
71 120 198
72 122 199
71 119 191
70 118 191
72 122 198
70 117 191
72 119 187
110 126 156
195 177 112
196 179 114
164 154 103
138 135 94
106 111 83
69 89 76
58 80 68
57 77 62
57 80 70
60 83 74
63 87 75
62 86 77
61 86 77
64 89 80
63 87 78
66 93 86
86 102 84
97 112 92
132 136 102
142 142 103
149 147 105
162 155 106
170 161 110
180 169 112
181 169 112
190 176 114
190 176 114
190 176 114
192 177 114
191 176 114
191 176 114
191 176 114
191 176 114
192 177 114
192 177 114
191 176 114
191 176 114
192 177 114
191 176 114
191 176 114
193 177 114
192 177 114
192 177 114
193 177 114
192 177 114
192 177 114
193 177 114
192 177 114
193 177 114
192 177 114
193 177 114
194 178 114
191 177 114
193 177 114
193 177 114
194 178 114
193 177 114
193 177 114
194 177 114
194 178 114
194 178 114
195 178 114
194 178 114
195 178 114
195 178 114
194 178 114
195 178 114
194 178 114
194 178 114
194 178 114
194 178 114
196 179 114
195 178 114
196 179 114
196 179 114
195 178 114
196 179 114
196 179 114
196 179 114
198 180 114
196 179 114
197 179 114
197 179 114
198 180 114
200 180 114
198 179 114
199 180 114
197 179 114
198 180 114
198 180 114
198 179 114
199 180 114
199 180 114
198 179 114
197 178 112
182 165 104
167 152 96
216 229 246
220 235 255
219 235 255
220 235 255
220 235 255
220 235 255
220 235 255
220 235 255
220 235 255
220 235 255
220 235 255
220 235 255
220 235 255
220 235 255
220 235 255
220 235 255
220 235 255
220 235 255
220 235 255
220 235 255
220 235 255
220 235 255
220 235 255
220 235 255
220 235 255
220 235 255
220 235 255
220 235 255
220 235 255
220 235 255
220 235 255
220 235 255
220 235 255
220 235 255
220 235 255
220 235 255
220 235 255
220 235 255
220 235 255
220 235 255
220 235 255
220 235 255
220 235 255
220 235 255
220 235 255
220 235 255
220 235 255
220 235 255
220 235 255
220 235 255
220 235 255
211 227 250
195 216 242
195 215 242
194 215 242
194 215 242
194 215 242
194 215 242
193 215 242
193 214 242
193 214 242
193 214 242
193 214 242
192 214 242
192 214 242
192 214 242
192 214 242
192 214 242
192 214 242
191 213 242
191 213 242
191 213 242
191 213 242
191 213 242
191 213 242
191 213 242
191 213 242
190 213 242
190 213 242
190 213 242
190 213 242
190 213 242
190 213 242
190 212 242
190 212 242
190 212 242
189 212 242
189 212 242
189 212 242
189 212 242
189 212 242
189 212 242
189 212 242
189 212 242
189 212 242
188 212 242
188 212 242
188 212 242
188 212 242
188 212 242
188 212 242
188 211 242
188 211 242
188 211 242
188 211 242
188 211 242
188 211 242
187 211 242
187 211 242
187 211 242
187 211 242
187 211 242
187 211 242
187 211 242
187 211 242
187 211 242
187 211 242
187 211 242
187 211 242
187 211 242
187 211 242
187 211 242
187 211 242
187 211 242
187 211 242
187 211 242
187 211 242
187 211 242
96 136 207
65 115 200
66 116 200
64 115 200
67 117 201
60 108 191
60 108 191
62 112 197
62 111 197
60 109 195
59 108 195
55 102 189
57 105 190
55 102 187
55 101 189
57 105 191
53 99 186
53 99 187
168 192 230
191 213 242
192 214 242
96 134 204
73 124 208
69 120 203
71 122 205
71 121 204
73 124 207
72 123 205
72 123 204
75 126 209
71 122 205
71 122 204
74 127 211
75 128 211
72 123 206
73 124 206
70 120 201
72 123 205
69 119 200
72 123 206
74 125 206
71 120 201
73 124 207
72 123 205
71 120 200
73 124 206
73 123 204
75 126 209
71 122 204
73 124 206
71 121 202
76 128 213
72 122 204
71 122 203
71 122 204
72 124 207
73 125 207
71 121 202
74 125 209
72 123 204
74 127 211
73 124 207
71 121 203
72 123 203
71 122 202
73 124 205
72 123 205
75 126 208
74 126 209
74 125 207
73 124 205
72 123 205
75 126 207
73 124 204
70 119 197
73 123 205
72 123 205
75 127 208
73 124 204
72 121 200
71 120 197
70 119 196
71 120 199
72 123 206
72 121 197
70 119 195
74 124 203
73 123 201
71 118 191
74 123 201
71 120 197
69 116 186
72 122 198
68 111 171
85 121 179
198 180 114
189 172 110
145 139 95
120 119 80
95 104 81
59 80 68
54 74 60
54 74 61
58 80 69
57 78 65
61 85 75
61 84 74
65 88 76
64 87 76
64 87 75
65 88 77
65 91 84
87 106 92
103 115 93
130 132 98
137 139 104
141 140 101
170 162 110
174 164 110
184 171 112
193 177 114
193 177 114
193 177 114
193 177 114
192 177 114
193 177 114
193 177 114
193 177 114
193 177 114
192 177 114
192 177 114
194 178 114
193 177 114
194 177 114
193 177 114
193 177 114
194 178 114
193 177 114
195 178 114
193 177 114
194 178 114
194 178 114
193 177 114
194 177 114
195 178 114
194 178 114
194 178 114
196 178 114
193 177 114
195 178 114
194 178 114
194 178 114
196 179 114
196 178 114
195 178 114
194 178 114
195 178 114
195 178 114
196 179 114
194 178 114
196 179 114
196 179 114
196 178 114
196 179 114
197 179 114
196 179 114
197 179 114
197 179 114
196 179 114
197 179 114
198 179 114
197 179 114
197 179 114
197 179 114
196 179 114
197 179 114
198 180 114
197 179 114
198 180 114
198 180 114
199 180 114
199 180 114
200 180 114
199 180 114
200 181 114
200 181 114
200 180 114
199 180 114
197 178 113
197 178 113
184 166 105
174 158 100
190 192 189
220 235 255
220 235 255
220 235 255
220 235 255
220 235 255
220 235 255
220 235 255
220 235 255
220 235 255
220 235 255
220 235 255
220 235 255
220 235 255
220 235 255
220 235 255
220 235 255
220 235 255
220 235 255
220 235 255
220 235 255
220 235 255
220 235 255
220 235 255
220 235 255
220 235 255
220 235 255
220 235 255
220 235 255
220 235 255
220 235 255
220 235 255
220 235 255
220 235 255
220 235 255
220 235 255
220 235 255
220 235 255
220 235 255
220 235 255
220 235 255
220 235 255
220 235 255
220 235 255
220 235 255
220 235 255
220 235 255
220 235 255
220 235 255
220 235 255
220 235 255
206 224 248
196 216 242
195 216 242
195 215 242
195 215 242
194 215 242
194 215 242
194 215 242
194 215 242
194 215 242
193 215 242
193 215 242
193 214 242
193 214 242
193 214 242
193 214 242
193 214 242
193 214 242
192 214 242
192 214 242
192 214 242
192 214 242
192 214 242
192 214 242
192 214 242
192 214 242
192 214 242
191 213 242
191 213 242
191 213 242
191 213 242
191 213 242
191 213 242
191 213 242
191 213 242
191 213 242
191 213 242
191 213 242
190 213 242
190 213 242
190 213 242
190 213 242
190 213 242
190 213 242
190 213 242
190 213 242
190 212 242
190 212 242
190 212 242
189 212 242
190 212 242
189 212 242
189 212 242
189 212 242
189 212 242
189 212 242
189 212 242
189 212 242
189 212 242
189 212 242
189 212 242
189 212 242
189 212 242
189 212 242
188 212 242
189 212 242
189 212 242
189 212 242
188 212 242
188 212 242
188 212 242
188 212 242
188 212 242
188 212 242
188 212 242
188 212 242
168 194 233
66 116 200
66 116 199
64 113 197
62 112 197
61 109 190
59 106 190
61 110 194
59 107 190
62 112 196
56 102 186
56 103 188
56 104 188
53 98 182
54 99 183
49 93 179
52 97 183
48 91 181
53 99 185
122 149 204
192 214 242
181 204 236
66 115 197
69 118 199
68 117 198
68 118 198
72 123 205
70 119 200
71 122 205
71 122 202
72 123 204
73 125 209
74 125 209
74 127 211
73 124 206
71 122 204
72 123 204
72 122 204
73 124 205
75 127 211
72 124 207
70 120 202
72 122 202
72 123 204
72 123 203
76 128 210
70 121 203
71 120 200
71 122 202
71 122 203
71 121 204
72 122 203
72 123 205
72 123 206
72 124 206
73 124 208
72 122 204
73 124 205
73 124 207
74 125 208
74 125 207
72 123 205
72 123 207
73 124 206
73 123 205
72 123 205
72 121 202
73 125 208
71 120 200
71 120 198
73 124 204
72 123 205
72 121 199
71 121 203
73 124 205
75 127 209
73 124 206
73 126 210
74 125 207
70 119 197
73 123 203
72 123 206
73 124 205
74 125 207
71 120 200
68 116 193
72 122 201
74 124 204
72 120 195
72 121 200
73 122 197
74 122 195
69 116 190
71 118 185
69 115 182
69 113 173
182 170 129
177 162 104
144 138 92
108 109 75
51 70 56
53 72 60
52 71 59
56 77 65
57 77 61
61 83 70
59 82 72
59 81 70
60 82 71
63 87 78
62 85 75
65 91 84
62 87 80
66 91 82
101 113 92
125 129 98
147 145 104
148 145 104
158 151 105
166 158 107
180 168 110
189 174 113
194 178 114
196 179 114
195 178 114
195 178 114
195 178 114
195 178 114
195 178 114
194 177 114
195 178 114
195 178 114
196 179 114
195 178 114
196 178 114
195 178 114
194 178 114
195 178 114
194 178 114
194 178 114
196 178 114
197 179 114
196 179 114
196 179 114
196 179 114
196 179 114
195 178 114
196 179 114
196 179 114
195 178 114
197 179 114
196 179 114
195 178 114
195 178 114
196 178 114
197 179 114
196 179 114
196 179 114
196 179 114
197 179 114
197 179 114
197 179 114
197 179 114
197 179 114
198 179 114
197 179 114
198 180 114
198 180 114
197 179 114
198 180 114
198 179 114
198 180 114
199 180 114
199 180 114
198 180 114
198 180 114
198 180 114
198 180 114
200 180 114
199 180 114
199 180 114
198 179 114
197 179 113
198 179 113
197 179 113
197 178 113
197 178 113
197 178 113
198 179 113
200 181 114
194 176 112
185 167 106
170 154 98
177 180 178
220 235 255
220 235 255
220 235 255
220 235 255
220 235 255
220 235 255
220 235 255
220 235 255
220 235 255
220 235 255
220 235 255
220 235 255
220 235 255
220 235 255
220 235 255
220 235 255
220 235 255
220 235 255
220 235 255
220 235 255
220 235 255
220 235 255
220 235 255
220 235 255
220 235 255
220 235 255
220 235 255
220 235 255
220 235 255
220 235 255
220 235 255
220 235 255
220 235 255
220 235 255
220 235 255
220 235 255
220 235 255
220 235 255
220 235 255
220 235 255
220 235 255
220 235 255
220 235 255
220 235 255
220 235 255
220 235 255
220 235 255
220 235 255
220 235 255
220 235 255
202 221 245
196 216 242
196 216 242
195 216 242
195 216 242
195 215 242
195 215 242
195 215 242
195 215 242
194 215 242
194 215 242
194 215 242
194 215 242
194 215 242
194 215 242
194 215 242
194 215 242
194 215 242
193 215 242
193 215 242
193 215 242
193 214 242
193 214 242
193 214 242
193 214 242
193 214 242
193 214 242
193 214 242
193 214 242
192 214 242
192 214 242
192 214 242
192 214 242
192 214 242
192 214 242
192 214 242
192 214 242
192 214 242
192 214 242
192 214 242
192 214 242
191 213 242
192 214 242
191 213 242
191 213 242
191 213 242
191 213 242
191 213 242
191 213 242
191 213 242
191 213 242
191 213 242
191 213 242
191 213 242
191 213 242
191 213 242
191 213 242
191 213 242
191 213 242
191 213 242
190 213 242
190 213 242
190 213 242
190 213 242
190 213 242
190 213 242
190 213 242
190 213 242
190 213 242
190 213 242
190 213 242
190 213 242
190 213 242
190 213 242
190 213 242
190 213 242
149 177 224
64 113 195
64 114 196
64 113 196
63 112 195
62 110 194
61 109 192
61 110 195
57 104 187
60 107 190
57 105 188
50 94 176
53 98 184
54 99 184
54 99 184
49 92 174
50 94 177
46 87 172
48 92 180
56 98 180
184 206 237
175 198 234
69 119 202
69 120 202
67 116 197
70 120 200
70 119 199
72 122 204
71 122 203
72 122 203
71 121 202
69 118 199
69 119 199
70 120 200
72 122 204
71 121 201
72 122 202
73 124 206
72 123 206
71 121 201
73 124 206
72 122 204
69 118 198
70 120 200
70 120 202
74 126 209
71 122 204
71 121 202
74 125 206
73 124 206
74 125 205
74 125 206
73 124 206
70 120 200
75 127 209
74 126 208
72 123 206
70 120 200
69 119 199
70 120 200
68 116 196
70 118 197
72 123 204
71 121 201
71 120 200
73 124 206
68 116 194
69 119 200
70 119 198
73 123 203
73 125 207
72 122 202
71 121 199
69 118 199
70 119 195
71 121 201
70 120 199
71 121 203
69 118 195
70 119 196
73 123 200
73 123 201
71 120 199
72 121 201
74 125 207
73 122 199
71 121 199
72 119 189
71 119 195
72 120 194
69 118 195
71 118 191
70 118 191
75 124 199
70 115 180
70 116 185
187 173 129
170 157 103
123 121 84
69 83 65
50 70 60
55 74 60
52 71 58
54 74 62
48 65 51
60 81 69
59 82 73
62 84 73
61 81 67
60 82 70
63 87 78
63 87 77
66 93 87
65 92 85
97 112 92
117 122 95
134 134 98
145 143 103
151 145 101
163 155 106
187 172 112
193 176 113
196 179 114
197 179 114
196 179 114
197 179 114
197 179 114
196 179 114
196 178 114
196 179 114
195 178 114
197 179 114
196 179 114
197 179 114
196 179 114
196 179 114
198 180 114
196 179 114
197 179 114
196 179 114
197 179 114
197 179 114
196 179 114
198 180 114
196 179 114
196 178 114
198 179 114
196 179 114
197 179 114
197 179 114
196 179 114
199 180 114
198 180 114
198 180 114
198 179 114
197 179 114
198 180 114
198 180 114
198 179 114
197 179 114
198 180 114
198 180 114
199 180 114
197 179 114
199 180 114
199 180 114
197 179 114
198 179 114
199 180 114
199 180 114
199 180 114
198 179 114
199 180 114
199 180 114
198 179 114
199 180 114
199 180 114
197 179 113
199 180 114
197 179 114
198 179 114
199 180 114
197 179 113
198 179 113
197 178 113
193 175 111
195 177 112
196 178 113
196 177 112
195 177 112
195 177 112
186 168 107
174 158 101
170 165 145
220 235 255
220 235 255
220 235 255
220 235 255
220 235 255
220 235 255
220 235 255
220 235 255
220 235 255
220 235 255
220 235 255
220 235 255
220 235 255
220 235 255
220 235 255
220 235 255
220 235 255
220 235 255
220 235 255
220 235 255
220 235 255
220 235 255
220 235 255
220 235 255
220 235 255
220 235 255
220 235 255
220 235 255
220 235 255
220 235 255
220 235 255
220 235 255
220 235 255
220 235 255
220 235 255
220 235 255
220 235 255
220 235 255
220 235 255
220 235 255
220 235 255
220 235 255
220 235 255
220 235 255
220 235 255
220 235 255
220 235 255
220 235 255
220 235 255
220 235 255
200 219 244
196 216 242
196 216 242
196 216 242
196 216 242
196 216 242
195 216 242
195 216 242
195 216 242
195 216 242
195 216 242
195 215 242
195 215 242
195 215 242
195 215 242
195 215 242
195 215 242
194 215 242
194 215 242
194 215 242
194 215 242
194 215 242
194 215 242
194 215 242
194 215 242
194 215 242
194 215 242
194 215 242
194 215 242
194 215 242
194 215 242
194 215 242
193 215 242
193 215 242
193 214 242
193 214 242
193 215 242
193 214 242
193 214 242
193 214 242
193 214 242
193 214 242
193 214 242
193 214 242
193 214 242
193 214 242
193 214 242
193 214 242
193 214 242
192 214 242
192 214 242
192 214 242
192 214 242
192 214 242
192 214 242
192 214 242
192 214 242
192 214 242
192 214 242
192 214 242
192 214 242
192 214 242
192 214 242
192 214 242
192 214 242
192 214 242
192 214 242
192 214 242
192 214 242
192 214 242
192 214 242
192 214 242
192 214 242
192 214 242
192 214 242
192 214 242
86 128 201
65 115 199
62 111 192
60 108 189
64 112 194
60 108 190
61 109 193
60 109 192
60 107 188
59 107 191
54 100 185
54 99 182
50 94 176
50 94 177
52 95 178
53 97 179
45 86 171
46 87 172
46 88 174
45 86 172
161 185 225
160 184 226
67 117 201
67 116 195
70 119 199
69 119 201
73 124 207
73 124 206
72 123 205
70 120 202
72 124 207
70 120 201
72 122 203
71 122 204
71 122 203
74 126 209
74 125 206
71 122 205
74 125 208
70 119 200
70 119 199
73 123 204
69 119 199
68 117 197
72 124 207
72 122 205
68 118 198
72 121 201
68 118 198
76 128 211
74 125 206
73 124 206
70 120 201
73 124 205
70 119 199
73 124 206
71 122 203
72 122 202
70 120 201
70 120 200
71 122 205
72 123 204
76 128 210
71 121 201
71 121 203
69 118 197
73 124 205
72 122 202
73 125 207
74 125 207
70 119 200
73 124 206
72 123 204
68 117 196
72 123 204
71 121 200
72 122 204
71 120 199
74 125 206
69 119 199
72 122 204
70 119 197
74 125 207
69 118 196
71 120 196
71 120 198
71 120 197
70 118 191
72 122 200
69 118 194
66 112 183
71 121 200
69 117 190
67 113 185
71 117 184
70 116 183
142 144 137
154 143 93
123 118 77
54 70 54
45 65 56
51 68 53
50 69 57
54 70 51
57 78 67
53 70 54
59 80 68
58 80 70
62 84 72
62 85 74
61 84 74
62 86 77
61 87 81
65 91 83
70 94 86
109 118 95
131 132 98
133 132 96
158 151 104
169 158 107
189 173 112
194 176 112
196 178 113
198 179 114
199 180 114
198 180 114
197 179 114
197 179 114
199 180 114
197 179 114
200 180 114
197 179 114
197 179 114
198 180 114
199 180 114
197 179 114
197 179 114
198 180 114
199 180 114
198 179 114
199 180 114
200 180 114
199 180 114
197 179 114
198 179 114
198 179 114
198 180 114
199 180 114
198 180 114
199 180 114
199 180 114
199 180 114
200 180 114
196 178 113
199 180 114
200 181 114
198 179 113
199 180 114
197 179 113
198 179 114
197 178 113
200 180 114
197 178 113
197 178 113
199 180 114
199 179 113
197 178 113
199 180 114
197 178 112
196 177 112
198 179 113
197 179 113
197 178 113
194 176 112
200 181 114
196 178 113
198 178 113
196 178 113
197 178 113
198 179 114
196 177 112
195 176 112
195 177 112
196 177 112
199 179 113
195 176 112
196 177 112
200 180 114
193 175 111
191 173 110
190 172 109
192 174 111
186 168 107
156 146 111
220 235 255
220 235 255
220 235 255
220 235 255
220 235 255
220 235 255
220 235 255
220 235 255
220 235 255
220 235 255
220 235 255
220 235 255
220 235 255
220 235 255
220 235 255
220 235 255
220 235 255
220 235 255
220 235 255
220 235 255
220 235 255
220 235 255
220 235 255
220 235 255
220 235 255
221 235 255
221 235 255
221 235 255
221 235 255
221 235 255
221 235 255
221 235 255
221 235 255
221 235 255
221 235 255
221 235 255
221 235 255
221 235 255
221 235 255
221 235 255
221 235 255
221 235 255
221 235 255
221 235 255
221 235 255
221 235 255
221 235 255
221 235 255
221 235 255
220 235 255
197 217 242
197 216 242
197 216 242
196 216 242
196 216 242
196 216 242
196 216 242
196 216 242
196 216 242
196 216 242
196 216 242
196 216 242
196 216 242
196 216 242
196 216 242
196 216 242
195 216 242
195 216 242
195 216 242
195 216 242
195 216 242
195 216 242
195 216 242
195 216 242
195 215 242
195 216 242
195 215 242
195 215 242
195 215 242
195 215 242
195 215 242
195 215 242
195 215 242
195 215 242
195 215 242
195 215 242
195 215 242
195 215 242
195 215 242
194 215 242
194 215 242
194 215 242
194 215 242
194 215 242
194 215 242
194 215 242
194 215 242
194 215 242
194 215 242
194 215 242
194 215 242
194 215 242
194 215 242
194 215 242
194 215 242
194 215 242
194 215 242
194 215 242
194 215 242
194 215 242
194 215 242
194 215 242
194 215 242
194 215 242
194 215 242
194 215 242
194 215 242
194 215 242
194 215 242
194 215 242
194 215 242
194 215 242
194 215 242
194 215 242
194 215 242
189 211 240
64 113 195
64 114 196
63 112 194
63 112 193
61 109 191
63 111 191
60 108 189
59 107 189
57 104 185
54 99 180
54 99 179
55 99 179
50 93 173
54 100 183
49 91 172
47 89 170
43 82 166
45 86 171
46 87 166
51 94 178
130 155 207
158 181 220
72 123 207
65 114 193
68 117 195
69 118 200
70 119 199
70 120 202
72 123 206
72 123 206
72 123 205
70 120 201
70 119 200
70 120 200
71 122 202
73 124 205
73 123 204
71 121 201
69 117 196
71 122 202
71 120 200
72 124 207
71 121 203
72 123 203
72 122 203
70 119 198
67 115 194
71 121 204
70 120 200
72 123 204
73 123 204
71 121 202
68 117 195
71 121 201
73 123 204
73 123 205
75 126 207
74 125 208
72 123 204
72 121 201
67 115 193
72 121 202
72 123 205
71 121 202
72 122 202
72 123 205
72 122 202
72 122 203
68 117 197
69 118 198
73 124 205
72 121 199
72 122 202
72 123 203
73 124 205
71 121 202
72 122 203
72 122 202
72 122 204
71 120 197
72 122 202
70 118 193
72 121 200
70 119 198
72 122 202
75 125 204
73 125 206
72 120 195
71 119 194
71 120 198
69 117 192
68 114 182
70 118 195
67 113 183
66 110 178
65 109 171
143 141 121
140 131 85
89 91 64
47 62 46
46 63 48
50 66 48
48 65 52
54 72 58
52 70 57
53 70 52
56 75 63
59 80 66
62 86 76
60 82 70
64 89 80
62 85 76
60 84 77
66 92 85
75 93 80
87 102 87
104 113 91
143 140 101
164 155 105
175 162 107
178 164 108
195 177 113
195 177 113
195 177 113
198 179 113
199 180 114
197 178 113
195 177 112
198 179 113
196 177 112
197 179 113
195 177 112
197 178 113
196 177 112
195 177 112
197 179 113
195 177 112
197 178 113
194 176 112
196 178 113
195 177 112
195 177 112
195 177 112
195 177 112
197 179 113
196 177 112
193 176 112
195 177 112
196 177 112
194 176 112
196 177 112
195 177 112
194 176 112
196 177 113
196 178 113
197 178 113
197 178 113
200 180 114
198 178 113
198 178 113
196 177 112
195 177 112
193 175 111
195 177 112
198 179 113
198 179 113
193 175 111
193 175 111
195 177 112
195 177 112
196 177 112
197 178 113
196 177 112
194 176 111
192 174 111
197 178 112
189 172 110
196 178 112
195 176 111
193 174 111
193 175 111
190 172 110
191 173 110
194 175 111
193 175 111
193 175 111
195 176 111
193 175 111
192 174 110
197 178 112
189 172 110
186 168 107
176 160 102
164 150 99
221 235 255
221 235 255
221 235 255
221 235 255
221 235 255
221 235 255
221 235 255
221 235 255
221 235 255
221 235 255
221 235 255
221 235 255
221 235 255
221 235 255
221 235 255
221 235 255
221 235 255
221 235 255
221 235 255
221 235 255
221 235 255
221 235 255
221 235 255
221 235 255
221 235 255
221 235 255
221 235 255
221 235 255
221 235 255
221 235 255
221 235 255
221 235 255
221 235 255
221 235 255
221 235 255
221 235 255
221 235 255
221 235 255
221 235 255
221 235 255
221 235 255
221 235 255
221 235 255
221 235 255
221 235 255
221 235 255
221 235 255
221 235 255
221 235 255
219 234 254
197 217 242
197 217 242
197 217 242
197 217 242
197 217 242
197 217 242
197 216 242
197 216 242
197 216 242
197 216 242
197 216 242
197 216 242
197 216 242
197 216 242
196 216 242
196 216 242
196 216 242
196 216 242
196 216 242
196 216 242
196 216 242
196 216 242
196 216 242
196 216 242
196 216 242
196 216 242
196 216 242
196 216 242
196 216 242
196 216 242
196 216 242
196 216 242
196 216 242
196 216 242
196 216 242
196 216 242
196 216 242
196 216 242
196 216 242
196 216 242
196 216 242
196 216 242
196 216 242
196 216 242
196 216 242
196 216 242
196 216 242
196 216 242
196 216 242
196 216 242
196 216 242
196 216 242
196 216 242
196 216 242
196 216 242
195 216 242
195 216 242
195 216 242
195 216 242
195 216 242
195 216 242
195 216 242
195 216 242
195 216 242
195 216 242
195 216 242
195 216 242
195 216 242
195 216 242
195 216 242
195 216 242
195 216 242
195 216 242
195 216 242
195 216 242
172 194 230
64 112 192
64 113 194
62 110 191
64 113 194
64 112 194
58 104 184
58 104 184
58 104 185
54 97 176
54 98 177
53 98 179
49 92 172
50 94 175
52 96 177
47 89 171
46 87 168
44 85 167
38 76 160
44 85 169
48 90 172
117 142 194
138 165 216
66 114 194
69 118 199
66 115 194
68 116 195
68 117 196
70 121 202
68 117 196
71 121 201
71 121 203
70 121 203
71 121 202
70 120 202
72 122 202
73 124 206
70 119 198
70 118 196
71 121 202
69 118 197
70 119 197
72 123 205
69 118 198
73 124 205
70 120 200
70 118 196
73 123 203
70 120 201
69 118 197
71 122 203
74 126 209
69 119 199
70 119 197
70 120 200
72 122 202
70 120 200
71 122 204
70 120 199
72 122 203
70 119 198
71 121 202
71 121 200
70 120 200
71 122 203
72 122 203
71 121 201
73 125 208
73 123 205
70 120 201
76 128 211
73 123 203
72 122 202
71 121 200
70 119 199
70 119 199
68 115 191
69 117 195
71 121 200
69 118 196
71 120 196
72 122 200
70 120 200
70 119 197
73 124 206
71 119 194
73 124 205
74 125 205
69 115 185
70 118 192
71 119 195
73 122 199
71 118 190
72 120 190
68 112 174
70 116 185
68 110 169
116 123 123
118 115 78
71 79 59
41 54 40
48 65 52
45 61 48
51 68 57
52 72 63
53 71 60
51 69 55
58 79 68
55 76 64
56 77 67
58 79 66
60 83 72
60 83 74
62 86 78
63 86 77
71 94 85
93 104 84
116 122 96
129 130 97
150 144 101
162 153 103
181 166 108
187 171 110
189 172 110
190 173 110
194 176 112
189 172 109
195 176 112
193 175 111
193 175 111
190 173 110
193 175 111
190 172 110
191 173 110
195 177 112
195 176 112
191 174 111
193 175 111
198 179 113
192 175 111
191 173 110
194 175 111
191 174 110
193 175 111
194 175 111
190 173 110
194 176 112
191 173 110
193 174 110
190 173 110
188 171 109
190 172 109
192 174 110
190 173 110
194 176 111
193 174 111
190 172 110
193 175 111
192 174 111
192 174 110
195 176 112
191 174 110
193 174 110
191 173 110
189 172 109
191 173 110
197 178 112
196 177 112
187 170 109
193 174 110
195 176 112
192 174 111
192 174 110
193 175 111
191 173 110
191 174 110
189 171 109
195 176 111
194 176 111
190 172 110
187 170 108
193 175 111
196 177 112
191 173 110
193 175 111
191 173 110
194 175 111
192 174 111
192 174 110
193 174 110
190 172 110
189 172 109
195 176 111
180 164 104
151 138 88
215 228 245
221 235 255
221 235 255
221 235 255
221 235 255
221 235 255
221 235 255
221 235 255
221 235 255
221 235 255
221 235 255
221 235 255
221 235 255
221 235 255
221 235 255
221 235 255
221 235 255
221 235 255
221 235 255
221 235 255
221 235 255
221 235 255
221 235 255
221 235 255
221 235 255
221 235 255
221 235 255
221 235 255
221 235 255
221 235 255
221 235 255
221 235 255
221 235 255
221 235 255
221 235 255
221 235 255
221 235 255
221 235 255
221 235 255
221 235 255
221 235 255
221 235 255
221 235 255
221 235 255
221 235 255
221 235 255
221 235 255
221 235 255
221 235 255
217 232 253
198 217 242
198 217 242
198 217 242
198 217 242
197 217 242
197 217 242
197 217 242
197 217 242
197 217 242
197 217 242
197 217 242
197 217 242
197 217 242
197 217 242
197 217 242
197 217 242
197 217 242
197 217 242
197 217 242
197 217 242
197 217 242
197 217 242
197 217 242
197 217 242
197 217 242
197 217 242
197 217 242
197 217 242
197 217 242
197 217 242
197 217 242
197 217 242
197 217 242
197 217 242
197 217 242
197 217 242
197 217 242
197 217 242
197 217 242
197 217 242
197 217 242
197 217 242
197 217 242
197 217 242
197 217 242
197 217 242
197 217 242
197 217 242
197 217 242
197 217 242
197 217 242
197 217 242
197 217 242
197 217 242
197 217 242
197 217 242
197 217 242
197 217 242
197 217 242
197 217 242
197 217 242
197 217 242
197 217 242
197 217 242
197 217 242
197 217 242
197 217 242
197 217 242
197 217 242
197 217 242
197 217 242
197 217 242
197 217 242
197 217 242
197 217 242
175 196 230
63 110 188
61 108 187
62 110 191
62 109 190
57 103 182
59 106 185
57 102 184
53 97 174
51 95 174
52 96 176
57 102 182
54 99 181
49 90 166
51 95 176
40 77 157
46 86 167
40 77 156
35 72 156
38 74 149
35 71 149
113 138 194
150 177 224
67 115 195
69 119 200
69 119 200
70 120 202
72 122 204
69 118 197
70 120 201
69 118 197
68 117 198
71 122 205
72 123 206
72 123 206
71 121 202
72 123 204
68 117 197
68 116 196
70 119 199
71 122 204
73 124 204
70 119 199
69 118 197
70 120 201
73 123 203
75 126 208
74 125 208
71 120 200
73 124 206
73 123 203
71 121 202
70 120 199
73 125 206
73 124 206
70 119 198
73 123 203
69 118 198
75 127 211
70 119 199
69 119 199
69 118 198
73 123 204
71 121 202
73 123 203
70 120 199
71 122 203
71 121 201
71 120 200
71 121 201
73 123 204
74 125 207
71 121 201
71 121 201
71 120 199
76 128 210
72 123 204
70 119 199
72 122 200
72 122 202
70 118 197
71 121 202
68 117 194
69 119 198
70 120 201
69 116 191
70 118 192
72 122 198
69 117 193
72 120 195
70 119 194
69 117 193
70 117 187
69 116 187
70 117 191
68 114 183
69 113 176
108 119 128
129 121 79
62 71 52
44 61 49
44 60 49
44 60 49
51 69 58
46 62 49
51 68 54
51 70 60
58 80 69
57 77 64
58 79 66
55 75 64
56 77 67
60 82 71
64 86 74
64 89 81
63 89 84
102 111 90
111 117 90
133 132 97
154 147 102
167 156 104
163 152 102
181 166 107
187 170 108
189 172 109
188 171 109
187 170 108
186 169 108
189 172 109
183 167 107
188 171 108
191 173 110
184 167 107
179 164 105
191 173 110
190 173 110
182 166 106
189 171 109
185 169 107
186 169 107
186 169 108
186 169 107
189 171 109
184 168 107
187 170 109
193 175 111
186 169 108
186 169 108
194 176 111
192 174 110
185 169 108
188 171 109
186 169 107
187 170 108
193 175 111
188 171 109
191 173 110
191 173 110
191 173 110
190 172 109
188 171 108
181 165 106
187 170 108
184 168 107
181 166 106
186 169 108
189 172 109
188 171 109
191 173 110
187 170 108
196 177 112
194 175 111
188 171 109
188 170 108
189 172 109
185 168 107
191 173 110
191 173 110
183 167 107
188 171 109
191 173 110
188 170 108
186 169 107
190 172 109
191 173 110
187 170 108
191 173 110
190 172 109
189 171 109
186 169 107
194 175 111
192 174 110
188 169 107
165 151 96
155 142 91
203 215 228
221 235 255
221 235 255
221 235 255
221 235 255
221 235 255
221 235 255
221 235 255
221 235 255
221 235 255
221 235 255
221 235 255
221 235 255
221 235 255
221 235 255
221 235 255
221 235 255
221 235 255
221 235 255
221 235 255
221 235 255
221 235 255
221 235 255
221 235 255
221 235 255
221 236 255
221 236 255
221 236 255
221 236 255
221 236 255
221 236 255
221 236 255
221 236 255
221 236 255
221 236 255
221 236 255
221 236 255
221 236 255
221 236 255
221 236 255
221 236 255
221 236 255
221 236 255
221 236 255
221 236 255
221 236 255
221 236 255
221 236 255
221 236 255
219 234 254
198 217 242
198 217 242
198 217 242
198 217 242
198 217 242
198 217 242
198 217 242
198 217 242
198 217 242
198 217 242
198 217 242
198 217 242
198 217 242
198 217 242
198 217 242
198 217 242
198 217 242
198 217 242
198 217 242
198 217 242
198 217 242
198 217 242
198 217 242
198 217 242
198 217 242
198 217 242
198 217 242
198 217 242
198 217 242
198 217 242
198 217 242
198 217 242
198 217 242
198 217 242
198 217 242
198 217 242
198 217 242
198 217 242
198 217 242
198 217 242
199 218 242
198 218 242
199 218 242
199 218 242
199 218 242
199 218 242
198 217 242
199 218 242
199 218 242
199 218 242
199 218 242
199 218 242
199 218 242
199 218 242
199 218 242
199 218 242
199 218 242
199 218 242
199 218 242
199 218 242
199 218 242
199 218 242
199 218 242
199 218 242
199 218 242
199 218 242
199 218 242
199 218 242
199 218 242
199 218 242
199 218 242
199 218 242
199 218 242
199 218 242
199 218 242
175 197 232
62 110 189
62 108 186
59 105 183
61 108 186
58 104 184
58 103 180
57 104 185
57 102 182
54 98 176
58 105 185
53 96 170
54 99 180
50 92 169
40 78 157
44 83 160
42 79 159
44 83 160
42 80 161
39 76 158
39 74 149
105 133 192
141 167 215
63 111 191
67 116 196
69 118 197
71 121 202
71 121 202
70 119 199
71 122 205
72 122 203
69 118 196
72 122 203
71 120 200
70 120 200
67 115 194
70 120 202
72 122 203
72 122 204
71 120 199
70 121 203
72 122 202
73 124 206
71 120 199
72 122 203
70 118 196
72 123 205
69 118 198
72 122 203
70 119 200
72 123 205
65 111 187
70 120 202
70 120 199
71 122 204
71 122 203
69 118 196
73 124 205
72 122 204
74 125 208
71 120 201
70 119 198
71 120 200
72 123 203
73 123 203
71 121 200
69 118 197
73 123 204
74 125 206
73 123 203
72 122 201
72 121 201
72 122 203
69 119 199
72 122 203
72 122 202
73 123 201
71 120 200
72 121 201
71 121 200
71 121 200
74 124 206
71 121 201
69 117 194
72 122 202
67 114 186
70 119 196
73 123 203
73 124 204
71 119 194
67 114 188
69 115 187
72 120 195
68 114 186
71 119 193
69 113 178
65 106 166
116 126 139
131 124 82
58 68 50
40 54 41
37 49 35
47 64 51
40 54 40
44 61 49
46 62 50
51 68 53
58 78 66
54 71 55
59 81 73
59 79 66
60 83 74
59 83 76
62 85 76
65 90 82
63 89 82
100 110 88
103 111 87
115 118 90
146 140 98
156 147 100
168 156 103
169 157 103
184 168 107
187 170 109
184 167 106
178 163 105
186 169 108
189 171 109
185 168 107
183 167 107
180 164 105
183 167 106
188 171 108
180 165 105
187 170 108
181 165 105
182 166 106
184 167 106
186 169 107
188 171 109
183 166 106
185 168 107
190 172 109
187 170 108
182 166 106
183 167 106
187 170 108
186 169 108
182 166 106
186 169 108
183 167 106
187 169 107
178 163 104
185 168 107
183 167 107
182 166 106
180 165 105
179 164 105
185 168 107
181 166 106
188 171 109
187 170 108
180 164 105
183 167 106
183 167 107
184 167 106
186 169 107
183 166 106
182 166 106
187 169 107
182 165 105
181 165 105
184 167 107
184 167 106
189 171 109
192 174 110
185 168 107
183 167 106
186 169 107
183 167 106
192 174 110
187 170 108
190 172 109
188 171 109
187 170 108
188 170 108
184 168 107
187 170 108
190 172 109
188 171 108
187 170 108
183 166 105
177 161 103
154 140 89
211 222 238
221 236 255
221 236 255
221 236 255
221 236 255
221 236 255
221 236 255
221 236 255
221 236 255
221 236 255
221 236 255
221 236 255
221 236 255
221 236 255
221 236 255
221 236 255
221 236 255
221 236 255
221 236 255
221 236 255
221 236 255
221 236 255
221 236 255
221 236 255
221 236 255
221 236 255
222 236 255
221 236 255
222 236 255
222 236 255
222 236 255
222 236 255
222 236 255
222 236 255
222 236 255
222 236 255
222 236 255
222 236 255
222 236 255
222 236 255
222 236 255
222 236 255
222 236 255
222 236 255
222 236 255
222 236 255
222 236 255
222 236 255
222 236 255
220 235 255
198 217 242
198 217 242
199 218 242
199 218 242
199 218 242
199 218 242
199 218 242
199 218 242
199 218 242
199 218 242
199 218 242
199 218 242
199 218 242
199 218 242
199 218 242
199 218 242
199 218 242
199 218 242
199 218 242
199 218 242
199 218 242
199 218 242
199 218 242
199 218 242
199 218 242
199 218 242
199 218 242
200 218 242
200 218 242
200 218 242
200 218 242
200 218 242
200 218 242
200 218 242
200 218 242
200 218 242
200 218 242
200 218 242
200 218 242
200 218 242
200 218 242
200 218 242
200 218 242
200 218 242
200 218 242
200 218 242
200 218 242
200 218 242
200 218 242
200 218 242
200 218 242
200 218 242
200 218 242
200 218 242
200 219 242
200 218 242
200 218 242
200 219 242
200 218 242
197 215 240
196 215 239
197 215 240
198 217 241
194 213 237
195 214 238
192 211 236
193 212 236
191 210 234
195 214 238
192 211 236
191 210 235
190 209 234
190 209 234
189 208 233
191 210 235
175 196 227
63 111 192
63 110 190
63 111 191
59 105 184
60 106 184
55 99 175
54 97 172
56 102 183
52 94 170
55 101 183
50 91 167
50 92 168
48 89 165
48 90 168
48 91 173
44 82 159
43 81 156
37 73 148
39 74 151
42 80 158
91 117 176
155 178 218
60 106 182
71 121 202
69 117 195
69 119 199
69 118 198
69 118 196
69 119 199
68 118 198
70 120 202
69 119 199
72 122 203
70 119 200
68 117 196
69 117 195
71 120 200
69 118 196
72 123 205
73 124 206
75 126 207
70 120 200
72 121 199
70 119 198
72 123 203
68 118 198
72 121 202
71 121 201
67 115 194
72 122 202
70 119 199
70 120 200
73 124 206
72 122 202
70 120 200
72 122 203
74 125 206
69 118 196
70 119 200
71 121 202
72 123 205
69 119 198
69 118 196
73 124 205
71 121 202
72 123 203
71 121 202
69 117 195
71 121 201
69 118 195
69 118 197
72 122 201
72 122 203
70 120 200
71 120 199
71 121 200
72 122 200
68 116 194
71 120 198
71 121 201
71 119 195
70 118 196
71 120 199
70 119 195
69 118 195
69 118 196
70 119 196
70 118 194
70 118 195
68 115 192
68 116 192
68 114 184
68 114 185
68 114 185
66 110 173
65 108 172
131 132 124
132 125 82
92 93 64
39 51 36
40 54 40
44 57 42
48 63 47
46 61 48
48 65 52
51 68 55
55 75 64
60 79 64
54 73 61
58 80 71
56 76 65
56 78 70
58 80 72
63 85 74
65 89 81
90 102 85
94 103 84
128 129 97
135 132 95
140 136 97
165 154 102
174 160 104
179 163 104
174 160 103
177 162 104
177 162 104
171 158 102
178 163 104
174 159 103
180 165 105
180 164 105
181 165 106
182 166 106
176 161 104
177 162 103
181 165 105
185 168 107
185 168 107
179 164 105
181 165 105
178 162 104
179 164 105
177 162 104
175 160 103
180 164 104
183 167 106
174 160 103
170 157 101
178 162 104
174 160 103
178 163 104
178 163 105
180 164 105
181 165 105
184 168 107
183 167 106
178 163 105
178 163 105
184 167 106
179 163 105
184 168 107
181 165 105
180 165 105
182 166 106
184 167 107
179 163 105
188 170 108
184 167 107
184 168 107
187 170 108
182 166 106
190 172 109
186 169 107
188 171 108
182 166 106
184 167 107
186 169 107
179 164 106
177 162 104
179 163 104
184 168 107
188 171 109
183 167 107
178 162 104
182 166 106
182 166 106
189 171 109
185 168 107
182 166 106
182 166 106
182 166 106
184 167 107
177 160 102
163 149 95
216 229 247
222 236 255
222 236 255
222 236 255
222 236 255
222 236 255
222 236 255
222 236 255
222 236 255
222 236 255
222 236 255
222 236 255
222 236 255
222 236 255
222 236 255
222 236 255
222 236 255
222 236 255
222 236 255
222 236 255
222 236 255
222 236 255
222 236 255
222 236 255
222 236 255
222 236 255
222 236 255
222 236 255
222 236 255
222 236 255
222 236 255
222 236 255
222 236 255
222 236 255
222 236 255
222 236 255
222 236 255
222 236 255
222 236 255
222 236 255
222 236 255
222 236 255
222 236 255
222 236 255
222 236 255
222 236 255
222 236 255
222 236 255
222 236 255
221 235 255
199 218 242
199 218 242
199 218 242
199 218 242
199 218 242
199 218 242
199 218 242
200 218 242
200 218 242
200 218 242
200 218 242
200 218 242
200 218 242
200 218 242
200 218 242
200 218 242
200 218 242
200 218 242
200 219 242
200 218 242
200 219 242
200 219 242
200 219 242
200 219 242
200 219 242
201 219 242
201 219 242
201 219 242
200 218 242
194 213 237
192 211 235
192 211 235
190 208 233
178 198 225
182 201 227
185 204 229
178 198 225
175 195 222
178 198 223
171 191 219
168 189 216
166 187 215
160 181 210
164 185 212
164 185 213
161 182 211
153 176 206
160 181 209
152 174 204
148 171 201
153 175 203
148 171 201
145 168 199
147 170 201
142 166 197
144 166 196
140 164 195
139 163 195
141 164 195
140 164 195
141 165 195
141 164 195
139 164 195
140 164 195
140 164 195
140 164 195
139 163 194
140 164 195
140 164 195
141 164 195
140 164 194
138 162 193
141 165 195
137 162 194
141 165 195
138 162 194
60 107 186
62 108 187
59 104 182
59 105 181
58 104 180
58 103 181
57 101 176
56 100 177
56 101 181
54 98 176
49 90 164
52 95 173
47 88 163
46 85 159
41 78 151
45 85 161
38 73 148
45 82 155
34 68 141
40 76 147
140 162 204
153 178 223
67 116 198
70 119 200
68 116 197
66 115 194
70 119 198
71 121 202
68 116 194
69 119 199
72 123 203
68 117 197
70 119 199
72 122 202
72 123 204
68 116 195
68 117 196
69 118 197
72 122 202
71 122 202
71 121 201
72 122 200
72 122 204
71 121 201
70 120 201
73 124 205
71 121 202
74 125 208
69 117 196
70 119 199
70 120 201
73 123 203
73 124 206
68 116 194
69 117 195
70 120 200
69 118 198
73 123 203
72 123 204
71 121 201
72 122 202
73 123 203
73 123 204
72 121 199
73 124 205
70 119 199
70 120 201
73 124 206
71 120 200
73 123 203
71 121 203
70 119 199
67 114 189
70 119 199
71 120 197
71 120 198
69 117 195
72 122 202
71 120 199
68 116 195
70 118 196
69 117 192
70 118 197
71 121 201
70 118 191
69 115 187
67 115 191
69 116 191
69 116 187
71 120 196
70 117 188
72 121 200
71 118 192
70 116 182
67 111 177
65 108 167
125 126 108
119 115 77
78 82 56
37 51 38
42 55 41
47 63 52
42 56 42
50 70 60
50 66 50
50 68 58
53 71 58
52 69 56
59 80 69
57 77 66
58 81 74
57 76 65
56 78 72
56 78 70
63 86 78
88 101 84
114 119 90
126 126 91
137 133 94
152 144 97
154 144 97
163 152 101
165 152 99
171 158 102
172 158 102
165 153 99
167 154 100
171 158 101
174 160 102
178 162 104
178 162 104
173 159 102
175 161 103
176 161 103
176 161 104
176 161 103
168 156 101
173 159 102
169 155 100
176 161 103
180 164 105
173 158 102
178 163 104
170 157 101
183 166 105
169 156 101
173 158 102
169 156 101
174 160 103
181 165 105
170 157 101
176 161 103
172 158 102
170 157 101
178 163 104
174 159 102
173 159 102
177 162 104
176 161 103
177 162 103
175 160 103
175 160 103
177 162 104
176 161 103
173 158 102
176 161 103
184 167 106
178 162 103
180 164 105
178 163 104
176 161 103
181 165 105
179 163 104
179 163 105
178 163 104
193 174 110
168 155 101
175 161 103
182 165 105
180 165 105
192 173 109
184 167 106
177 162 104
188 170 108
185 168 107
178 163 104
178 163 104
178 163 104
185 168 107
184 168 107
182 165 105
177 161 103
180 164 105
156 143 91
220 233 252
222 236 255
222 236 255
222 236 255
222 236 255
222 236 255
222 236 255
222 236 255
222 236 255
222 236 255
222 236 255
222 236 255
222 236 255
222 236 255
222 236 255
222 236 255
222 236 255
222 236 255
222 236 255
222 236 255
222 236 255
222 236 255
222 236 255
222 236 255
222 236 255
222 236 255
222 236 255
222 236 255
222 236 255
222 236 255
222 236 255
222 236 255
222 236 255
222 236 255
222 236 255
222 236 255
222 236 255
222 236 255
222 236 255
222 236 255
222 236 255
222 236 255
222 236 255
222 236 255
222 236 255
222 236 255
222 236 255
222 236 255
222 236 255
222 236 255
199 218 243
199 218 242
199 218 242
200 218 242
200 218 242
200 218 242
200 218 242
200 219 242
200 219 242
200 219 242
200 219 242
201 219 242
201 219 242
201 219 242
201 219 242
194 213 237
190 209 234
184 203 229
182 201 226
176 196 222
180 200 225
166 187 214
166 186 214
163 184 211
148 170 201
147 170 200
146 169 200
139 164 195
140 164 195
141 165 195
140 164 195
139 163 195
140 164 195
140 163 194
139 164 195
140 164 195
141 165 195
142 165 195
139 163 195
141 165 195
140 164 195
140 164 195
140 163 194
141 164 195
141 165 195
140 163 195
140 164 195
141 165 195
140 164 195
140 164 195
140 164 195
138 163 195
141 165 195
141 165 195
140 164 194
140 164 195
140 163 194
140 163 194
140 164 195
139 163 194
140 164 195
138 161 192
137 161 194
141 164 195
140 163 192
140 163 193
141 164 194
141 165 195
141 164 195
138 163 194
139 163 192
139 163 194
140 163 194
138 162 192
136 160 191
140 162 190
73 113 181
59 104 180
61 107 186
60 106 185
59 104 182
55 99 175
57 102 179
55 99 176
50 90 163
49 90 164
50 92 170
52 93 167
43 81 158
47 87 163
43 82 157
41 78 152
43 82 159
44 80 151
33 68 144
39 75 146
118 144 187
123 151 197
68 116 196
65 113 191
70 120 202
66 113 192
66 114 192
67 115 195
66 114 191
71 121 203
70 120 201
72 121 201
67 115 192
69 118 197
71 120 199
72 122 203
69 117 196
70 120 200
70 119 197
74 125 206
68 116 195
71 121 202
71 121 201
69 118 197
69 118 198
72 122 204
73 123 203
71 121 201
73 124 204
71 121 201
71 122 203
72 122 203
69 118 198
71 122 203
72 122 203
71 120 199
69 118 197
70 120 200
70 119 197
70 118 196
68 117 197
69 119 199
71 121 200
69 118 196
71 121 201
71 120 200
70 119 197
71 121 200
71 121 200
69 119 199
69 118 197
72 121 201
72 121 198
70 118 196
67 115 192
73 123 202
69 118 195
72 122 202
67 114 188
70 119 197
71 121 201
71 121 200
71 119 193
66 113 188
69 118 194
72 120 194
68 115 189
72 121 198
70 119 196
67 113 182
71 118 187
67 113 186
66 109 173
67 110 172
68 110 170
68 113 177
147 143 123
137 131 88
89 89 61
44 58 43
39 52 37
48 63 48
45 59 46
46 61 49
50 65 51
55 75 65
55 76 67
53 71 59
53 72 64
55 75 64
52 73 66
58 81 72
55 77 70
62 88 82
69 87 75
87 97 80
111 115 86
124 123 89
117 119 89
133 129 90
150 142 96
157 148 99
167 154 100
164 152 99
171 157 101
157 147 97
164 152 99
164 152 99
165 153 99
165 153 99
162 150 98
170 156 100
166 153 100
168 155 101
166 154 100
161 149 98
162 151 98
170 157 101
168 156 101
172 158 102
176 161 103
167 155 100
170 156 100
166 154 100
173 159 102
170 156 100
170 156 101
176 161 103
171 157 101
165 153 99
169 155 100
170 156 101
168 155 100
177 162 103
175 160 102
171 157 102
169 156 101
165 152 99
172 158 102
171 157 101
175 160 103
176 161 103
164 152 98
168 154 100
172 158 102
173 159 102
177 162 103
179 163 105
175 161 103
175 160 103
173 158 102
175 161 103
173 159 102
172 158 102
176 160 103
178 163 104
174 160 103
177 161 103
177 162 104
181 165 105
173 159 103
181 165 105
181 165 106
182 166 106
187 169 107
176 161 103
184 167 106
181 165 105
174 159 102
183 166 106
183 167 107
175 160 103
165 151 97
165 152 107
222 236 255
222 236 255
222 236 255
222 236 255
222 236 255
222 236 255
222 236 255
222 236 255
222 236 255
222 236 255
222 236 255
222 236 255
222 236 255
222 236 255
222 236 255
222 236 255
222 236 255
222 236 255
222 236 255
222 236 255
222 236 255
222 236 255
222 236 255
222 236 255
222 236 255
222 236 255
222 236 255
222 236 255
222 236 255
222 236 255
222 236 255
222 236 255
222 236 255
222 236 255
222 236 255
222 236 255
222 236 255
222 236 255
222 236 255
222 236 255
222 236 255
222 236 255
222 236 255
222 236 255
222 236 255
222 236 255
222 236 255
222 236 255
222 236 255
222 236 255
206 223 246
200 218 242
200 218 242
200 218 242
200 219 242
201 219 242
201 219 242
201 219 242
199 217 240
187 206 231
177 197 222
168 188 215
164 185 212
148 171 201
143 166 196
140 164 195
141 165 195
140 164 195
140 164 195
141 164 195
141 165 195
141 164 195
139 164 195
142 165 195
141 165 195
141 164 195
141 165 195
139 163 195
142 165 195
141 165 195
140 164 195
140 164 195
141 164 195
138 163 195
140 164 195
141 165 195
138 163 194
138 163 195
141 164 195
140 164 195
140 164 195
140 163 193
142 165 195
140 164 195
137 162 195
141 164 195
140 164 195
139 163 195
140 164 195
141 164 195
139 163 195
141 165 195
140 164 195
139 163 194
140 164 195
139 163 194
138 163 195
139 163 195
141 164 195
137 162 193
142 165 195
140 164 195
140 163 194
139 163 193
137 161 193
139 163 193
138 162 193
140 164 195
141 164 195
139 163 195
137 161 192
139 162 190
140 162 190
138 162 191
138 161 191
133 155 181
96 126 177
57 102 177
59 105 182
57 101 175
59 103 178
56 101 177
57 101 177
55 97 172
47 87 163
51 92 168
52 94 167
51 93 169
45 83 157
42 78 148
46 85 157
42 80 156
40 76 149
36 70 144
35 69 143
50 88 162
137 162 196
127 153 194
63 111 190
63 109 186
72 122 203
66 114 190
68 116 193
71 121 203
69 119 200
71 121 202
67 116 195
68 116 195
71 122 204
66 115 195
68 116 195
69 119 199
69 118 196
66 114 191
71 121 201
69 119 199
68 116 192
70 119 198
69 118 199
71 119 197
70 119 198
70 119 199
69 119 200
74 125 208
70 120 200
70 120 200
72 122 202
70 119 199
70 119 199
69 118 197
69 118 197
69 118 197
70 119 198
69 118 197
69 116 193
67 115 193
74 124 204
70 119 196
70 120 199
71 121 201
71 121 202
71 120 198
71 121 202
68 116 194
71 121 202
70 119 197
68 116 193
69 117 194
71 120 196
72 122 200
71 120 199
68 116 194
71 120 200
68 116 195
74 125 206
69 116 190
71 121 201
70 118 196
69 117 193
68 115 188
66 113 188
69 117 194
73 123 201
73 123 202
66 112 184
68 114 187
70 117 190
67 113 183
69 116 188
66 111 179
70 116 184
67 111 175
159 151 116
145 135 88
92 92 64
57 66 50
43 58 46
43 57 42
42 56 43
42 57 45
49 66 53
51 69 58
50 69 59
55 74 62
57 77 66
56 76 66
58 76 61
57 79 71
55 77 72
61 83 75
66 85 74
92 102 83
97 105 84
105 110 84
117 118 87
137 133 93
141 135 91
154 144 94
150 141 93
159 148 97
161 149 97
154 144 95
163 151 98
158 147 96
155 145 96
162 150 98
155 145 95
152 143 94
151 142 94
162 150 98
166 153 100
160 149 97
161 149 96
155 146 96
160 149 97
161 150 98
169 155 100
163 151 98
172 158 101
164 152 99
163 151 97
157 147 96
165 152 99
162 151 98
166 153 98
164 152 99
166 153 99
164 152 99
172 158 102
163 151 98
171 156 100
169 155 100
167 153 98
168 155 100
165 153 99
161 150 98
162 150 97
172 158 101
172 158 101
162 151 98
167 155 100
167 154 100
170 156 101
171 157 101
167 154 100
166 154 100
176 161 103
180 164 105
172 158 102
166 153 99
178 163 104
177 162 104
171 158 102
172 158 102
175 161 103
179 164 105
170 156 100
177 162 104
175 160 103
175 160 103
174 160 102
181 165 105
174 159 101
174 160 103
176 161 102
182 165 105
180 164 105
177 161 103
164 149 95
159 154 133
222 236 255
222 236 255
222 236 255
222 236 255
222 236 255
222 236 255
222 236 255
222 236 255
222 236 255
222 236 255
222 236 255
222 236 255
222 236 255
222 236 255
222 236 255
222 236 255
222 236 255
222 236 255
222 236 255
222 236 255
222 236 255
222 236 255
222 236 255
222 236 255
222 236 255
222 236 255
222 236 255
222 236 255
222 236 255
222 236 255
222 236 255
222 236 255
222 236 255
222 236 255
222 236 255
222 236 255
222 236 255
222 236 255
222 236 255
222 236 255
222 236 255
222 236 255
222 236 255
222 236 255
222 236 255
222 236 255
222 236 255
222 236 255
222 236 255
222 236 255
209 226 248
200 218 242
200 219 242
201 219 242
201 219 242
187 206 231
174 194 221
152 175 205
144 167 198
140 164 195
140 164 195
140 164 195
142 165 195
141 165 195
141 164 195
141 165 195
140 164 195
139 164 195
140 164 195
139 164 195
141 165 195
140 164 195
139 163 195
141 165 195
140 164 195
140 164 195
142 165 195
141 165 195
142 165 195
142 165 195
141 165 195
140 164 195
140 163 194
141 164 195
140 164 195
140 164 195
140 164 195
140 164 195
141 164 195
140 163 194
140 164 195
139 163 194
138 162 194
140 164 195
140 164 194
138 163 195
139 163 194
140 164 195
141 164 194
138 162 194
139 162 193
138 161 193
141 164 195
140 163 194
141 164 195
140 164 195
141 165 195
140 163 194
140 164 195
138 161 192
135 160 192
137 161 192
138 161 192
137 160 190
140 163 194
133 156 185
138 162 193
136 160 192
140 163 195
136 159 189
134 156 183
133 157 190
138 160 189
132 155 185
134 155 182
134 156 182
117 144 185
60 106 183
57 102 177
57 102 179
53 95 166
53 95 170
55 97 170
49 90 162
52 94 167
52 95 170
50 91 163
51 93 171
48 88 160
46 84 158
44 82 153
46 85 155
34 66 135
40 77 151
38 71 143
78 110 171
141 165 195
136 160 194
62 109 186
66 114 192
69 117 195
65 113 191
66 112 186
69 118 196
68 117 196
68 117 195
70 119 199
68 116 195
69 118 199
72 123 204
66 114 190
68 116 196
68 116 195
67 115 195
70 119 199
68 116 194
68 116 196
71 121 202
69 118 197
68 116 195
70 120 200
69 119 200
70 119 198
71 120 198
69 118 198
71 120 199
70 119 200
70 119 198
67 114 191
71 121 202
71 120 199
74 126 208
71 121 201
71 121 202
67 115 193
71 120 198
67 116 194
70 118 197
68 116 194
70 120 201
68 117 196
73 123 203
70 118 196
67 114 190
69 118 197
69 118 198
73 122 202
71 121 200
70 119 196
71 119 196
68 116 194
72 122 201
66 113 189
69 117 193
70 119 197
70 119 199
71 121 202
71 120 197
69 116 192
70 119 196
70 117 191
70 117 192
70 117 190
70 118 194
66 113 188
70 117 188
68 113 183
62 106 173
65 109 175
66 111 178
67 110 174
63 105 168
157 148 105
154 143 92
110 107 73
69 75 56
42 55 42
44 59 46
44 60 50
50 67 55
48 62 46
46 63 52
50 68 57
51 69 59
54 73 62
56 78 71
53 74 68
56 76 67
55 77 69
61 82 75
72 91 80
80 94 78
98 103 79
104 108 82
118 119 87
126 123 86
135 131 90
145 137 91
140 133 90
146 138 92
144 137 91
148 140 93
147 139 92
148 139 92
153 142 92
152 143 93
156 146 95
160 149 98
150 141 93
159 147 96
147 139 92
152 144 95
158 146 95
160 149 98
153 143 94
150 142 94
160 149 97
161 149 97
157 147 96
155 145 95
151 142 94
152 142 93
157 147 96
156 145 95
161 149 97
156 146 95
156 146 95
161 150 97
163 151 98
156 145 94
158 146 94
164 152 99
160 149 96
164 151 98
168 155 100
165 153 99
163 151 98
164 151 98
157 147 96
166 153 99
173 159 102
166 153 99
165 152 98
170 156 101
170 157 101
171 157 101
162 150 98
164 152 99
174 159 101
167 154 100
165 152 98
167 154 99
173 159 102
171 158 102
177 161 103
166 153 99
171 157 101
169 156 101
174 160 103
172 158 102
174 160 103
178 163 104
175 160 102
176 161 103
176 161 103
177 162 103
167 154 99
169 155 100
158 146 94
176 181 182
222 236 255
222 236 255
222 236 255
222 236 255
222 236 255
222 236 255
222 236 255
222 236 255
222 236 255
222 236 255
222 236 255
222 236 255
222 236 255
222 236 255
222 236 255
222 236 255
222 236 255
222 236 255
222 236 255
222 236 255
222 236 255
222 236 255
222 236 255
222 236 255
222 236 255
223 236 255
223 236 255
223 236 255
223 236 255
223 236 255
223 236 255
223 236 255
223 236 255
223 236 255
223 236 255
223 236 255
223 236 255
223 236 255
223 236 255
223 236 255
223 236 255
223 236 255
223 236 255
223 236 255
223 236 255
223 236 255
223 236 255
223 236 255
223 236 255
223 236 255
217 232 252
200 219 242
201 219 242
193 212 236
156 177 206
141 165 195
140 164 195
140 164 195
141 165 195
140 164 195
141 165 195
143 166 195
141 164 195
141 165 195
140 164 195
141 165 195
142 165 195
140 164 195
140 164 195
140 164 194
140 164 195
140 164 195
139 163 195
141 165 195
139 163 195
139 163 194
141 165 195
140 163 194
139 163 195
142 165 195
138 162 194
140 164 195
142 165 195
139 163 195
140 164 194
140 164 195
137 161 194
138 163 195
139 164 195
139 163 194
138 162 195
140 164 195
141 165 195
139 163 195
137 161 193
139 163 195
140 164 195
138 162 194
138 162 193
138 161 192
140 164 195
137 161 192
141 165 195
136 160 190
139 163 195
139 162 193
139 164 195
139 162 191
137 162 195
139 162 192
135 158 189
138 161 193
135 158 189
139 162 192
137 159 188
137 161 192
137 160 190
134 159 192
138 160 189
136 159 189
136 160 191
130 153 186
134 156 184
129 152 182
128 150 179
129 149 173
128 149 175
65 107 179
58 102 178
56 99 172
51 92 164
53 94 166
54 98 172
54 97 172
52 94 169
49 87 155
52 93 166
43 80 152
49 88 160
44 81 150
38 74 147
41 77 147
39 73 141
41 77 150
43 77 145
123 149 188
137 161 192
140 164 195
74 116 189
66 114 194
66 113 191
67 115 194
69 117 196
72 123 204
69 118 198
71 121 201
70 119 200
68 115 193
66 113 191
67 114 192
73 123 204
70 119 199
67 114 191
67 114 192
69 118 198
69 118 196
71 120 199
71 120 200
70 119 199
70 120 200
69 119 199
69 118 196
66 113 191
69 117 197
71 121 201
71 121 202
68 117 196
69 119 199
70 119 199
72 123 203
70 119 197
70 120 200
72 122 203
69 119 199
71 121 200
70 119 198
71 120 200
71 120 200
67 113 187
70 120 200
72 123 203
70 119 196
67 114 190
70 119 199
69 118 197
70 120 199
72 122 202
68 115 191
70 119 196
69 116 191
70 118 195
70 120 199
72 122 202
71 119 194
67 115 191
69 116 192
71 120 199
68 116 191
66 113 189
68 114 184
66 111 183
68 115 188
70 118 195
67 112 179
69 116 190
68 115 188
68 113 183
64 107 172
64 107 174
64 107 171
67 112 182
64 102 157
155 146 100
161 149 97
111 110 77
80 86 64
65 74 55
45 60 48
46 59 46
41 53 39
46 62 52
48 65 54
47 64 55
50 69 59
56 76 66
52 70 60
51 70 62
54 74 64
59 83 75
69 87 77
70 86 74
84 91 72
89 98 79
102 107 81
124 122 87
118 117 84
125 122 85
138 132 88
131 126 86
134 129 86
141 135 91
144 136 89
146 138 92
136 130 87
142 135 91
140 134 90
144 137 92
142 136 90
141 134 90
142 135 90
143 137 91
150 142 94
147 138 91
144 136 90
142 135 91
147 139 92
154 144 94
152 143 94
152 143 95
147 139 92
157 146 96
152 142 93
147 139 92
153 144 95
156 146 95
152 143 94
151 142 93
156 145 95
149 141 93
157 147 96
158 147 96
159 147 95
152 143 95
157 147 96
156 146 95
157 146 95
163 152 99
162 150 97
158 147 96
164 151 98
162 150 97
163 151 98
167 153 99
161 149 97
162 150 98
166 153 99
159 148 96
157 147 96
163 150 97
167 154 100
161 149 97
166 153 99
170 156 100
168 155 100
172 157 101
174 160 102
172 158 101
166 153 99
176 161 103
179 163 103
178 162 103
168 155 100
178 162 104
176 161 103
184 167 106
175 160 103
173 158 101
174 159 101
155 141 90
193 200 206
223 236 255
223 236 255
223 236 255
223 236 255
223 236 255
223 236 255
223 236 255
223 236 255
223 236 255
223 236 255
223 236 255
223 236 255
223 236 255
223 236 255
223 236 255
223 236 255
223 236 255
223 236 255
223 236 255
223 236 255
223 236 255
223 236 255
223 236 255
223 236 255
223 236 255
223 236 255
223 236 255
223 236 255
223 236 255
223 236 255
223 236 255
223 236 255
223 236 255
223 236 255
223 236 255
223 236 255
223 236 255
223 236 255
223 236 255
223 236 255
223 236 255
223 236 255
223 236 255
223 236 255
223 236 255
223 236 255
223 236 255
223 236 255
223 236 255
223 236 255
221 235 254
200 219 242
189 208 232
144 167 197
141 165 195
141 164 195
140 164 195
140 164 195
138 163 195
141 165 195
141 165 195
142 165 195
141 165 195
140 164 195
141 164 195
139 163 195
141 165 195
141 164 195
140 164 195
139 163 195
140 164 195
139 163 195
141 165 195
140 164 195
139 164 195
139 163 194
140 164 195
138 162 194
140 164 195
140 164 195
141 165 195
140 164 195
139 163 195
140 164 195
140 164 195
138 163 195
140 164 195
140 163 194
139 163 194
141 164 195
138 162 194
139 163 195
139 163 195
139 163 194
139 163 194
138 162 193
140 164 195
137 161 192
140 164 195
137 161 193
140 164 195
136 159 191
141 164 195
139 163 194
135 159 190
134 158 191
139 163 194
133 157 190
137 161 192
133 158 192
136 160 192
136 161 193
138 161 191
135 158 189
134 157 188
134 158 189
136 159 191
136 160 190
132 156 187
135 158 189
126 150 182
128 151 183
126 149 182
126 148 178
124 146 177
126 145 171
124 144 171
91 118 163
56 99 173
57 101 176
56 100 174
56 99 174
55 98 171
48 88 159
50 90 163
48 87 159
47 86 157
44 81 151
46 84 156
45 83 154
39 74 140
39 74 142
41 76 143
44 80 149
77 105 158
136 159 190
139 163 193
138 161 191
89 123 183
66 114 194
62 108 183
67 116 194
69 117 196
68 117 197
67 115 193
64 110 186
69 118 196
74 125 208
72 122 202
71 120 199
68 116 194
69 118 198
68 116 194
66 113 190
70 120 199
71 121 201
70 120 200
68 116 194
66 114 192
67 114 192
72 122 202
69 117 195
67 115 193
68 116 194
71 121 202
69 117 196
71 120 199
65 112 187
68 117 196
68 116 194
69 119 200
68 116 195
68 117 194
70 119 198
70 119 198
71 121 201
70 119 200
68 116 194
73 123 203
72 122 202
69 118 198
72 123 205
69 117 194
71 122 203
70 119 197
71 120 200
68 116 191
65 112 190
72 122 203
70 119 196
67 114 190
71 121 200
67 114 192
68 117 195
67 115 192
69 117 194
70 118 195
62 107 180
68 115 191
67 114 189
69 117 191
71 120 198
68 117 196
66 111 181
70 117 191
68 115 188
67 113 185
65 110 179
67 112 180
65 108 170
66 108 167
100 118 148
150 140 92
149 140 93
135 128 86
106 104 71
78 82 60
61 69 54
41 57 48
47 63 50
43 56 41
49 66 54
47 64 53
47 65 59
49 67 59
54 74 65
59 81 73
52 72 66
62 79 68
61 81 74
83 91 72
95 99 72
85 95 75
104 107 80
116 116 84
121 119 85
129 125 86
134 130 89
127 123 84
132 127 87
128 123 84
139 133 89
141 136 91
139 132 88
136 132 89
141 135 90
138 132 90
138 133 90
140 134 90
142 136 90
141 134 89
142 136 91
139 133 88
141 135 91
144 137 91
144 137 91
144 137 91
140 134 89
144 137 91
144 138 92
145 138 92
146 139 92
144 137 91
144 137 91
150 141 93
145 138 91
151 142 94
144 137 91
146 139 92
151 142 93
146 138 91
149 141 93
150 142 93
154 145 95
154 144 94
152 143 95
153 143 94
158 147 96
150 141 93
160 148 95
153 144 94
160 149 97
158 146 95
155 146 96
158 147 96
158 148 96
163 151 98
164 152 98
166 154 100
155 145 95
170 156 101
157 147 96
162 150 96
173 158 102
166 154 100
166 153 99
172 158 101
166 154 100
171 157 101
171 157 101
170 156 100
163 152 99
174 159 102
173 159 102
170 156 101
169 156 101
173 159 102
148 136 88
143 131 83
214 226 241
223 236 255
223 236 255
223 236 255
223 236 255
223 236 255
223 236 255
223 236 255
223 236 255
223 236 255
223 236 255
223 236 255
223 236 255
223 236 255
223 236 255
223 236 255
223 236 255
223 236 255
223 236 255
223 236 255
223 236 255
223 236 255
223 236 255
223 236 255
223 236 255
223 236 255
223 236 255
223 236 255
223 236 255
223 236 255
223 237 255
223 237 255
223 237 255
223 237 255
223 237 255
223 237 255
223 237 255
223 237 255
223 237 255
223 237 255
223 237 255
223 237 255
223 237 255
223 237 255
223 237 255
223 237 255
223 237 255
223 237 255
223 237 255
223 237 255
223 237 255
223 237 255
204 222 245
164 185 213
140 164 195
140 164 195
141 165 195
141 165 195
140 164 195
141 165 195
140 164 195
140 164 195
141 165 195
139 164 195
139 163 195
141 164 195
139 162 193
141 164 194
140 163 194
140 163 194
139 164 195
140 163 195
140 164 195
139 163 195
141 164 195
135 161 194
138 162 194
140 164 195
139 164 195
139 163 194
138 162 194
139 163 195
138 163 195
138 163 194
140 163 194
138 162 194
141 164 194
138 162 193
138 163 194
139 163 194
137 160 192
138 162 195
137 161 193
141 163 193
137 161 193
141 164 194
140 163 193
139 162 194
137 160 190
137 161 193
139 163 194
135 160 192
135 159 191
137 162 194
138 162 193
135 161 194
134 158 190
136 161 194
132 155 186
134 158 190
136 159 189
136 160 191
134 158 190
134 158 189
133 157 188
132 157 190
133 157 190
135 159 192
134 157 189
127 152 187
130 154 188
130 153 183
123 147 180
123 146 178
132 154 185
120 145 181
119 141 173
120 142 172
100 122 160
62 93 152
51 91 161
53 95 167
56 99 172
52 93 164
49 88 158
48 87 158
52 93 166
47 86 157
45 82 151
48 88 160
47 85 155
45 82 152
39 73 141
42 78 149
55 87 152
128 151 182
136 160 191
137 160 191
139 163 194
117 145 197
65 112 191
69 117 194
67 115 192
69 117 194
64 111 188
66 113 190
68 116 194
67 115 194
68 117 197
68 117 196
66 113 190
65 112 189
69 117 195
69 117 194
72 122 203
69 118 198
69 118 198
68 117 196
70 119 199
67 114 192
65 113 193
67 114 190
69 119 198
68 116 195
67 115 193
68 117 196
69 117 196
72 121 201
68 116 194
69 117 195
69 118 198
69 119 199
71 121 201
70 119 198
69 118 196
71 120 200
68 117 196
71 121 201
70 120 199
69 117 195
69 118 196
69 118 197
72 122 202
71 120 200
70 119 199
73 124 203
68 117 194
69 118 198
69 118 199
72 121 200
72 120 197
71 120 198
71 120 198
68 115 191
70 119 198
71 120 197
68 116 192
66 112 186
67 113 185
65 111 185
70 119 197
68 115 188
70 118 196
69 115 187
66 112 184
66 111 180
68 116 190
68 112 177
64 108 176
68 115 186
68 112 176
62 103 164
117 134 164
153 142 92
160 148 96
143 135 90
119 116 79
79 84 63
73 79 60
57 69 54
46 60 49
46 61 47
49 67 58
47 64 54
45 60 49
49 67 59
48 65 56
52 71 62
52 70 62
62 80 71
72 84 69
85 90 68
88 96 77
84 92 73
107 109 80
106 108 80
117 114 80
128 123 83
130 126 86
124 122 85
131 126 86
136 130 87
135 129 86
139 133 89
131 126 86
134 128 86
131 127 86
137 131 87
138 132 89
135 130 88
137 132 88
143 136 90
140 133 89
142 135 89
140 134 89
144 137 91
142 135 91
140 134 90
141 133 88
141 135 90
141 135 89
143 135 89
143 137 91
144 137 91
141 134 90
143 136 90
139 132 87
143 136 90
141 135 90
144 137 90
143 137 91
143 136 90
146 137 90
144 137 91
144 137 90
146 139 92
149 140 92
147 139 91
150 141 93
150 141 92
150 142 94
147 139 92
153 143 94
154 144 94
156 144 93
151 142 93
158 147 95
160 149 97
157 146 95
158 147 95
152 142 93
159 148 97
160 148 96
157 147 96
160 150 98
158 147 95
170 157 101
167 154 99
167 155 100
166 153 99
168 155 100
165 152 98
168 154 99
167 154 99
170 157 101
172 158 102
170 156 101
171 157 101
148 136 88
165 161 141
223 237 255
223 237 255
223 237 255
223 237 255
223 237 255
223 237 255
223 237 255
223 237 255
223 237 255
223 237 255
223 237 255
223 237 255
223 237 255
223 237 255
223 237 255
223 237 255
223 237 255
223 237 255
223 237 255
223 237 255
223 237 255
223 237 255
223 237 255
223 236 255
223 236 255
223 236 255
223 237 255
223 237 255
223 237 255
223 237 255
223 237 255
223 237 255
223 237 255
223 237 255
223 237 255
223 237 255
223 237 255
223 237 255
223 237 255
223 237 255
223 237 255
223 237 255
223 237 255
223 237 255
223 237 255
223 237 255
223 237 255
223 237 255
223 237 255
223 237 255
223 237 255
223 237 255
214 229 250
150 173 203
140 164 195
141 165 195
141 164 195
140 164 195
140 164 195
140 164 195
141 164 195
140 164 195
140 164 194
139 163 195
142 165 195
140 164 195
139 163 194
141 164 195
140 164 195
139 163 194
139 163 194
139 164 195
140 164 195
142 165 195
140 164 195
139 163 194
137 162 194
138 162 194
140 164 195
139 163 194
140 164 195
139 164 195
140 164 195
140 164 195
137 161 193
141 164 195
137 162 193
137 161 191
138 161 193
139 163 194
139 163 194
136 160 192
139 163 193
137 162 194
139 162 193
138 162 194
138 162 193
138 162 194
139 163 195
138 162 194
137 161 193
138 163 195
136 159 191
132 156 189
127 151 186
138 162 194
133 158 190
137 160 190
137 161 192
134 158 190
137 161 192
131 155 189
129 153 187
126 151 187
128 152 184
131 155 189
128 152 186
135 158 189
127 151 184
122 146 181
125 150 184
130 154 188
130 154 186
122 145 178
120 143 176
121 144 176
110 130 161
110 132 163
112 132 163
88 110 150
66 101 164
51 90 158
51 91 162
48 87 158
47 85 154
46 84 150
48 87 157
41 77 144
48 87 157
48 87 160
42 78 147
38 71 134
44 80 146
51 87 154
114 139 178
123 146 178
134 159 192
138 160 188
140 164 196
137 161 199
63 108 184
65 112 190
64 110 187
67 114 189
63 109 185
64 111 189
68 116 194
69 118 198
72 122 202
68 116 193
72 121 201
69 118 196
72 122 202
68 116 193
64 111 189
69 118 197
70 120 200
68 116 194
70 120 200
71 120 199
69 118 198
70 120 200
69 118 196
69 118 198
68 117 196
70 119 197
67 115 193
67 114 192
69 118 197
71 120 201
69 117 195
72 121 202
70 119 198
68 116 195
69 116 192
71 120 201
67 115 191
70 119 199
66 112 188
68 116 193
69 118 196
71 121 201
71 121 200
70 119 196
68 116 194
69 118 196
72 121 199
68 116 194
70 119 196
67 116 196
68 116 191
68 115 191
67 115 193
67 115 192
66 112 186
67 115 190
70 118 194
72 121 198
72 121 199
66 112 186
65 111 187
67 113 189
68 115 191
67 113 185
70 118 191
67 112 182
68 114 185
65 107 172
70 116 187
67 111 177
64 107 173
62 104 167
130 151 180
145 140 112
155 145 95
143 135 90
125 120 81
115 112 77
85 90 67
71 77 57
58 71 58
44 59 50
46 63 55
49 66 57
50 66 53
52 70 63
53 72 64
62 76 65
53 69 61
66 76 64
71 80 67
93 97 74
95 96 71
97 99 73
100 103 78
112 111 80
122 118 81
123 120 83
126 122 84
123 121 84
130 125 86
132 127 86
127 121 82
139 133 89
130 125 85
132 127 86
133 128 86
137 131 89
135 129 86
139 132 87
140 134 89
138 132 88
138 133 89
141 134 89
140 133 89
135 130 88
141 134 89
137 131 87
143 136 90
142 135 90
139 133 88
141 135 91
142 134 88
142 135 90
140 133 88
141 134 88
143 134 88
143 137 91
144 137 91
141 135 91
144 136 90
144 137 91
141 135 90
144 137 91
144 137 91
143 136 90
142 136 91
146 138 91
145 136 89
145 138 91
143 136 90
146 138 91
149 141 93
148 138 90
145 138 92
148 140 93
152 142 92
155 145 95
149 141 93
154 145 95
148 139 92
161 149 96
155 145 95
160 148 96
170 156 100
164 152 98
156 146 96
157 146 95
164 151 97
164 152 99
160 148 96
164 151 97
167 153 99
167 154 100
168 155 100
172 157 101
170 156 101
163 150 96
159 145 93
179 183 183
223 237 255
223 237 255
223 237 255
223 237 255
223 237 255
223 237 255
223 237 255
223 237 255
223 237 255
223 237 255
223 237 255
223 237 255
223 237 255
223 237 255
223 237 255
223 237 255
223 237 255
223 237 255
223 237 255
223 237 255
223 237 255
223 237 255
223 237 255
223 237 255
223 237 255
223 237 255
223 237 255
223 237 255
223 237 255
223 237 255
223 237 255
223 237 255
223 237 255
223 237 255
223 237 255
223 237 255
223 237 255
223 237 255
223 237 255
223 237 255
223 237 255
223 237 255
223 237 255
223 237 255
224 237 255
224 237 255
224 237 255
224 237 255
224 237 255
224 237 255
224 237 255
224 237 255
221 235 254
160 182 210
140 164 195
138 163 195
139 163 195
141 165 195
140 164 195
139 163 194
140 164 195
140 164 195
141 164 195
140 164 195
141 164 195
140 164 195
140 164 195
139 163 195
138 162 194
142 165 195
138 162 195
139 163 195
139 163 195
139 163 195
140 164 195
141 164 195
140 164 195
140 164 194
138 162 193
139 163 195
141 164 194
140 164 195
139 163 194
137 162 194
138 162 194
138 163 195
138 163 195
137 161 193
138 162 194
138 162 193
135 159 191
141 164 195
137 161 192
140 163 193
135 160 194
139 163 195
135 158 190
137 161 192
137 161 193
138 162 193
135 159 192
136 161 193
132 157 191
134 158 192
134 158 189
135 159 191
138 162 194
136 160 191
134 157 187
133 156 188
129 153 187
130 155 189
128 152 186
130 154 187
131 155 188
136 161 193
134 158 189
127 150 181
124 147 181
130 153 186
125 149 184
125 149 183
126 150 185
121 143 176
108 133 173
115 137 169
113 136 172
104 127 165
104 125 160
101 122 155
79 100 140
53 89 154
50 89 158
47 86 157
49 89 162
50 89 160
46 84 153
42 78 145
43 79 146
44 80 148
45 81 148
41 76 143
57 88 151
107 131 171
131 155 186
134 157 189
140 164 195
138 161 192
150 172 201
151 174 204
70 108 175
63 109 185
64 110 187
66 113 191
65 112 189
67 114 193
68 115 193
67 114 192
66 113 192
67 116 195
69 117 198
70 119 197
69 117 195
67 114 189
71 121 201
68 116 194
68 116 194
69 117 195
69 118 197
68 116 195
66 113 190
68 116 193
68 116 194
70 120 200
68 116 196
68 116 192
69 119 198
73 122 201
68 116 192
68 117 195
69 118 197
70 118 196
67 115 194
71 119 195
69 118 198
72 122 201
68 117 195
69 118 197
69 117 193
68 117 197
67 115 193
70 118 197
69 117 195
71 121 200
67 115 192
67 115 192
70 118 193
69 118 197
64 109 185
71 120 199
68 116 192
68 117 196
70 118 195
71 120 197
69 117 196
69 117 195
66 113 189
71 120 200
66 112 185
70 117 192
68 114 186
70 118 194
69 115 186
69 116 189
66 112 185
63 107 175
68 115 188
69 117 191
68 112 177
65 108 173
65 107 170
71 108 162
157 178 205
140 151 163
149 140 92
147 138 91
131 125 83
118 115 80
95 95 66
76 79 58
66 74 58
58 66 50
61 72 58
52 63 53
56 69 57
54 71 63
58 68 56
54 70 63
59 68 57
58 69 58
74 82 66
82 89 71
84 90 71
94 95 70
97 98 71
107 106 76
116 114 80
120 117 81
129 124 84
135 127 84
128 123 83
129 124 84
127 124 85
134 127 85
133 128 86
133 126 84
131 126 85
133 127 85
134 129 86
137 132 89
138 131 88
139 133 89
134 127 83
142 135 90
138 131 87
143 134 87
140 133 88
138 132 89
141 133 88
136 130 86
143 136 90
139 134 89
132 128 87
140 134 89
142 135 89
143 135 89
142 136 90
141 133 88
143 136 90
143 136 91
140 133 88
143 136 91
142 135 89
143 135 88
144 137 92
141 135 90
143 135 90
140 133 89
144 136 89
143 137 91
143 134 88
143 135 89
143 137 91
141 135 91
143 136 89
149 141 93
144 138 92
144 137 91
145 138 92
147 140 93
151 142 94
150 141 92
148 139 92
149 141 93
160 148 95
154 143 93
158 147 96
158 147 95
159 147 95
162 150 98
161 150 97
156 145 94
161 150 97
155 145 95
167 154 100
163 151 98
172 158 101
162 149 96
164 150 96
219 231 246
224 237 255
224 237 255
224 237 255
224 237 255
224 237 255
224 237 255
224 237 255
224 237 255
223 237 255
223 237 255
223 237 255
223 237 255
223 237 255
223 237 255
223 237 255
223 237 255
223 237 255
223 237 255
223 237 255
223 237 255
223 237 255
223 237 255
223 237 255
223 237 255
223 237 255
223 237 255
224 237 255
224 237 255
224 237 255
224 237 255
224 237 255
224 237 255
224 237 255
224 237 255
224 237 255
224 237 255
224 237 255
224 237 255
224 237 255
224 237 255
224 237 255
224 237 255
224 237 255
224 237 255
224 237 255
224 237 255
224 237 255
224 237 255
224 237 255
224 237 255
224 237 255
224 237 255
224 237 255
179 197 222
141 164 195
140 164 195
141 164 195
140 164 195
141 164 195
140 164 195
140 164 195
140 164 195
138 162 194
139 163 195
139 163 193
140 164 195
141 165 195
139 163 195
140 163 193
139 163 194
138 162 194
141 163 193
140 164 195
140 164 195
140 163 194
139 164 195
139 163 195
138 162 193
140 164 195
139 163 194
137 161 194
137 161 194
138 161 191
139 163 195
135 159 192
139 163 195
138 162 193
138 161 192
137 161 192
137 161 192
136 161 193
135 159 191
136 160 193
136 160 192
137 161 192
138 161 191
136 160 191
138 162 194
137 161 193
136 161 193
134 158 191
134 158 191
135 160 192
136 160 193
133 157 190
135 158 190
131 155 189
134 158 190
130 154 186
134 158 192
131 156 189
131 155 188
126 149 181
128 153 189
126 149 183
121 146 182
129 152 184
129 151 182
130 153 186
124 148 182
117 141 176
117 141 176
119 143 177
114 138 174
121 144 178
118 141 177
109 131 166
104 126 160
96 117 151
88 109 145
92 112 147
81 101 138
59 85 136
47 85 151
47 84 151
41 75 140
46 83 150
41 75 138
44 81 146
47 85 152
44 80 148
68 98 152
105 128 164
122 145 179
131 155 188
127 150 182
136 159 190
135 159 192
155 176 205
157 178 206
101 133 189
61 105 180
67 114 191
65 112 190
65 111 189
64 111 187
68 116 195
66 114 192
66 114 193
71 120 200
67 116 194
66 114 193
68 116 194
65 112 188
67 115 193
70 119 198
68 116 193
66 113 189
71 121 202
71 119 197
65 113 191
67 114 192
64 111 189
66 113 191
71 120 197
70 120 200
67 115 193
67 115 191
69 118 195
68 117 196
70 120 199
68 116 193
67 115 191
67 115 193
69 118 196
68 116 193
71 121 201
70 119 198
72 121 199
70 119 199
69 118 197
71 120 199
69 119 200
65 112 187
69 117 195
67 114 192
65 111 186
70 119 199
69 116 193
69 117 194
68 115 192
69 118 197
66 112 186
66 113 188
66 112 186
65 112 189
69 117 194
69 117 192
69 117 193
67 114 189
63 108 179
64 109 183
67 113 184
70 117 190
66 112 185
64 107 174
68 113 180
70 117 187
62 106 176
67 110 172
64 104 160
95 121 162
158 179 206
156 174 197
139 129 84
142 135 89
133 128 86
131 126 86
106 105 73
97 97 70
83 86 62
77 80 58
70 72 51
62 69 55
59 67 52
63 73 63
61 72 60
55 67 56
71 79 63
69 76 62
86 88 68
83 88 69
88 88 64
99 99 72
111 111 80
103 102 73
111 109 77
115 111 77
126 122 83
126 122 83
127 122 83
131 126 85
122 119 82
126 120 81
128 123 84
127 123 84
138 131 87
133 128 86
134 128 86
133 127 84
131 125 83
136 130 87
134 129 86
137 130 86
135 130 88
138 133 90
136 130 87
138 132 89
142 135 88
139 132 88
140 134 90
136 130 87
138 131 87
141 134 90
141 135 90
140 134 90
143 136 90
142 136 91
145 137 91
141 135 90
139 133 90
140 133 89
141 135 91
145 137 91
138 132 88
142 134 88
144 135 89
142 135 90
145 136 89
144 136 90
137 131 87
140 134 88
143 137 91
141 134 89
145 137 90
146 138 92
142 135 90
144 136 90
145 137 91
144 137 91
144 136 90
150 141 93
145 137 91
150 141 92
149 140 92
151 141 93
150 141 92
152 143 93
154 145 95
151 142 94
160 148 96
162 150 98
157 147 96
160 149 97
168 155 100
163 152 99
164 151 98
141 130 83
170 165 143
224 237 255
224 237 255
224 237 255
224 237 255
224 237 255
224 237 255
224 237 255
224 237 255
224 237 255
224 237 255
224 237 255
224 237 255
224 237 255
224 237 255
224 237 255
224 237 255
224 237 255
224 237 255
224 237 255
224 237 255
224 237 255
224 237 255
224 237 255
224 237 255
224 237 255
224 237 255
224 237 255
224 237 255
224 237 255
224 237 255
224 237 255
224 237 255
224 237 255
224 237 255
224 237 255
224 237 255
224 237 255
224 237 255
224 237 255
224 237 255
224 237 255
224 237 255
224 237 255
224 237 255
224 237 255
224 237 255
224 237 255
224 237 255
224 237 255
224 237 255
224 237 255
224 237 255
224 237 255
224 237 255
206 221 242
140 164 195
137 163 195
140 164 195
140 164 195
140 164 195
141 165 195
140 164 195
141 164 194
139 163 195
140 164 195
139 163 195
139 163 195
141 165 195
138 162 194
140 164 195
139 163 194
139 163 195
138 163 194
139 163 194
139 163 194
139 163 194
140 164 195
139 163 194
138 161 193
139 163 194
140 163 194
138 162 192
137 161 193
138 162 193
139 163 194
137 161 193
136 159 191
135 160 193
137 161 192
138 161 192
138 162 194
136 161 194
137 161 192
137 161 193
136 161 193
135 160 192
138 162 194
136 160 193
133 158 191
136 160 192
133 157 189
134 158 188
131 156 189
134 159 193
131 155 189
135 158 190
132 156 189
137 160 191
131 154 184
124 147 179
129 154 188
128 152 185
130 154 188
134 158 190
127 151 184
128 151 183
125 149 183
116 139 172
124 147 181
125 146 176
121 146 182
123 148 184
125 149 182
120 143 177
114 137 172
116 140 175
115 139 175
100 123 161
106 128 163
106 128 164
85 107 146
82 102 138
94 114 148
74 93 130
69 87 124
56 77 122
45 77 138
43 74 135
42 76 139
59 85 137
67 89 135
85 108 148
109 131 166
113 137 174
112 136 173
120 145 181
126 151 184
136 159 190
148 170 200
160 180 206
159 179 206
133 158 196
60 105 180
64 110 186
65 112 188
65 112 188
63 109 185
62 108 184
64 111 186
66 114 191
69 118 198
68 116 195
65 112 189
69 117 196
67 113 189
68 116 195
69 118 198
68 117 196
71 121 202
66 114 191
65 112 190
68 116 195
69 117 194
69 118 196
71 120 198
64 110 188
67 115 193
71 121 201
67 115 193
68 116 194
65 112 188
71 120 198
66 113 188
70 119 198
71 121 200
68 116 193
66 114 191
66 112 189
71 121 200
68 117 197
71 120 197
67 114 190
70 119 198
67 115 190
68 115 191
68 116 194
71 120 201
68 116 192
70 119 197
69 117 193
67 113 187
66 113 189
68 115 191
69 117 194
68 116 194
70 119 197
71 119 196
67 114 189
71 120 197
67 114 188
67 113 186
66 113 187
66 112 183
68 114 185
69 117 194
66 111 181
65 110 179
66 108 172
67 111 178
64 108 173
66 110 176
64 105 165
124 147 180
156 177 205
155 175 202
145 151 149
139 131 87
134 129 86
130 124 83
124 118 78
112 110 76
89 88 62
82 82 59
72 78 62
74 77 57
67 71 56
67 73 57
58 68 56
71 76 60
68 73 57
68 75 62
81 89 72
100 99 72
92 92 67
100 98 71
100 99 72
92 93 70
110 107 74
122 117 79
122 117 80
118 115 80
124 118 79
128 123 84
129 123 83
131 126 86
128 124 84
126 121 81
133 128 86
133 127 84
135 128 84
136 131 88
135 130 87
136 130 87
136 128 84
138 132 89
137 131 87
133 128 86
140 134 90
138 132 87
140 130 84
142 135 90
140 132 87
140 133 88
143 135 89
136 128 83
138 130 86
139 132 87
135 129 86
139 133 90
141 135 89
141 135 90
139 132 86
141 134 89
142 135 89
144 137 91
142 134 88
142 135 90
143 135 89
142 136 91
143 135 88
142 135 89
143 136 90
141 134 89
143 136 90
141 135 89
144 136 90
142 134 88
145 137 91
143 134 88
144 136 89
142 135 89
142 135 90
142 135 89
142 136 91
143 137 91
146 138 91
148 140 92
150 141 92
149 141 93
147 139 92
157 145 94
153 142 92
161 149 96
153 143 93
154 145 95
166 153 99
157 145 94
153 140 90
148 136 87
207 219 234
224 237 255
224 237 255
224 237 255
224 237 255
224 237 255
224 237 255
224 237 255
224 237 255
224 237 255
224 237 255
224 237 255
224 237 255
224 237 255
224 237 255
224 237 255
224 237 255
224 237 255
224 237 255
224 237 255
224 237 255
224 237 255
224 237 255
224 237 255
224 237 255
224 237 255
224 237 255
224 237 255
224 237 255
224 237 255
224 237 255
224 237 255
224 237 255
224 237 255
224 237 255
224 237 255
224 237 255
224 237 255
224 237 255
224 237 255
224 237 255
224 237 255
224 237 255
224 237 255
224 237 255
224 237 255
224 237 255
224 237 255
224 237 255
224 237 255
224 237 255
224 237 255
224 237 255
224 237 255
224 237 255
224 237 255
165 185 212
140 164 195
138 162 194
140 164 195
140 164 195
141 164 195
140 164 195
140 164 195
140 164 195
139 163 194
138 163 195
141 164 195
139 163 194
138 162 193
141 164 195
138 163 195
138 163 195
138 162 194
137 161 193
140 164 195
140 164 195
137 162 194
138 163 195
136 160 192
138 163 195
139 163 195
140 164 195
139 163 194
139 162 193
137 161 192
136 160 192
135 159 191
134 158 190
139 163 195
139 162 193
133 157 190
136 160 192
137 160 191
134 160 193
132 156 188
137 161 192
133 157 191
134 157 189
134 158 189
136 160 191
135 159 190
130 155 189
135 159 190
132 156 190
135 159 191
133 158 190
127 152 186
129 153 185
129 153 187
131 155 189
128 152 186
128 151 183
129 153 186
131 155 187
126 149 184
125 148 181
129 154 187
119 143 177
118 141 175
123 146 178
119 144 178
119 144 180
116 139 172
115 139 174
118 142 177
107 130 167
112 135 171
103 127 166
106 129 166
96 118 155
104 126 160
94 116 154
81 101 138
88 108 143
77 96 132
64 82 117
63 80 115
72 89 122
72 89 123
83 104 143
91 111 145
93 114 149
100 123 162
111 136 174
112 134 169
122 146 182
129 153 187
137 161 193
154 176 205
153 175 204
157 178 206
152 173 201
65 107 177
61 106 180
67 114 190
67 115 192
64 110 186
66 113 190
65 111 187
69 117 196
69 117 194
67 115 191
70 119 197
65 111 188
68 115 191
66 112 187
66 113 190
68 115 192
68 116 195
67 115 194
68 115 193
67 114 190
70 119 197
68 116 194
69 117 195
64 111 189
63 108 182
68 117 195
67 115 192
68 117 197
66 113 190
66 113 191
69 118 196
69 117 196
69 116 193
66 112 187
71 120 199
70 119 197
67 114 191
68 116 193
66 113 189
69 118 196
65 112 190
69 117 194
67 115 192
69 117 194
63 109 185
68 115 192
69 117 194
67 114 190
70 119 197
66 113 188
69 117 191
69 117 192
66 113 191
67 114 190
69 117 194
70 118 196
69 118 195
68 115 191
69 116 192
65 110 181
65 110 183
68 114 185
66 111 181
66 111 179
66 109 175
64 108 177
63 105 170
63 105 166
66 108 168
60 99 157
157 177 205
157 178 206
157 178 206
154 172 195
136 130 91
133 126 83
136 128 84
122 117 78
110 107 73
104 100 68
84 87 65
83 85 61
88 89 65
56 60 47
74 75 55
80 82 61
70 72 56
77 82 64
95 95 69
90 91 68
96 96 70
89 88 64
99 98 70
109 106 74
111 107 74
113 110 76
116 113 78
123 117 78
118 114 77
128 122 82
121 117 80
123 118 80
134 128 86
128 123 83
133 126 84
131 125 85
131 125 83
134 127 84
133 126 84
133 128 86
132 127 85
133 127 85
135 130 88
135 129 86
131 126 84
137 130 86
130 124 83
137 132 89
133 127 85
137 131 87
137 130 85
140 133 88
140 133 87
137 130 86
142 136 90
137 130 87
141 132 86
139 132 88
137 131 87
141 135 90
138 131 86
138 130 84
140 132 87
143 135 89
141 135 90
141 133 87
143 135 89
139 132 87
139 133 89
141 134 88
143 137 91
143 135 88
144 137 90
142 135 90
142 135 89
143 136 90
143 137 91
144 137 91
143 136 90
143 137 91
142 134 87
144 136 90
142 135 89
146 138 91
144 138 92
144 137 90
145 138 92
153 143 93
151 142 93
153 144 95
149 140 92
163 151 98
161 148 95
164 152 98
167 154 99
151 140 90
164 161 144
224 236 254
224 237 255
224 237 255
224 237 255
224 237 255
224 237 255
224 237 255
224 237 255
224 237 255
224 237 255
224 237 255
224 237 255
224 237 255
224 237 255
224 237 255
224 237 255
224 237 255
224 237 255
224 237 255
224 237 255
224 237 255
224 237 255
224 237 255
224 237 255
224 237 255
224 237 255
224 237 255
224 237 255
224 237 255
224 237 255
224 237 255
224 237 255
224 237 255
224 237 255
224 237 255
224 237 255
224 237 255
224 237 255
224 237 255
224 237 255
224 237 255
224 237 255
224 237 255
224 237 255
224 237 255
224 237 255
224 237 255
224 237 255
224 237 255
224 237 255
224 237 255
224 237 255
224 237 255
224 237 255
224 237 255
225 237 255
208 222 243
139 163 195
141 165 195
139 163 195
140 164 195
138 163 195
140 164 195
138 162 194
139 163 194
141 164 195
139 163 195
138 162 194
140 164 195
139 163 194
138 162 193
139 162 193
138 162 193
139 163 194
137 161 192
140 164 194
137 161 194
138 163 195
137 162 195
136 161 193
139 162 192
138 162 195
138 162 193
139 163 195
139 163 194
136 159 190
136 160 192
136 160 192
134 158 190
133 158 190
140 164 195
139 163 193
137 160 192
135 158 188
135 160 192
138 161 192
130 155 189
140 164 194
136 159 190
135 160 192
134 157 187
134 156 186
133 156 187
133 157 189
136 160 192
133 156 187
132 156 189
129 153 185
132 155 188
132 155 186
128 152 186
127 150 184
129 152 182
128 151 184
126 150 184
122 146 181
116 140 175
125 150 183
123 146 180
121 146 182
121 145 180
120 143 178
120 144 180
117 140 174
116 140 176
112 134 170
122 145 180
108 131 166
104 127 164
105 127 161
96 118 156
95 117 154
92 112 146
93 114 149
92 113 151
76 96 134
68 85 119
80 100 139
83 101 132
66 87 129
96 114 147
97 119 156
92 115 155
104 127 163
109 133 169
121 145 180
122 145 179
130 155 189
141 165 196
155 176 205
155 176 203
157 178 206
158 179 206
104 132 183
63 109 183
62 108 184
64 109 184
63 109 187
67 115 193
64 111 187
62 108 184
66 112 189
66 113 190
63 108 183
69 118 196
64 110 184
66 113 190
64 111 189
69 118 198
65 111 188
66 113 188
69 117 195
68 115 192
66 114 192
66 113 188
70 118 197
69 118 196
63 108 181
65 113 191
70 119 198
71 120 200
69 117 195
65 111 185
68 116 195
66 114 189
70 119 199
72 122 201
71 121 200
62 106 179
69 117 196
68 116 195
64 111 188
66 113 192
68 116 194
66 113 191
69 117 194
68 116 193
68 115 192
68 116 193
69 117 195
71 120 199
65 111 187
64 110 183
67 114 191
70 118 194
66 113 187
65 112 188
67 113 186
66 111 181
64 111 186
67 113 186
68 115 189
69 117 192
69 115 186
66 112 188
63 107 177
68 114 186
62 104 172
59 99 159
61 103 168
59 97 150
64 105 168
106 133 173
157 177 205
152 175 204
153 175 203
154 176 204
133 138 133
134 128 84
126 122 82
117 114 78
114 110 76
118 111 75
94 93 67
86 82 55
84 83 58
85 81 54
80 81 59
82 82 61
75 77 59
79 80 61
91 90 66
91 88 60
96 94 66
108 104 72
116 112 77
107 103 71
112 108 74
111 105 71
112 109 76
120 115 77
128 123 84
119 113 75
122 115 74
122 115 76
125 120 81
125 121 83
128 123 83
127 123 83
132 124 82
123 117 76
132 126 85
136 128 84
132 125 83
141 135 90
134 128 85
135 127 84
135 129 85
142 133 88
128 124 84
138 131 86
137 129 83
135 129 86
135 129 86
141 134 88
141 134 88
143 135 90
138 130 85
138 130 85
140 133 88
141 134 88
140 132 87
139 133 88
142 134 89
139 132 87
140 133 89
142 134 87
138 130 86
141 133 87
140 133 88
140 132 87
143 136 90
141 135 90
143 135 89
140 134 89
143 134 87
143 135 89
142 134 89
141 133 88
142 135 89
143 134 87
144 136 90
140 133 88
144 137 91
144 136 90
146 138 91
142 135 90
141 132 86
144 137 90
139 132 87
148 140 93
149 140 92
159 148 96
156 145 95
163 150 97
156 146 96
158 147 95
143 134 87
135 124 80
213 222 231
225 237 255
224 237 255
224 237 255
224 237 255
224 237 255
224 237 255
224 237 255
224 237 255
224 237 255
224 237 255
224 237 255
224 237 255
224 237 255
224 237 255
224 237 255
224 237 255
224 237 255
224 237 255
224 237 255
224 237 255
224 237 255
224 237 255
224 237 255
224 237 255
224 237 255
224 237 255
224 237 255
224 237 255
224 237 255
224 237 255
224 237 255
224 237 255
224 237 255
224 237 255
224 237 255
224 237 255
224 237 255
224 237 255
224 237 255
224 237 255
224 237 255
224 237 255
225 237 255
225 237 255
225 237 255
225 237 255
224 237 255
218 231 250
212 226 246
207 222 242
200 216 238
202 217 238
188 205 228
193 209 231
184 201 225
179 196 220
166 185 211
146 168 197
139 163 194
141 164 195
139 163 195
140 164 195
139 163 194
139 164 195
141 164 195
141 165 195
139 163 195
136 160 191
138 162 194
139 162 193
138 161 192
140 163 194
138 162 193
139 162 193
135 159 191
138 161 191
135 160 192
139 162 194
141 164 195
136 159 191
138 162 193
136 160 192
136 160 192
138 162 194
137 161 193
135 159 191
137 161 194
133 157 190
132 156 188
136 160 193
134 158 191
135 159 190
132 156 187
135 159 190
135 159 191
136 160 192
134 156 187
133 158 190
139 162 194
134 158 190
136 160 191
129 152 185
130 155 189
132 156 188
132 155 186
131 155 186
132 155 187
135 160 192
129 153 185
129 154 189
135 158 190
122 146 180
130 153 186
130 153 186
123 146 178
123 147 181
120 143 178
118 142 178
125 149 184
129 153 185
124 148 183
119 143 179
111 136 173
123 147 179
115 137 171
122 146 181
109 131 166
105 128 165
104 128 166
109 131 167
103 126 162
106 127 162
88 111 151
77 98 135
95 115 149
76 95 131
72 93 134
76 96 134
84 103 135
81 101 136
98 119 154
98 119 154
106 128 164
108 130 163
115 138 172
123 148 182
129 153 185
137 160 191
153 174 202
157 177 205
153 175 204
157 178 206
153 175 203
143 166 200
62 107 182
64 109 184
64 110 187
64 110 185
63 108 183
64 110 185
64 110 184
65 111 186
66 112 187
63 108 182
67 115 192
67 113 190
68 116 194
66 114 191
69 117 196
64 111 189
66 113 190
64 110 186
70 119 199
67 114 192
67 114 190
67 114 191
63 107 181
68 115 193
65 112 188
69 118 196
68 116 193
69 118 196
68 116 194
68 117 194
67 114 191
70 117 191
66 114 192
70 119 198
68 116 194
67 114 190
70 118 196
70 119 196
66 112 186
67 114 191
61 106 179
63 107 179
69 118 198
68 116 194
67 115 191
70 119 197
67 115 192
63 108 182
63 107 179
66 112 188
65 112 188
69 116 192
66 113 187
66 111 184
67 113 188
68 115 192
69 117 194
68 115 189
67 113 181
65 109 179
64 109 180
67 114 189
64 109 180
65 109 177
63 105 169
62 103 165
62 102 158
63 101 159
147 169 198
155 177 206
154 175 203
154 175 202
156 176 202
155 173 198
127 121 90
128 122 81
127 121 80
122 118 80
101 99 70
112 107 73
107 101 68
103 98 67
86 85 61
92 88 60
90 88 62
86 83 58
88 86 61
92 86 57
83 78 53
98 93 63
96 92 63
120 111 71
119 113 75
109 107 75
118 113 75
116 111 76
112 108 74
126 119 80
117 114 78
116 111 73
131 123 80
124 118 78
127 120 79
132 126 85
128 121 80
130 125 84
124 120 81
133 126 84
129 124 84
133 128 85
134 127 84
141 132 86
133 127 85
131 124 81
136 129 86
132 123 79
137 131 87
137 129 85
136 129 85
132 125 82
140 133 89
141 133 88
136 129 85
137 130 86
138 131 86
140 133 88
140 133 87
139 131 85
137 129 84
137 130 85
142 135 90
141 133 87
141 134 89
139 132 87
140 132 86
141 133 87
137 131 87
136 129 86
140 132 86
141 133 88
140 133 87
139 131 86
142 135 89
141 134 89
143 137 91
141 133 87
142 135 90
140 132 86
143 135 88
144 137 91
142 133 86
143 135 89
144 135 88
142 135 90
142 136 90
142 136 90
147 139 92
152 142 93
152 142 93
156 145 94
155 144 93
163 150 96
156 144 93
161 148 95
143 149 151
175 194 218
168 187 213
172 191 216
187 204 227
193 210 232
197 213 234
206 221 241
210 224 244
212 226 246
219 232 251
223 236 254
225 237 255
225 237 255
225 237 255
225 237 255
225 237 255
224 237 255
224 237 255
224 237 255
224 237 255
224 237 255
224 237 255
224 237 255
224 237 255
224 237 255
224 237 255
224 237 255
224 237 255
224 237 255
224 237 255
225 237 255
225 237 255
225 237 255
225 237 255
225 237 255
225 237 255
221 234 252
216 230 249
213 227 246
210 224 244
196 212 234
194 210 232
182 200 224
174 192 217
179 197 221
169 188 213
159 179 206
157 178 206
158 179 206
157 178 206
159 179 206
157 178 206
159 179 206
156 178 206
157 178 206
159 179 206
154 176 206
157 178 206
156 177 205
142 166 196
140 163 194
139 163 195
138 163 194
138 162 194
140 163 194
138 162 193
138 163 194
139 163 195
141 164 194
141 164 194
142 165 195
137 162 194
139 162 194
139 163 194
137 160 191
136 161 193
137 161 193
139 162 193
135 159 190
136 161 192
138 161 193
133 157 189
136 160 192
136 159 191
130 154 187
137 161 192
137 160 191
133 157 189
134 157 188
135 158 189
133 158 191
138 162 192
131 155 187
129 153 187
133 155 188
130 155 188
136 161 192
130 155 189
130 155 190
131 155 187
132 156 187
132 155 186
133 158 191
128 151 185
132 156 188
133 158 191
135 158 190
127 150 183
128 152 185
124 147 178
126 149 181
126 149 180
129 153 186
119 142 176
129 154 188
129 153 186
127 152 187
130 153 185
113 137 173
124 147 180
118 142 178
124 148 184
120 144 177
118 141 175
122 145 177
110 134 170
102 126 164
112 135 171
112 136 172
112 134 167
98 120 156
103 126 162
101 123 159
103 126 162
91 112 148
91 112 147
94 114 147
90 110 144
91 110 144
86 105 141
93 114 150
95 117 155
101 123 161
105 128 164
111 132 165
118 141 175
120 143 177
127 151 184
148 170 200
156 177 203
154 175 203
156 177 204
153 174 203
155 177 205
155 177 205
95 127 184
59 102 176
63 109 182
64 111 187
63 109 183
65 111 187
64 110 187
59 103 178
67 115 192
65 112 189
67 113 189
70 119 198
67 114 188
65 111 187
65 111 186
67 114 191
63 109 185
67 114 191
67 115 194
68 116 194
67 114 191
66 113 190
64 109 184
69 117 196
66 114 192
68 116 193
69 117 195
69 117 195
67 115 194
69 118 195
67 115 191
64 109 182
72 122 202
68 114 189
67 115 193
68 116 193
67 115 193
69 118 197
68 115 192
64 110 183
65 111 186
66 112 186
65 110 184
66 113 188
66 113 191
64 109 184
65 110 183
64 110 185
65 110 181
65 111 186
68 115 192
71 120 200
67 113 188
67 114 189
67 113 186
69 116 190
66 113 188
65 111 184
67 114 189
64 109 182
64 108 180
65 110 182
63 105 171
65 108 175
63 104 168
64 108 176
62 103 164
95 127 175
156 176 204
154 174 200
154 174 200
154 176 204
157 177 204
156 177 205
137 152 168
121 115 77
124 120 81
128 120 79
111 106 71
112 107 73
102 98 67
90 86 60
94 91 63
78 76 53
86 81 52
98 93 63
95 88 56
93 89 61
100 97 67
104 98 65
106 101 68
106 103 71
106 101 68
114 109 74
108 103 70
110 106 73
116 111 75
112 108 73
117 109 71
122 114 74
122 114 74
127 121 81
133 124 81
126 119 78
123 115 75
129 121 79
127 121 81
133 126 83
134 126 82
135 129 86
135 128 84
131 125 84
137 131 87
135 125 80
134 128 84
134 127 85
138 129 85
133 126 83
135 128 84
133 126 84
136 130 86
137 131 87
137 130 87
141 133 87
140 131 85
139 130 84
135 128 84
135 126 83
140 133 88
141 132 86
139 130 84
137 129 85
143 135 88
142 134 88
140 132 87
141 134 89
144 134 86
142 135 89
141 132 86
141 134 89
141 133 88
142 135 89
142 134 88
140 133 87
144 136 90
140 133 88
143 136 90
140 133 88
143 135 89
143 134 87
141 134 88
141 134 88
144 135 89
142 136 90
145 137 91
142 136 91
144 136 90
147 139 91
150 140 91
151 141 92
148 138 90
151 141 92
152 141 91
131 125 92
154 172 196
154 177 206
157 178 206
158 179 206
158 179 206
157 178 206
158 179 206
158 178 206
158 179 206
158 178 206
158 179 206
158 179 206
162 182 209
175 193 218
171 190 216
189 205 228
187 204 227
199 214 235
200 216 237
198 214 235
210 224 244
214 228 247
223 236 254
224 237 255
225 237 255
225 237 255
225 237 255
225 237 255
225 237 255
225 237 255
196 212 234
189 206 230
188 204 227
176 194 219
168 188 214
163 183 210
159 179 206
156 177 206
157 178 206
157 178 206
155 177 206
158 179 206
156 177 206
156 178 206
157 178 206
156 178 206
157 178 206
157 178 206
157 178 206
158 178 206
159 179 206
157 178 206
156 178 206
156 178 206
159 179 206
158 179 206
157 178 206
155 177 206
157 178 206
158 178 206
149 172 202
140 164 195
139 163 195
138 163 195
139 162 193
138 162 193
139 163 194
139 162 193
140 164 195
140 164 194
140 164 195
137 162 193
136 160 192
138 162 193
135 158 190
139 163 194
136 159 190
138 162 193
134 158 189
135 159 190
136 160 192
137 161 192
136 160 192
137 160 192
136 160 190
134 158 190
138 162 194
137 160 191
135 160 193
131 155 186
133 157 189
139 163 194
134 158 192
136 160 192
135 158 190
133 157 190
132 156 188
136 159 189
129 153 184
129 153 186
133 157 190
126 150 183
126 150 182
133 156 188
131 156 189
133 157 189
133 156 187
129 153 185
125 148 181
126 151 184
127 150 183
126 151 185
124 148 181
126 149 182
126 149 182
130 154 187
119 142 176
127 150 181
113 135 167
119 142 178
118 141 175
128 151 182
120 142 175
121 143 175
125 148 181
116 139 172
113 136 170
113 137 174
107 130 164
110 133 167
117 140 174
100 123 161
100 122 158
106 128 162
107 128 161
94 115 150
100 121 155
100 121 156
91 112 149
94 115 151
95 116 150
93 116 153
107 130 164
98 119 156
107 130 165
107 130 163
116 139 174
128 151 183
127 150 183
151 173 203
154 176 204
153 174 203
153 175 204
156 177 204
155 176 204
155 176 203
145 168 203
58 101 174
61 106 181
61 105 180
60 104 178
65 111 187
64 110 185
65 112 190
64 109 184
66 114 191
65 112 190
66 113 189
66 113 190
67 114 190
69 117 195
69 118 196
69 117 196
69 117 194
66 112 189
66 114 191
66 113 188
65 112 189
65 111 187
67 113 190
67 115 194
68 115 192
66 113 189
68 116 194
67 115 191
69 118 198
66 113 191
68 115 192
66 112 189
68 117 196
67 114 191
66 113 189
65 112 187
66 114 191
68 115 188
68 116 193
65 111 186
66 113 189
66 112 188
67 114 191
66 112 186
68 116 193
69 117 194
65 112 186
64 110 184
65 111 185
64 110 184
67 114 190
65 112 187
66 113 188
66 111 183
64 109 181
68 115 188
68 114 186
68 114 186
68 114 189
64 108 178
63 108 178
66 112 182
66 110 177
59 99 161
59 98 156
62 102 166
142 163 194
151 172 198
155 177 205
153 174 201
153 174 200
151 173 202
155 176 203
152 172 198
132 134 122
130 122 81
131 125 84
108 102 67
110 105 70
110 103 68
97 90 58
97 91 60
102 95 62
96 93 63
92 87 59
104 99 68
94 91 64
111 104 68
108 103 68
111 105 71
104 99 67
98 94 63
101 97 67
108 103 69
117 111 73
117 112 74
122 114 75
123 117 77
121 113 73
129 122 80
125 119 78
128 118 75
131 123 81
124 117 77
129 121 77
126 120 79
131 125 84
132 124 81
128 123 82
131 125 83
130 123 82
130 124 83
134 125 81
133 127 84
128 121 79
136 129 86
134 124 79
137 129 84
139 130 85
138 130 85
137 129 84
138 130 85
140 132 88
136 126 80
137 130 86
142 131 84
138 131 86
139 129 84
140 131 85
141 131 84
140 132 86
141 135 89
142 133 86
140 133 88
139 128 81
141 132 86
140 132 87
138 131 86
139 131 85
142 135 89
141 132 86
142 134 89
141 134 88
144 135 88
140 131 85
141 134 88
142 133 87
143 135 88
143 136 90
143 135 89
141 133 87
143 136 91
142 134 88
146 137 89
145 137 90
143 136 90
143 135 88
147 138 91
148 139 91
148 140 92
151 141 92
146 135 87
152 163 173
158 179 206
158 179 206
158 179 206
157 177 204
156 177 206
158 178 206
157 178 206
158 179 206
157 178 206
157 178 206
157 178 206
157 178 206
158 179 206
157 178 206
157 178 206
157 178 206
156 178 206
158 179 206
157 178 206
156 178 206
158 179 206
156 178 206
157 178 206
159 180 207
167 186 212
171 189 214
172 191 216
191 208 230
185 202 225
201 216 237
157 178 206
158 179 206
157 178 206
157 178 206
159 179 206
157 178 206
158 179 206
158 179 206
157 178 206
157 178 206
157 178 206
155 177 206
157 178 206
158 179 206
156 178 206
157 178 206
156 178 206
158 178 206
155 177 206
158 179 206
157 178 206
158 179 206
159 179 206
156 178 206
157 178 206
159 179 206
157 178 206
156 178 206
158 179 206
157 178 206
157 178 206
143 167 197
140 164 195
139 164 195
141 164 195
140 163 193
139 163 195
140 164 194
138 162 194
136 160 192
140 163 193
138 162 194
137 161 192
138 162 193
134 158 189
140 163 194
139 162 193
139 162 193
139 162 192
138 162 193
135 159 191
138 161 191
133 157 189
138 162 193
134 158 190
136 160 192
132 155 186
133 156 188
134 158 190
135 160 192
135 159 191
133 155 186
131 154 186
135 158 190
136 160 191
131 155 186
135 159 190
135 158 189
132 155 186
137 160 191
136 158 188
131 153 184
134 158 189
135 159 190
134 157 189
128 151 183
126 149 181
126 150 182
129 153 187
129 152 184
127 151 184
125 149 182
129 153 185
128 151 181
123 147 181
128 153 187
122 144 177
127 149 181
126 150 182
114 138 174
123 147 180
119 143 176
119 142 174
117 140 175
120 143 177
113 137 174
114 137 170
104 127 163
114 136 168
103 126 162
104 127 162
98 121 155
110 131 165
93 115 154
101 122 157
106 128 162
101 123 156
100 121 155
93 114 151
99 120 156
87 108 145
107 129 162
109 131 165
102 123 158
112 135 171
118 141 176
117 141 175
131 155 188
152 174 203
155 176 205
151 174 203
155 177 205
150 172 202
154 176 204
150 172 200
156 178 206
153 173 201
112 141 191
59 103 177
59 104 180
66 114 190
66 113 190
67 114 191
65 113 190
65 112 187
66 113 189
63 108 183
67 114 192
66 113 190
65 111 186
64 110 186
66 113 191
66 113 190
64 110 185
64 110 186
66 113 189
70 119 197
65 112 188
67 114 192
66 113 188
67 114 190
67 113 188
67 113 187
68 116 194
68 116 192
65 111 187
68 115 192
66 113 190
66 112 188
66 113 190
62 107 181
64 110 185
68 117 196
66 113 189
67 113 187
65 111 188
70 119 197
69 118 195
65 111 184
65 111 186
68 115 191
66 113 191
68 115 192
68 116 193
69 117 194
66 112 187
65 111 186
68 116 192
66 113 190
65 110 182
66 110 180
66 112 185
68 116 193
65 110 184
69 116 191
64 108 175
65 110 181
62 104 172
65 109 178
60 101 168
61 101 161
65 108 170
93 123 172
154 173 198
152 173 200
154 175 203
152 173 199
151 173 201
155 175 202
154 175 202
155 176 201
149 166 188
114 113 94
125 115 72
117 108 68
112 105 68
107 103 69
109 100 63
109 102 67
106 99 63
100 95 63
108 102 68
89 87 60
89 82 53
96 93 65
96 92 62
117 108 69
102 99 68
118 108 70
115 108 72
106 104 72
117 111 73
116 111 74
122 116 77
123 116 77
126 119 78
119 111 73
124 117 78
130 118 73
119 114 76
134 128 85
128 120 78
126 118 77
128 122 82
136 126 80
131 123 80
134 124 80
131 124 81
129 122 81
135 127 84
131 124 82
133 124 80
139 128 81
132 123 80
137 129 84
131 123 80
133 126 83
131 122 79
139 130 84
137 129 84
133 125 82
132 124 80
136 129 84
140 130 85
140 131 85
138 129 83
142 133 87
140 132 87
133 125 82
143 133 85
139 130 85
138 129 85
137 130 86
135 129 87
137 128 83
140 132 87
140 132 86
138 130 85
142 132 85
138 129 84
141 132 86
143 134 88
142 132 85
138 130 85
142 135 89
144 135 88
139 131 86
143 134 88
142 135 89
144 135 88
141 132 86
142 134 88
146 138 92
143 135 89
150 140 91
148 138 90
147 136 88
146 135 88
140 144 139
156 177 205
158 179 206
156 178 206
157 178 206
159 179 206
158 179 206
157 178 206
159 179 206
156 178 206
155 177 206
158 179 206
156 178 206
159 179 206
157 178 206
157 178 206
157 178 206
158 179 206
156 177 206
158 179 206
157 178 205
159 179 206
158 179 206
157 178 206
157 178 206
159 179 206
155 177 206
159 179 206
159 179 206
157 178 206
156 177 206
157 178 206
157 178 206
156 178 206
158 179 206
157 178 206
158 179 206
156 178 206
157 178 206
157 178 206
157 178 206
159 179 206
157 178 206
157 178 206
157 178 206
156 178 206
156 178 206
157 178 206
158 179 206
158 179 206
157 178 206
157 178 206
156 178 206
158 179 206
157 178 206
158 179 206
156 178 206
157 178 206
157 178 206
157 178 206
157 178 206
157 178 206
158 179 206
156 177 205
142 165 196
139 163 194
140 164 195
141 164 194
138 162 192
140 163 194
141 164 194
139 162 192
137 161 192
138 163 194
136 160 192
137 161 193
135 160 192
138 161 192
138 161 192
133 157 188
136 159 190
140 163 194
137 160 190
137 162 194
134 158 189
135 158 190
135 158 190
136 159 191
136 160 191
134 159 190
132 155 188
131 154 186
132 156 188
135 159 190
132 155 185
137 161 193
136 159 189
132 155 187
133 156 186
134 158 190
132 156 189
126 150 183
133 156 188
130 154 186
128 152 185
134 157 189
128 151 183
131 154 186
127 150 182
131 155 188
130 154 187
130 153 184
130 154 186
130 153 185
122 145 178
127 152 186
123 146 179
126 150 183
124 149 183
118 143 179
120 143 176
121 145 180
115 138 173
124 148 181
120 142 176
121 144 176
114 137 172
111 134 168
111 133 166
114 136 168
111 134 168
120 143 177
116 137 169
116 136 167
115 138 171
104 127 162
92 112 145
88 110 148
103 123 156
87 108 143
96 118 154
102 123 157
98 119 154
109 131 165
112 134 167
110 131 163
103 125 160
115 139 174
130 153 185
150 171 200
150 171 200
155 177 205
153 175 204
151 173 202
151 173 202
146 168 198
152 174 202
149 171 200
153 175 204
143 165 197
71 108 174
57 99 171
65 111 186
61 106 182
67 115 193
65 111 186
64 110 185
65 112 188
66 114 191
67 114 191
64 111 188
65 111 185
65 111 189
66 113 191
65 112 187
66 113 191
67 115 192
66 113 191
64 109 185
67 114 191
65 112 188
63 109 185
64 110 186
64 109 185
65 112 187
65 111 186
67 115 194
68 115 192
62 107 181
68 116 193
64 110 186
66 113 189
64 110 186
66 112 188
70 119 196
68 116 194
65 111 185
64 109 184
67 115 193
66 113 188
68 115 192
67 115 193
69 116 194
64 110 184
60 103 174
66 113 188
69 117 194
67 113 188
67 113 189
61 105 176
62 107 178
67 114 189
63 108 182
66 112 183
61 105 175
63 108 179
66 110 179
63 106 175
64 108 180
64 107 176
65 108 175
69 114 182
61 102 165
71 104 158
139 160 190
150 170 197
153 169 187
150 171 199
154 173 198
152 172 198
150 171 198
149 169 194
155 176 202
149 168 192
142 155 169
119 111 71
119 113 75
117 110 72
107 99 64
98 93 61
98 94 63
102 95 62
99 92 57
105 98 64
106 98 62
110 104 67
104 97 63
109 103 66
101 97 66
90 83 55
113 106 69
120 111 72
103 100 68
107 101 67
118 111 73
121 112 72
110 105 70
122 116 77
124 116 76
124 117 77
118 111 72
120 112 73
123 113 71
122 118 80
128 118 75
125 118 77
114 109 73
125 117 75
133 124 80
130 123 80
136 130 87
129 120 78
129 122 80
130 121 78
130 123 81
135 126 81
126 118 78
132 123 79
139 128 81
135 126 82
129 122 80
129 122 80
135 126 81
139 131 85
134 128 85
135 128 84
143 134 88
142 135 89
138 129 83
135 126 82
141 133 88
136 128 82
141 131 84
139 132 86
140 132 86
137 131 88
140 132 86
142 132 85
136 128 83
139 129 83
136 128 84
141 132 86
142 135 90
143 134 88
142 134 88
140 131 86
141 133 87
144 135 88
137 126 80
142 132 86
147 137 89
145 137 91
142 133 87
143 133 85
143 135 88
143 136 91
148 139 91
145 137 89
142 131 84
134 129 104
153 173 198
157 178 206
158 179 206
156 178 206
157 178 206
157 178 206
155 177 206
158 178 205
156 178 206
157 178 206
158 178 205
158 179 206
159 179 206
156 177 205
157 178 206
158 179 206
159 179 206
159 179 206
157 178 206
158 179 206
155 177 206
155 177 206
157 178 206
157 178 206
157 178 206
156 178 206
156 178 206
158 179 206
158 179 206
155 177 206
158 179 206
159 179 206
155 177 206
156 178 206
157 178 206
158 179 206
157 178 206
155 176 204
156 178 206
156 178 206
157 178 206
157 178 206
157 178 206
156 178 206
155 177 206
157 178 206
155 177 205
157 178 206
157 178 206
158 179 206
158 179 206
155 177 205
158 178 206
156 178 206
157 178 206
156 177 206
157 178 206
155 177 206
156 178 206
157 177 204
157 178 205
156 178 206
157 178 206
159 179 206
154 176 204
141 165 196
138 162 194
139 163 194
141 165 195
137 161 192
138 163 194
135 159 191
139 163 194
139 163 193
136 161 192
135 159 190
134 157 188
137 161 191
136 160 192
133 157 189
138 162 193
135 159 192
137 161 193
138 162 192
136 159 190
136 160 191
131 155 187
133 157 188
136 159 189
130 152 181
130 154 187
135 159 191
131 155 187
134 157 187
135 159 191
135 157 187
135 158 190
134 157 187
127 150 182
135 158 189
132 155 187
130 154 186
129 153 186
130 153 185
126 151 184
131 155 187
128 151 183
126 149 182
127 151 183
133 155 186
124 148 181
124 147 181
127 151 184
125 148 179
128 151 183
123 146 178
126 149 182
120 143 176
126 149 180
121 145 177
117 140 172
121 145 179
114 137 171
123 145 177
126 149 180
115 138 172
115 137 170
114 136 169
115 138 171
103 126 162
104 127 164
110 132 166
103 124 157
97 119 155
108 129 162
99 121 156
98 119 154
105 125 158
111 133 167
96 118 154
97 119 157
99 121 159
102 124 158
91 112 149
103 125 160
107 127 158
110 133 166
118 140 174
145 166 193
151 173 201
152 173 202
151 172 201
151 173 202
150 172 200
152 174 204
149 171 200
152 174 203
150 172 201
153 174 202
150 171 200
123 148 190
59 101 172
63 108 183
64 111 189
58 101 175
62 107 182
66 112 186
61 104 178
61 106 182
63 108 182
67 114 191
61 106 180
64 110 186
64 110 184
62 107 182
65 112 187
65 111 187
69 117 196
62 108 182
68 117 195
66 112 187
66 114 191
62 106 180
69 118 195
65 112 188
59 102 176
64 110 186
67 114 193
59 102 176
67 114 191
67 114 191
66 113 190
68 115 192
68 115 191
62 107 181
66 112 186
66 113 189
65 111 186
66 113 190
64 109 183
66 112 189
66 112 187
64 109 184
65 110 184
66 113 188
64 109 181
66 114 191
67 114 190
65 110 182
62 107 178
65 110 185
65 110 182
66 113 187
64 108 177
67 113 187
65 110 183
62 104 169
62 107 178
65 108 174
64 108 175
63 107 175
60 101 163
63 106 172
124 147 179
149 167 189
152 172 196
152 171 196
151 169 193
151 170 194
149 167 190
152 172 197
152 168 189
151 169 191
149 169 194
155 174 197
134 142 148
118 109 69
117 111 73
103 95 60
106 100 66
102 95 61
111 103 67
102 95 62
101 96 62
97 92 60
98 89 54
103 99 66
101 91 58
108 103 67
102 97 65
115 106 67
111 102 66
116 106 67
112 104 67
125 115 73
112 106 70
121 111 69
113 106 68
130 119 75
111 105 70
123 116 77
124 116 74
118 111 72
124 113 72
126 118 76
125 117 76
125 118 78
127 116 71
125 119 79
134 124 79
134 126 82
132 123 79
124 119 79
132 124 81
133 121 76
128 118 75
131 124 82
136 127 81
134 126 82
137 128 83
135 125 80
134 125 81
135 125 81
133 124 80
134 126 82
131 121 77
135 127 83
140 131 85
140 132 86
137 130 85
137 127 81
140 130 83
139 130 84
139 131 85
137 128 83
139 130 85
142 133 86
137 130 86
141 132 86
142 132 85
136 127 83
141 133 86
142 135 89
139 129 83
139 130 85
141 133 86
142 134 89
142 134 88
141 133 87
143 134 88
140 132 87
139 130 84
144 134 86
142 133 86
144 136 90
146 137 89
146 138 91
141 132 87
140 133 100
152 171 196
157 178 206
157 178 206
158 179 206
157 178 206
158 179 206
158 179 206
158 179 206
159 179 206
157 178 206
156 178 206
159 179 206
157 178 206
157 178 206
156 177 205
157 178 206
156 177 206
158 179 206
158 179 206
157 178 206
158 179 206
157 178 206
157 178 206
156 178 206
159 179 206
158 179 206
157 178 206
156 177 206
154 177 206
157 178 206
155 177 206
157 178 206
158 178 206
157 178 206
158 179 206
156 178 206
157 177 205
156 177 205
158 179 206
158 179 206
156 178 206
159 179 206
155 177 206
157 178 206
156 178 206
157 178 206
157 178 206
154 177 206
156 178 206
157 178 206
158 179 206
158 179 206
156 177 206
157 178 206
157 178 206
155 177 206
157 178 206
157 178 206
158 178 206
157 178 206
155 177 206
157 178 206
157 178 206
157 178 206
159 179 206
157 178 206
152 174 203
141 164 195
138 163 194
139 163 194
136 161 194
136 160 192
136 160 191
138 162 193
140 163 194
136 160 191
136 160 192
137 160 191
131 155 187
136 159 189
138 161 192
135 159 190
135 159 189
137 161 192
133 157 189
136 160 191
139 163 193
136 160 191
134 158 189
132 155 185
137 160 191
131 155 187
129 153 185
131 153 182
134 158 190
134 157 187
131 155 187
128 153 186
130 153 185
130 154 186
125 148 180
133 156 187
132 155 185
128 152 183
128 152 183
128 152 183
127 152 185
129 153 186
125 147 177
130 154 186
124 146 175
131 154 185
124 148 181
129 153 184
124 146 177
128 152 184
125 148 180
122 146 181
125 149 181
117 139 172
119 143 177
122 144 175
113 136 170
122 144 175
116 139 172
119 141 175
111 134 168
115 137 170
112 133 163
110 133 167
117 140 174
108 129 162
118 140 172
117 139 172
108 130 165
96 116 150
106 127 160
112 134 166
104 126 161
109 131 164
107 128 161
92 114 151
102 124 159
95 118 154
102 123 157
107 129 162
111 134 171
115 137 168
143 165 194
147 169 198
155 175 203
149 170 200
152 173 201
145 168 198
152 172 200
152 173 200
141 163 194
149 171 200
148 170 200
150 171 201
150 172 201
147 168 197
87 119 176
61 105 180
56 97 168
62 106 179
58 101 172
62 107 182
64 110 184
65 111 187
64 109 184
63 108 182
65 111 187
66 113 189
66 113 189
63 108 182
64 110 187
64 109 184
67 115 191
65 112 188
65 111 189
62 107 181
62 107 181
65 111 188
66 112 188
61 104 176
65 111 187
69 117 195
66 112 187
67 114 191
64 109 183
69 116 192
65 111 186
64 111 186
67 114 191
67 114 190
66 113 189
65 112 186
63 107 182
64 109 185
64 110 184
64 109 183
66 113 191
61 106 181
61 104 172
63 108 184
66 111 183
60 103 174
61 106 179
67 114 188
65 112 188
65 111 184
65 109 180
67 114 187
64 108 178
62 106 178
64 110 184
66 111 184
60 102 170
61 101 164
62 105 172
62 103 167
59 97 153
90 118 167
149 169 195
157 175 198
145 164 189
145 164 189
149 163 177
142 159 181
147 165 187
151 168 190
149 168 193
156 175 200
150 169 192
153 171 194
149 168 194
133 143 150
117 110 73
109 103 66
114 105 66
108 100 63
101 93 58
107 98 61
101 93 60
111 104 67
106 96 59
103 96 63
107 97 60
111 103 65
104 96 60
107 100 63
96 91 59
113 104 67
109 99 60
110 106 71
108 101 65
116 105 64
119 109 69
121 113 73
121 113 73
122 113 72
119 110 71
119 110 70
122 115 76
125 116 75
125 116 74
129 119 76
122 116 77
135 126 81
131 123 81
132 120 75
127 117 74
126 118 76
132 119 73
132 123 80
126 118 77
133 126 82
135 124 78
136 127 82
136 125 79
133 125 80
135 125 79
133 125 81
134 125 80
134 123 77
140 130 84
131 122 78
135 127 83
136 128 84
137 128 82
136 126 81
133 124 79
137 127 81
140 129 83
140 130 83
139 129 82
137 124 77
143 135 88
141 131 85
137 128 82
137 129 84
140 132 86
138 130 85
139 131 85
141 132 86
142 135 89
141 132 86
139 131 86
139 129 83
143 133 86
143 135 88
141 131 83
143 135 88
141 134 88
142 134 88
137 128 83
142 132 85
122 113 76
149 168 193
156 177 205
155 177 205
157 178 206
158 179 206
157 178 206
158 179 206
157 178 206
156 178 206
159 179 205
156 176 203
157 178 206
157 177 205
156 178 206
159 179 206
156 177 204
157 178 206
158 179 206
156 177 204
158 179 206
158 179 206
156 178 206
157 178 206
157 178 205
156 178 206
158 178 206
156 177 204
158 179 206
157 178 206
157 178 206
158 179 206
155 176 204
157 178 206
158 178 205
158 179 206
158 179 206
155 177 206
158 179 206
155 177 206
157 178 206
157 178 206
156 178 206
157 178 206
156 177 206
157 178 206
160 180 206
157 178 206
157 178 206
157 178 205
156 178 206
158 179 206
158 178 206
158 179 206
156 178 206
156 177 206
158 178 206
156 178 206
157 178 206
155 177 205
157 178 206
157 178 205
157 178 206
158 179 206
157 178 206
156 177 205
157 178 206
158 179 206
157 178 206
154 175 203
138 162 194
139 163 194
140 163 193
135 159 189
137 161 192
135 159 191
137 161 192
137 161 191
136 160 190
135 159 190
138 161 191
139 162 193
136 160 190
137 160 191
133 158 190
137 160 190
133 158 190
135 158 189
130 153 183
135 159 190
130 153 184
135 158 188
135 159 191
131 153 184
131 155 187
134 157 187
133 157 188
136 159 190
131 155 186
135 158 188
127 151 182
136 159 190
128 152 184
134 157 187
131 154 186
129 154 186
129 152 184
129 152 184
129 153 185
122 145 177
125 149 182
128 152 185
124 148 182
123 145 176
120 144 177
124 147 178
117 140 172
120 143 176
120 143 177
124 147 179
117 138 168
120 143 177
118 141 173
118 141 174
126 148 180
110 134 170
119 142 176
119 142 176
106 127 160
113 137 171
115 137 170
124 146 176
112 133 165
105 125 155
100 122 157
104 126 160
114 136 169
101 122 155
106 127 159
106 127 159
112 133 165
104 125 159
101 122 157
104 124 156
96 117 151
102 124 158
98 120 154
113 134 166
110 132 164
131 152 182
149 171 200
149 170 198
149 170 198
149 170 199
146 167 194
146 166 194
145 167 196
143 165 196
140 161 190
146 166 194
143 165 196
150 171 199
135 157 190
146 168 198
134 156 190
68 104 170
61 105 178
59 103 176
63 107 182
63 108 183
62 107 181
63 108 183
61 105 178
61 106 181
66 113 189
64 110 186
65 111 186
63 108 183
65 111 186
65 111 187
62 107 181
63 109 184
67 114 190
65 112 189
62 107 182
66 112 187
63 108 181
67 113 189
65 112 189
66 113 189
60 104 179
65 111 186
66 113 190
62 108 182
64 111 186
63 109 187
66 112 187
68 115 189
67 113 189
69 118 195
62 106 181
65 110 184
65 112 189
64 110 182
66 112 187
66 112 186
65 111 185
63 108 182
62 106 179
64 108 180
65 111 185
65 111 187
60 103 172
62 106 179
63 107 179
64 108 179
65 111 184
65 111 186
62 105 172
65 110 183
61 103 170
60 101 166
63 104 170
59 97 156
70 104 157
138 156 180
146 164 187
151 168 189
148 165 187
144 163 187
145 161 181
149 168 192
146 163 183
151 168 190
150 168 191
153 170 189
150 171 197
155 171 191
149 166 190
149 167 189
117 124 128
112 103 66
112 104 67
110 101 64
110 98 58
110 101 64
99 87 51
99 94 61
108 100 63
104 97 64
111 103 65
106 96 59
102 94 60
114 103 63
117 106 67
112 103 66
111 100 60
115 107 69
111 103 67
110 103 66
123 112 70
116 107 68
121 110 68
119 112 72
123 112 70
121 110 70
125 116 74
125 115 72
133 121 75
121 112 72
128 121 79
125 114 72
134 122 76
126 116 73
130 119 73
135 126 81
133 123 79
133 124 81
132 124 81
131 121 77
133 122 77
132 125 82
130 123 80
135 121 74
135 127 83
135 126 82
135 125 79
138 127 81
137 125 77
134 125 81
138 127 81
134 123 77
128 117 73
132 123 80
140 129 82
136 126 80
137 128 84
131 122 79
140 129 82
134 123 78
138 127 80
141 130 83
136 129 84
141 132 85
138 130 84
140 130 85
141 133 86
140 131 85
140 131 84
141 132 84
140 131 85
141 132 85
143 134 87
138 130 85
141 134 88
143 136 90
138 128 83
138 129 83
133 125 82
120 115 85
151 168 187
158 178 203
156 178 206
156 177 203
157 178 206
155 177 206
158 179 206
158 178 205
157 178 205
155 177 206
158 179 206
158 179 206
153 175 203
156 177 205
158 179 206
157 178 206
157 177 203
155 177 206
158 179 206
157 178 206
157 178 206
153 176 206
156 178 206
157 178 205
157 178 206
156 178 206
159 179 206
157 178 204
157 178 205
157 178 206
159 179 205
157 178 206
156 178 206
158 179 206
157 178 206
155 177 205
158 179 206
157 178 206
157 178 206
158 179 206
156 178 206
156 177 206
158 179 206
157 178 206
156 177 206
157 178 206
156 177 206
158 179 206
156 178 206
157 178 206
158 179 206
157 178 206
157 178 206
157 178 206
156 178 206
157 178 206
156 178 206
156 178 206
158 179 206
155 176 205
158 178 206
157 178 206
156 177 205
158 178 205
157 178 205
157 178 206
157 178 206
157 178 206
157 178 206
155 177 205
154 175 203
139 162 192
140 164 195
139 163 194
138 161 191
137 161 192
138 161 192
133 156 186
136 159 190
134 158 188
139 161 191
135 160 191
138 161 191
132 156 187
135 158 188
132 157 189
133 156 186
135 158 189
129 153 183
131 155 186
132 155 186
130 153 185
129 152 181
132 156 187
136 159 189
130 155 188
131 154 185
130 153 184
129 152 182
131 155 186
132 154 184
124 148 182
131 154 183
127 150 182
128 151 180
127 150 181
132 155 187
128 151 183
130 152 182
128 152 184
130 154 186
128 152 185
130 154 185
122 145 178
124 147 178
124 146 175
124 145 174
122 145 178
117 139 171
122 144 177
127 151 183
121 143 175
119 142 175
116 138 171
122 144 175
117 139 171
116 138 170
123 145 178
111 132 163
106 127 160
110 132 167
114 136 169
110 132 166
111 133 166
102 124 158
109 130 164
109 130 161
116 137 168
101 121 153
111 132 165
103 125 161
102 122 155
103 124 158
108 128 159
121 142 172
101 121 153
106 126 157
114 134 164
133 155 185
143 165 194
148 167 194
150 171 200
146 167 196
152 172 200
144 165 194
140 162 193
143 164 193
143 165 195
147 168 196
142 163 192
146 167 197
141 163 194
149 170 198
141 164 197
147 168 198
131 155 192
55 95 164
62 107 181
60 105 179
62 105 178
58 101 172
62 106 179
61 105 177
59 103 176
65 111 186
63 108 184
66 112 186
61 104 176
59 102 175
63 108 181
66 112 186
63 109 184
58 101 176
61 105 179
66 113 187
61 105 179
65 111 186
61 106 181
62 106 180
59 103 178
67 114 191
66 113 190
63 107 181
66 112 189
64 110 187
68 115 190
66 113 189
65 112 189
65 110 183
67 115 192
66 112 188
62 107 181
62 107 180
65 111 186
63 108 183
67 115 191
62 107 182
66 113 189
65 111 186
65 111 186
62 106 176
64 110 185
67 113 186
64 110 185
63 107 178
59 101 171
64 109 180
63 108 179
61 104 174
62 105 175
63 105 172
58 99 165
57 96 160
60 99 162
131 151 178
143 161 183
145 161 180
140 158 182
146 165 188
148 166 190
140 157 180
147 166 191
143 160 180
139 156 179
145 163 184
147 162 180
142 160 181
145 159 174
145 161 180
152 171 193
152 169 189
127 135 142
119 106 63
105 93 55
109 99 61
99 89 53
111 102 63
107 98 62
104 94 56
108 95 56
111 101 63
115 106 67
108 100 64
105 99 65
110 103 66
117 109 70
116 107 68
115 106 68
106 97 61
117 104 61
120 110 68
113 107 70
115 106 67
120 108 66
123 113 70
127 117 74
124 115 73
123 114 72
123 112 69
130 122 80
130 117 72
125 116 74
126 117 74
118 107 67
124 115 74
136 125 80
132 121 75
129 120 78
127 116 73
132 122 78
133 124 80
133 121 76
131 119 73
137 127 82
133 125 81
134 124 78
134 122 76
139 128 81
130 121 77
139 127 79
135 125 80
137 125 79
137 126 80
140 128 79
135 125 80
137 128 82
134 123 77
135 125 79
142 132 84
136 123 76
136 123 76
134 124 80
139 129 83
136 127 82
139 129 83
137 129 84
137 126 79
141 132 85
141 130 82
141 131 84
140 131 84
140 132 85
144 134 87
142 132 85
142 133 86
144 136 89
134 125 80
134 125 80
138 130 95
151 167 184
159 179 206
157 178 206
157 178 206
156 177 203
157 178 206
159 179 206
155 177 204
157 178 206
158 179 206
157 178 206
155 176 204
156 177 206
156 177 203
155 177 206
158 178 205
156 178 206
156 177 205
156 176 203
156 177 204
158 179 206
157 178 206
157 178 206
157 178 206
157 178 205
157 177 205
158 179 206
158 178 205
158 179 206
157 178 206
155 177 206
157 178 206
157 178 206
157 178 205
157 178 206
155 177 205
157 178 206
157 178 206
157 178 206
157 178 206
158 179 206
157 178 206
154 177 206
156 178 206
157 178 206
157 178 206
155 177 205
158 179 206
155 177 206
157 177 205
157 178 206
157 178 206
157 178 206
156 177 205
156 178 206
156 178 206
155 177 206
155 177 206
155 177 206
157 178 206
158 179 206
154 176 205
159 179 206
158 178 206
158 178 206
158 178 204
155 177 206
159 179 206
157 178 206
157 178 206
156 178 206
157 178 206
152 175 203
141 165 196
139 162 193
137 161 193
137 161 192
136 160 190
139 162 192
137 161 193
133 157 189
136 159 189
134 157 188
132 155 185
136 159 191
131 155 186
137 161 191
136 159 190
133 155 185
134 157 188
132 155 187
134 156 186
128 151 183
130 152 182
132 156 187
132 155 185
131 154 185
133 156 186
128 152 184
130 153 184
127 150 180
132 155 186
131 153 184
136 159 189
131 154 184
132 155 185
126 148 180
125 148 180
125 148 179
127 149 179
123 146 179
126 149 182
125 149 182
128 151 182
124 147 180
120 143 174
124 146 177
116 139 171
114 137 170
120 144 177
122 145 178
120 142 173
126 149 179
114 136 167
116 138 171
120 142 172
113 135 169
111 133 166
116 137 167
112 133 164
107 128 159
113 136 169
108 130 165
113 134 163
109 130 162
96 117 152
103 124 155
111 131 160
105 125 155
95 117 152
93 113 146
99 119 153
96 116 149
95 113 143
103 124 155
104 124 156
105 125 156
103 123 155
127 149 182
140 161 189
144 165 193
134 155 186
146 168 197
140 162 192
143 165 196
141 162 191
145 168 198
145 166 194
142 164 195
143 164 194
138 161 193
148 169 198
143 164 193
138 161 192
143 165 196
146 167 196
132 154 186
101 126 170
59 102 175
57 100 173
63 107 179
60 103 176
61 106 180
61 105 178
63 107 181
56 99 172
61 107 182
65 110 185
62 106 177
58 102 175
61 105 179
66 113 190
61 105 179
64 109 183
61 105 179
62 108 183
61 105 177
59 102 175
64 108 180
64 110 185
62 105 177
65 110 182
63 109 184
63 109 184
58 101 174
68 115 189
67 114 190
63 108 183
64 110 186
65 111 186
60 103 174
67 114 190
64 109 183
62 107 182
63 108 182
64 109 182
65 111 185
61 105 180
62 106 179
63 106 177
62 106 178
63 107 178
58 99 167
65 111 184
63 108 178
61 105 178
65 110 183
62 105 177
62 106 177
59 99 162
58 99 163
56 97 165
56 94 157
56 92 146
112 134 169
139 155 175
140 158 181
141 157 175
140 154 172
147 162 178
145 164 191
145 161 180
142 158 178
141 160 183
139 153 169
143 158 174
141 153 164
143 158 175
147 161 177
137 155 178
148 162 180
139 153 171
144 157 169
125 132 137
98 87 52
103 91 53
95 87 54
109 97 59
94 83 50
96 89 57
102 96 61
97 91 60
95 91 59
97 85 48
111 102 65
108 99 62
108 99 63
115 104 65
109 102 65
109 100 64
111 105 69
114 105 67
119 107 65
114 105 66
123 109 66
124 110 65
124 115 73
119 110 70
120 113 74
130 117 72
122 111 70
129 119 75
125 115 72
125 116 76
127 118 76
130 117 71
126 117 75
133 124 79
125 115 73
119 107 65
127 116 72
129 120 77
132 121 76
133 121 75
134 123 78
123 114 73
134 121 75
130 119 74
136 126 81
131 121 77
135 122 75
136 126 80
135 125 79
128 119 76
136 127 82
137 126 80
138 126 79
136 126 80
136 125 79
139 128 81
137 127 81
136 126 80
142 132 86
134 124 80
139 128 81
141 130 82
141 131 84
137 129 83
139 130 83
142 132 85
136 129 84
140 131 84
142 131 84
141 131 84
139 130 84
142 131 84
134 125 81
133 123 79
125 119 91
155 173 196
156 177 203
156 178 206
158 177 202
157 178 205
154 176 204
157 178 205
157 178 205
157 178 206
157 178 206
157 178 206
157 178 206
156 175 200
158 178 206
158 179 206
157 178 206
158 179 206
157 178 206
159 179 206
157 178 206
158 178 203
158 179 206
157 178 206
156 178 206
157 178 206
156 178 206
155 177 206
156 178 206
156 177 205
157 178 204
156 176 202
159 179 206
157 178 206
156 178 206
158 179 206
157 178 206
156 178 206
157 178 206
157 178 206
156 178 206
158 179 206
157 178 206
158 178 206
155 177 206
158 178 206
158 179 206
158 179 206
158 179 206
156 178 206
157 178 206
157 178 206
157 178 206
155 177 205
157 178 206
155 177 206
159 179 206
157 178 206
156 177 205
158 179 206
156 178 206
159 179 206
158 179 206
157 178 206
155 177 205
157 178 206
157 178 206
157 178 206
156 178 206
157 178 205
157 177 204
156 178 206
157 178 206
156 178 206
158 179 206
156 177 205
143 166 196
137 161 193
139 162 192
138 162 193
136 160 191
134 158 189
134 157 188
133 157 188
133 155 184
135 159 190
134 159 190
132 156 187
139 162 192
135 159 189
130 154 185
129 152 183
135 158 189
137 160 189
133 156 185
128 151 180
133 155 184
134 156 185
133 155 183
127 150 181
131 154 185
129 153 184
136 158 187
122 145 177
130 152 183
125 148 178
123 147 179
123 145 177
123 146 177
127 150 180
124 147 179
129 151 181
127 149 179
122 144 175
128 150 180
118 139 168
119 141 173
124 146 177
119 142 174
118 142 176
117 140 172
111 134 169
123 146 176
120 142 175
117 139 171
121 144 175
110 132 164
113 136 169
121 144 175
115 136 168
116 137 166
118 140 172
116 138 170
108 129 159
109 130 162
114 135 167
101 122 156
115 135 165
102 122 155
105 125 155
99 120 153
91 110 141
96 116 149
100 121 153
96 117 151
99 118 146
106 127 158
104 123 150
110 131 161
131 151 181
138 159 188
136 156 183
140 161 190
141 163 193
144 165 194
143 164 191
133 155 186
141 162 193
138 158 186
137 159 191
140 161 191
129 150 180
137 157 186
131 152 186
128 150 184
136 157 187
132 153 183
138 158 188
131 153 186
139 160 189
94 122 173
57 99 169
59 101 171
60 103 176
58 100 170
61 104 176
60 104 176
58 101 175
62 107 182
62 108 183
60 103 177
65 111 187
64 109 182
63 108 184
65 110 186
62 106 178
61 107 183
64 109 184
64 111 187
67 114 194
60 103 177
66 113 190
61 104 175
64 109 185
65 111 186
63 108 183
65 112 189
63 107 180
63 108 182
63 108 183
63 108 181
68 115 192
63 108 184
62 106 180
66 113 189
62 107 181
64 110 186
60 103 175
65 111 184
65 111 184
63 109 185
62 107 179
66 113 189
63 107 175
63 106 177
60 103 173
65 111 183
63 105 171
61 104 172
61 104 174
65 110 183
58 99 168
58 97 158
60 102 167
58 98 160
107 128 166
132 150 173
133 146 161
133 150 170
139 157 179
143 159 177
132 147 167
139 154 174
142 158 175
141 158 179
143 158 178
141 157 176
139 153 169
143 156 169
145 159 177
142 159 179
143 154 165
142 156 174
142 157 174
139 153 167
141 157 175
136 141 140
113 105 76
113 98 57
113 101 60
105 95 58
99 86 48
95 84 49
100 90 56
115 101 60
96 88 54
100 92 59
107 97 60
106 100 64
96 86 51
108 98 60
109 99 61
108 99 63
126 112 67
116 104 64
116 106 66
120 109 67
116 106 67
115 104 65
120 110 70
117 108 69
126 115 72
123 114 73
121 109 67
127 112 66
127 116 72
121 111 70
130 119 74
125 113 68
124 112 70
126 114 70
130 120 75
124 113 72
128 115 71
136 121 72
135 124 78
131 118 74
125 115 73
140 128 80
127 117 74
136 125 79
136 124 77
129 119 76
132 122 78
136 124 77
128 117 74
136 124 77
138 126 78
138 128 82
133 122 77
138 128 82
137 125 78
136 124 78
139 129 82
137 129 84
135 124 77
136 125 80
139 129 82
139 127 80
141 130 84
137 127 81
140 131 85
138 128 82
140 131 85
139 128 80
139 129 83
140 132 87
137 129 84
122 114 74
131 129 106
153 169 190
157 178 206
158 179 206
157 178 206
157 178 206
158 178 204
156 177 205
156 177 203
158 179 206
156 178 206
157 178 206
156 177 204
158 179 206
158 179 206
155 177 206
157 178 204
158 179 206
159 178 203
154 176 204
156 178 206
159 179 206
157 178 205
156 178 206
159 179 206
157 178 206
157 178 206
158 177 203
159 179 206
157 177 202
158 179 206
157 178 206
156 178 206
157 178 205
158 179 206
157 178 206
156 178 206
159 179 206
158 178 205
157 178 206
158 178 206
157 178 206
156 178 206
155 177 206
155 177 205
156 178 206
156 178 206
159 179 206
156 178 206
156 177 205
157 178 206
158 179 206
155 177 206
156 177 206
159 179 206
156 177 206
158 178 206
159 179 206
156 177 206
154 176 205
157 177 204
156 177 205
156 177 205
156 178 206
156 178 206
157 177 205
156 177 205
156 177 205
157 178 206
156 178 206
157 178 206
156 178 206
155 177 206
156 178 206
155 177 205
156 177 205
157 178 206
156 178 206
145 168 198
138 161 191
137 160 191
138 161 191
136 159 189
136 160 192
136 159 189
134 157 186
137 160 191
131 154 185
136 158 188
132 155 185
133 156 185
135 157 187
131 153 182
134 157 188
132 154 184
130 153 183
130 153 184
130 153 183
135 157 186
131 153 182
132 154 184
125 147 178
124 147 178
123 146 176
128 151 183
130 152 182
126 149 181
126 149 180
132 155 185
126 150 182
118 141 172
123 145 175
126 148 178
121 143 175
122 144 175
120 143 175
125 147 177
122 144 175
121 143 175
119 140 170
118 141 173
116 139 171
122 145 177
118 139 170
111 133 165
107 129 161
119 140 170
117 139 171
119 140 171
114 134 165
112 134 168
101 122 155
113 134 164
115 136 166
106 127 160
101 122 155
113 135 169
98 118 150
99 120 153
112 130 158
98 118 152
106 126 157
108 127 156
92 112 145
97 116 145
94 113 144
105 125 155
92 110 140
111 132 163
138 158 184
133 152 178
140 159 185
124 145 175
140 160 188
130 150 178
134 153 182
131 153 185
141 161 190
132 153 184
139 159 188
128 147 173
131 152 182
123 143 174
126 146 178
139 160 190
125 145 176
117 138 172
126 147 179
132 153 183
135 156 186
131 151 181
134 154 182
92 121 173
56 97 170
58 100 172
58 101 173
62 106 181
62 106 179
64 109 183
61 105 177
67 114 190
60 103 175
58 100 173
63 108 179
61 106 181
63 109 185
64 110 186
57 99 171
60 103 177
62 107 183
64 110 184
62 108 182
62 107 181
63 108 181
61 104 173
63 108 182
64 109 183
66 113 190
65 111 184
62 107 180
64 109 184
61 106 181
62 107 182
66 111 185
62 107 181
64 109 184
59 102 174
61 105 177
61 104 175
63 109 184
63 107 181
60 103 174
63 107 180
62 106 180
60 103 173
64 108 180
63 107 178
60 103 172
58 99 167
60 102 171
63 106 174
60 102 170
53 91 153
59 101 167
57 95 154
103 125 162
125 143 167
127 143 165
126 146 173
123 137 155
138 153 173
139 150 162
131 144 157
136 148 159
136 152 170
141 157 174
135 153 176
128 142 158
131 142 154
139 149 157
136 148 159
135 148 164
134 146 162
129 141 155
135 146 158
127 136 144
133 144 155
142 152 161
126 133 139
105 96 73
107 97 60
111 99 60
90 80 48
94 83 48
101 90 54
101 89 52
101 91 56
104 93 57
91 81 48
113 102 62
108 97 60
114 103 63
102 90 52
118 106 65
119 109 68
116 104 62
110 100 62
112 103 65
125 113 69
110 98 56
117 103 61
121 109 67
124 113 70
123 111 67
123 113 71
126 111 65
120 109 68
123 110 67
126 116 73
123 110 66
122 110 68
125 114 70
133 121 75
126 112 67
129 114 68
132 120 73
134 122 75
124 114 72
132 121 75
136 123 77
127 116 72
129 118 74
133 119 71
134 121 73
136 124 77
131 119 74
136 123 75
137 124 77
131 121 77
132 122 78
132 121 76
132 122 78
134 124 79
138 127 81
138 127 81
137 125 79
136 124 78
138 127 79
139 128 81
139 129 83
135 124 77
141 129 80
139 126 79
141 129 80
137 128 83
141 131 83
131 122 77
135 128 84
131 120 75
142 149 151
157 178 204
156 176 202
157 178 204
154 176 203
158 178 203
155 176 203
157 178 204
157 177 204
157 177 204
159 179 206
158 177 202
159 179 205
158 177 203
158 179 206
157 177 205
157 177 203
155 177 206
156 178 206
156 177 203
157 177 205
157 177 204
156 176 202
157 178 206
159 179 206
155 177 206
158 179 206
156 177 205
156 178 206
156 178 206
155 176 203
157 178 206
156 177 205
158 179 206
157 178 205
156 177 205
158 179 206
157 178 205
153 175 203
156 177 206
154 176 206
157 178 206
156 177 206
156 178 206
158 179 206
156 177 205
155 176 204
156 178 206
157 178 206
157 178 206
158 178 206
157 178 206
156 178 206
156 178 206
156 178 206
156 177 205
156 177 206
156 178 206
158 179 206
156 177 205
157 177 205
157 178 206
157 177 204
158 179 206
154 176 204
156 177 206
154 176 204
155 177 205
158 178 206
156 178 205
155 176 204
155 177 205
157 177 205
158 178 206
156 177 205
156 178 206
157 178 206
156 177 204
156 177 206
156 178 206
151 173 201
141 163 193
138 162 193
135 159 191
136 159 189
136 160 190
136 159 189
135 158 188
132 155 184
131 154 184
132 155 184
136 159 188
132 155 184
131 154 185
131 154 184
129 152 182
131 154 184
129 151 181
127 149 178
131 155 185
130 152 182
127 151 183
131 155 186
127 150 181
134 158 188
126 148 178
127 148 177
127 149 180
125 147 177
126 149 181
123 145 175
121 144 175
127 149 180
122 144 174
118 141 172
128 151 181
121 144 175
122 144 175
124 146 176
109 130 161
119 142 174
115 137 169
112 133 165
116 138 170
123 145 175
105 126 158
106 126 157
119 140 170
107 128 159
115 137 171
113 134 166
116 137 166
112 133 165
116 136 165
110 130 160
102 123 157
114 134 163
100 120 153
95 114 144
98 118 148
104 124 156
97 116 145
97 117 147
105 123 152
94 113 145
95 113 143
88 109 142
96 114 143
116 135 161
128 148 176
126 145 174
134 154 183
134 153 181
134 155 185
125 144 173
125 144 174
126 145 173
129 149 177
127 147 178
125 145 175
136 157 187
138 157 186
131 152 182
137 157 186
129 149 178
125 146 178
136 157 187
128 149 180
132 154 185
121 143 177
126 147 179
130 151 183
123 144 176
134 154 185
98 124 172
58 101 173
53 93 164
59 101 173
60 103 175
59 102 174
63 108 183
56 98 168
63 107 181
58 101 173
61 105 179
63 108 184
62 106 179
61 105 179
62 106 177
64 110 185
64 110 187
63 108 180
60 105 179
62 106 180
59 103 178
61 106 181
62 105 177
64 109 181
58 102 176
62 107 183
60 104 179
62 107 180
62 106 180
60 103 175
62 106 178
62 106 178
59 101 170
63 107 178
63 109 185
60 103 174
65 111 184
58 100 170
63 108 183
60 102 171
58 100 169
59 101 171
56 96 165
62 106 178
57 97 161
59 99 163
58 99 165
56 95 161
57 96 157
60 101 168
55 94 157
100 123 159
125 142 163
129 145 165
130 144 162
129 143 159
131 146 166
122 138 156
122 133 147
134 148 167
135 147 162
131 146 163
135 147 161
124 136 150
133 146 161
126 137 147
131 141 153
138 152 171
130 144 160
130 138 143
139 147 152
130 143 157
138 146 151
130 137 142
138 144 147
140 150 161
137 146 157
114 109 95
105 92 52
87 73 38
92 81 48
90 81 50
107 96 58
105 93 56
105 92 54
102 91 54
94 83 49
103 89 51
104 88 47
114 101 58
98 91 59
117 104 63
120 107 65
120 107 63
120 109 68
118 107 68
117 104 62
114 103 64
114 103 63
120 105 61
119 108 68
119 109 68
118 107 67
121 109 66
120 111 71
122 108 63
120 111 71
112 100 60
132 119 73
120 108 65
131 118 72
126 113 69
131 119 74
133 122 76
126 111 65
125 115 72
126 115 71
135 123 77
134 121 75
130 118 72
127 117 73
136 122 74
130 119 75
135 124 79
134 121 75
137 121 73
133 122 76
139 127 80
137 122 75
139 125 77
133 119 71
135 124 79
139 127 80
140 128 81
136 125 79
140 129 82
136 125 79
139 129 83
140 127 79
140 129 81
139 127 80
136 125 78
138 129 83
128 120 78
122 122 106
146 162 180
158 178 206
157 177 203
154 175 202
156 176 203
155 176 202
157 178 205
156 177 205
156 177 205
155 174 197
155 177 205
157 177 203
155 177 205
157 177 203
155 176 203
159 179 206
157 176 202
158 178 205
157 177 203
157 177 203
157 178 204
159 179 206
158 179 206
157 178 205
152 173 200
156 177 205
156 177 206
156 178 206
158 178 205
158 179 206
157 177 203
156 178 206
156 177 206
156 177 205
158 179 206
157 178 206
157 178 205
156 177 205
159 179 206
155 177 204
158 178 204
158 179 206
155 177 206
157 178 206
158 179 206
156 177 205
157 178 206
157 178 206
158 178 206
158 179 206
155 177 205
155 177 206
158 178 204
155 177 206
158 178 205
156 176 203
156 178 206
156 177 204
158 178 205
155 177 205
155 176 204
157 178 206
157 178 206
155 177 205
156 177 205
156 177 206
157 178 205
156 177 204
157 178 206
160 179 205
157 177 204
155 176 204
157 178 205
156 176 204
157 178 206
155 177 206
154 176 205
157 178 205
155 177 206
156 177 206
154 175 204
158 178 205
155 176 204
144 165 194
135 159 191
135 158 189
135 159 189
135 158 187
132 155 185
136 159 189
131 153 183
130 152 181
133 156 187
131 154 183
131 154 185
130 153 183
129 151 180
129 151 180
133 156 186
132 155 185
131 152 179
131 153 182
125 147 176
124 146 175
129 151 180
131 154 184
127 149 180
126 149 180
126 149 181
117 138 167
122 144 173
128 150 180
123 146 177
126 148 179
126 148 177
119 141 171
122 144 175
121 144 177
119 140 170
120 142 173
120 141 169
118 139 168
118 140 171
118 138 166
127 149 178
119 140 169
110 132 164
109 130 161
122 144 175
110 131 163
107 129 162
111 132 164
108 128 160
113 133 163
102 122 153
103 123 155
99 118 148
99 119 149
92 112 144
102 122 152
92 110 140
104 123 154
105 123 150
88 107 138
97 116 148
84 103 135
96 115 144
101 119 147
123 141 165
124 141 167
136 154 180
132 150 175
117 136 166
135 152 179
121 140 169
125 144 174
133 152 181
135 153 180
124 143 172
126 146 177
127 147 176
122 143 175
127 147 176
135 154 184
133 154 185
131 152 181
127 147 177
123 144 177
120 141 172
121 142 177
126 147 180
126 146 176
123 144 177
119 139 172
127 148 180
125 145 177
113 135 175
53 93 162
59 101 172
54 95 165
55 96 169
60 103 176
61 104 178
56 97 169
54 94 161
57 98 168
62 106 179
59 102 174
63 108 184
60 104 178
55 96 169
60 103 174
60 104 177
58 102 175
59 102 176
59 103 177
63 109 184
63 108 182
62 107 182
61 106 179
63 108 183
61 105 179
61 104 176
61 105 178
58 102 177
59 102 173
63 108 183
59 102 174
60 102 173
61 104 174
66 111 185
58 100 170
58 101 173
60 102 173
56 96 165
58 101 173
60 102 171
57 97 166
63 108 179
59 99 165
59 101 169
58 98 164
52 91 155
60 100 165
60 98 158
98 121 158
114 131 153
115 127 144
123 138 158
116 134 161
128 141 155
123 137 155
127 141 159
128 142 158
129 144 163
128 141 158
125 139 157
126 139 156
131 143 158
128 141 155
125 137 148
123 132 141
129 139 151
125 138 151
119 124 123
115 121 124
126 133 137
130 141 152
127 134 141
132 140 147
131 139 145
125 134 145
126 131 133
129 130 126
99 86 57
94 80 44
100 85 47
97 83 47
107 93 53
84 75 45
98 85 48
106 93 54
101 91 56
103 90 52
120 106 64
111 100 61
105 92 55
111 97 56
111 100 61
119 106 64
115 101 61
121 108 64
119 107 67
118 105 62
111 100 61
123 108 63
129 117 71
130 117 73
127 116 72
134 118 70
121 111 69
122 107 63
124 107 62
121 108 65
129 113 66
128 115 69
129 111 62
126 115 72
128 114 69
127 115 70
129 116 73
125 113 70
132 118 71
132 121 76
137 124 76
133 119 73
136 122 75
126 111 65
132 121 77
135 122 75
133 123 78
136 121 74
133 122 77
134 122 77
132 119 73
133 121 76
133 122 76
135 124 77
141 128 79
134 121 75
139 127 79
142 130 82
139 127 81
143 131 84
138 127 81
139 130 85
131 122 79
125 114 71
134 142 148
157 175 199
155 176 202
154 174 200
156 177 204
156 175 200
158 178 205
155 176 203
157 177 204
159 177 202
156 176 203
156 178 206
157 177 203
156 177 205
157 178 205
155 176 203
159 179 206
156 177 203
156 178 206
157 178 205
157 177 203
158 178 205
156 175 197
154 176 203
156 177 203
156 176 201
158 178 205
157 177 203
157 177 203
157 177 202
157 177 203
157 178 205
156 177 203
157 178 206
158 178 205
157 177 203
157 178 205
156 178 206
157 178 205
158 178 205
156 177 204
159 179 206
158 179 206
157 178 206
157 178 206
154 176 205
158 178 206
160 180 206
157 178 206
158 179 206
156 178 206
156 178 206
158 178 205
157 178 205
156 178 206
157 178 206
156 178 206
156 177 205
157 178 206
157 178 206
155 177 205
156 178 205
156 177 205
155 176 205
156 177 206
157 178 205
157 178 206
156 177 204
157 178 206
155 177 205
155 177 206
155 176 204
156 177 205
158 179 206
157 177 204
154 176 204
156 177 204
155 176 204
154 175 203
157 178 206
154 175 203
156 176 203
154 176 204
155 177 205
155 177 205
155 177 205
151 173 202
139 162 192
136 158 187
136 159 189
133 155 184
128 150 179
134 156 185
130 152 181
130 153 182
129 153 183
131 154 184
129 150 179
133 156 186
130 153 183
127 150 180
134 156 184
127 150 180
124 146 176
129 152 181
126 148 177
129 151 181
131 153 182
123 145 176
128 151 180
117 138 169
118 138 165
119 141 172
123 145 174
124 146 177
129 151 180
120 142 172
128 150 180
119 141 171
119 139 168
119 139 167
117 138 167
117 139 168
106 127 158
115 136 165
115 136 165
115 135 164
110 132 164
112 133 163
106 127 158
112 133 164
109 128 156
110 131 161
111 133 165
103 123 153
114 133 162
107 127 158
105 125 156
102 122 154
100 120 152
97 116 147
93 113 146
96 115 147
100 119 151
96 114 143
100 119 148
84 102 135
95 112 138
105 123 149
123 141 167
118 136 162
127 144 169
124 143 170
115 133 160
126 144 172
123 142 170
126 145 172
113 133 166
122 142 171
120 138 166
119 138 167
121 140 171
118 138 169
121 141 172
121 142 174
120 141 174
126 145 173
117 138 172
125 147 181
125 146 177
126 145 175
111 131 164
111 131 165
124 145 177
110 132 167
120 141 175
118 137 168
121 141 173
113 133 167
96 120 164
61 95 160
52 92 164
51 91 161
56 97 168
59 102 174
61 104 176
59 101 173
58 101 174
62 107 180
63 108 183
55 96 167
59 101 172
63 107 179
63 108 184
62 106 182
59 101 173
62 107 182
61 104 176
58 100 171
55 95 164
58 101 173
58 101 176
61 106 179
63 108 183
55 96 165
58 100 170
59 102 173
56 97 167
63 107 180
62 107 181
57 99 169
62 106 177
57 99 172
62 105 174
59 101 171
61 102 168
62 105 176
66 112 187
62 104 173
60 102 173
59 101 172
56 97 165
55 95 161
56 95 157
56 96 163
59 94 152
116 133 162
116 133 158
125 137 150
120 136 158
106 119 136
108 124 145
107 122 142
130 145 162
113 128 147
108 121 137
116 133 159
119 133 151
123 136 152
119 129 142
122 131 141
119 126 131
124 134 142
127 137 146
117 127 138
125 135 144
119 127 134
118 128 138
126 133 137
121 127 133
126 133 138
130 135 134
122 130 136
130 134 135
119 121 116
116 118 114
113 115 115
109 106 98
94 83 57
98 85 48
101 82 40
94 83 50
96 83 50
99 87 51
100 86 49
95 84 51
109 96 58
110 97 57
102 92 57
115 105 67
110 95 55
111 95 53
114 96 52
112 99 59
118 104 63
115 100 58
124 108 62
120 108 66
123 110 67
118 108 67
117 102 59
119 103 59
126 113 69
124 110 65
124 111 67
122 109 67
118 107 67
121 106 63
132 121 76
120 108 66
123 112 70
123 110 68
123 107 60
132 118 71
122 110 67
125 114 71
125 112 69
130 118 74
130 116 69
134 122 76
131 117 70
136 123 76
127 114 70
139 123 74
137 125 77
133 119 72
133 121 74
131 120 76
136 123 76
139 126 78
136 124 76
139 125 76
139 127 80
138 126 79
136 125 79
141 131 83
135 124 78
121 114 74
127 123 100
143 159 179
158 177 202
155 173 196
156 176 202
155 174 198
156 176 200
155 175 200
156 177 205
156 175 200
156 175 199
157 175 198
158 178 205
158 175 197
155 176 204
155 176 201
158 179 206
154 174 198
156 176 200
156 178 206
156 177 203
156 176 202
157 177 203
155 176 203
158 177 202
159 178 203
154 174 200
155 177 204
156 176 203
155 176 203
157 177 203
155 175 201
157 178 204
155 176 203
155 177 205
157 177 203
157 178 205
158 178 205
156 177 203
157 178 205
157 178 206
157 178 205
156 176 203
158 178 205
159 179 206
158 178 205
158 178 206
158 179 206
155 177 206
154 176 205
158 179 206
155 177 206
158 178 205
157 178 206
157 178 205
155 177 205
155 177 205
155 177 205
155 177 205
155 177 206
156 177 206
156 178 206
156 177 205
158 179 206
157 178 206
156 177 204
155 177 205
156 177 204
156 177 205
157 178 206
158 179 206
156 177 205
154 176 204
156 177 205
155 176 204
155 176 204
154 176 205
158 178 205
158 179 205
155 177 205
153 176 205
155 176 203
155 177 205
154 176 205
154 175 202
156 177 205
154 176 205
156 177 204
155 176 204
153 175 203
148 170 199
133 156 186
131 154 184
133 156 186
131 153 181
132 153 182
131 154 183
126 148 176
127 149 178
131 153 181
129 152 182
124 146 176
131 152 180
127 147 175
130 152 180
127 149 177
126 149 179
127 148 175
128 150 179
124 146 175
127 150 180
125 146 176
120 140 168
122 143 172
122 144 175
119 140 171
126 148 177
121 143 174
114 136 169
123 146 176
114 135 165
111 132 162
111 132 160
123 144 174
111 131 161
110 131 163
112 132 162
118 138 168
108 127 156
116 136 165
110 132 163
99 119 149
110 131 161
118 138 166
106 127 157
106 126 157
110 130 159
99 118 148
96 115 146
97 114 140
94 115 147
101 119 147
89 107 136
95 114 144
96 112 137
90 108 134
93 110 137
85 102 127
96 112 135
110 127 151
114 131 156
119 136 160
111 128 152
117 134 158
116 134 160
117 134 162
116 135 163
111 130 161
112 131 161
112 130 158
115 134 162
116 135 165
117 137 168
129 148 178
109 127 158
124 143 171
120 140 172
123 142 172
126 146 176
120 140 173
124 144 176
121 141 174
112 133 167
120 140 173
121 141 174
124 144 176
125 145 177
121 142 175
115 134 167
113 133 167
92 113 152
106 126 160
99 122 162
78 111 172
53 93 165
55 95 165
56 97 169
57 100 173
54 94 164
57 100 173
58 101 172
58 100 172
59 102 175
58 101 172
58 101 173
56 97 167
57 100 173
57 99 173
54 95 167
60 103 174
58 101 172
60 104 177
63 108 181
56 98 168
60 103 178
59 102 176
61 106 181
65 110 185
62 105 177
61 106 179
60 104 177
57 99 168
57 99 168
63 108 184
60 103 175
60 102 171
58 100 169
60 102 169
59 102 172
55 96 165
60 104 178
58 100 169
57 98 166
57 97 163
54 92 155
51 89 151
74 101 148
107 123 148
109 124 146
112 129 152
110 128 155
114 128 148
112 124 142
117 130 144
107 118 133
118 131 150
127 142 161
105 119 135
121 133 147
117 130 146
120 135 153
131 144 161
121 129 136
117 127 140
117 130 144
118 126 132
122 135 147
115 125 134
126 134 142
119 125 129
112 115 115
122 129 134
120 127 133
123 127 125
122 123 116
97 98 97
115 118 116
116 117 110
113 110 98
127 128 122
119 118 108
101 97 86
81 71 46
94 79 43
94 78 43
100 87 50
89 74 40
103 88 50
106 93 54
100 86 48
108 94 55
113 98 58
107 94 56
101 88 50
114 102 62
114 102 62
111 99 60
114 100 59
108 95 57
108 95 57
117 103 59
120 106 63
114 96 52
121 108 67
125 110 65
121 110 68
126 110 64
118 103 58
117 103 62
124 112 69
128 117 73
118 102 58
117 106 66
122 110 67
131 116 69
120 107 64
129 116 70
122 106 61
132 116 70
129 112 63
131 115 68
130 114 67
132 119 72
126 113 69
129 114 68
136 124 78
131 118 73
136 121 72
132 114 64
130 116 71
133 120 74
132 117 69
138 125 77
135 123 76
136 124 77
135 124 78
129 120 77
117 106 64
127 124 104
138 146 149
150 169 192
155 175 201
155 174 199
156 175 200
153 171 194
155 175 199
155 175 199
158 176 199
156 175 200
155 172 194
154 175 203
155 175 200
155 173 195
157 177 203
155 176 202
156 176 202
157 176 202
154 174 199
157 176 202
157 178 205
156 176 203
157 177 203
158 177 203
156 174 197
156 175 200
156 177 204
157 178 205
156 177 204
156 177 203
153 174 200
158 178 205
157 178 205
156 177 204
157 178 205
156 178 206
157 178 206
156 176 202
154 175 200
157 177 203
156 177 205
158 178 204
157 178 206
156 178 206
158 178 205
155 177 206
157 178 206
157 178 206
158 179 206
158 179 206
155 177 205
156 177 205
157 178 206
157 178 205
155 177 206
156 177 204
155 177 206
157 178 206
158 179 206
157 178 206
155 177 204
156 177 205
158 178 205
155 177 206
158 179 206
157 178 206
154 176 204
156 177 205
155 177 205
159 179 206
159 179 205
155 177 205
154 175 204
157 177 204
157 178 206
156 177 206
155 177 205
153 175 203
156 178 205
153 175 204
156 177 206
154 175 202
155 176 205
155 176 203
157 178 205
154 175 203
157 178 205
156 177 205
155 176 203
154 175 203
153 175 203
153 175 203
154 175 203
147 168 196
133 155 184
136 158 187
132 155 185
131 153 181
128 149 178
128 150 179
130 151 179
124 146 175
129 152 181
127 149 177
128 149 178
125 147 177
126 147 174
124 146 174
126 146 174
128 150 178
126 147 175
121 141 169
117 137 164
124 145 174
123 145 174
121 142 170
120 141 170
124 145 172
118 139 168
122 143 172
123 145 174
115 135 162
124 146 174
116 135 163
118 139 167
115 134 162
112 133 162
113 132 159
104 123 152
118 137 164
108 129 159
108 128 157
113 133 162
106 126 157
99 118 146
97 117 146
115 135 164
105 125 153
101 120 149
108 126 153
94 114 146
92 112 142
95 114 143
83 101 128
87 103 129
77 94 123
70 85 110
88 105 133
102 117 139
102 119 144
104 120 144
104 120 145
100 117 145
109 125 150
108 125 154
112 130 159
107 125 154
106 123 152
109 127 155
105 124 157
94 113 144
109 129 160
119 138 169
113 133 166
117 136 167
111 131 164
122 142 172
114 135 169
119 139 170
123 141 170
112 133 167
116 136 170
116 136 168
101 122 159
108 128 162
116 135 166
113 133 168
113 134 168
106 126 161
105 123 157
103 122 155
125 144 175
93 115 153
93 113 150
89 110 148
81 109 160
50 89 158
57 98 169
57 99 170
50 89 158
55 97 167
58 99 171
57 98 169
52 92 163
51 91 161
53 94 163
56 98 170
60 103 177
63 107 180
56 97 168
58 100 169
57 98 167
54 95 166
57 99 171
58 100 169
56 97 167
60 102 174
57 98 168
54 95 167
56 98 169
55 95 164
59 102 176
55 95 163
56 97 166
59 102 173
56 97 167
62 105 176
59 102 174
56 96 162
54 93 155
51 88 151
56 96 163
57 97 165
56 96 163
56 96 158
67 99 156
75 92 128
95 110 134
81 93 109
101 113 133
107 122 142
100 114 136
100 113 132
121 133 149
111 127 146
108 122 140
126 139 154
118 133 154
127 140 159
122 133 146
122 135 149
114 124 134
103 115 126
124 138 156
116 127 141
116 128 142
111 123 137
111 116 117
111 121 131
118 125 128
110 117 123
117 127 136
117 119 114
117 122 124
115 120 122
118 122 123
121 125 126
115 116 111
112 113 112
110 109 106
104 105 105
110 106 97
110 109 107
104 103 102
83 72 50
81 67 36
83 66 31
89 77 46
99 87 50
94 82 49
96 80 42
103 87 48
99 84 45
94 82 47
114 96 54
106 91 53
109 95 56
116 100 58
103 93 56
119 101 55
111 95 53
116 99 54
119 106 64
110 95 56
133 117 69
113 99 58
118 104 62
115 100 58
121 106 63
126 108 61
120 105 61
123 106 60
121 103 58
122 106 62
124 104 56
130 115 68
124 109 63
123 106 60
124 111 68
127 111 65
129 116 71
131 119 73
133 118 71
127 110 63
135 121 74
131 116 69
132 117 71
129 115 69
134 121 75
131 117 71
132 118 71
130 114 68
136 120 71
135 121 73
137 123 75
123 109 65
125 112 68
124 115 83
135 146 157
151 168 189
154 171 191
153 171 194
156 177 203
155 174 199
152 170 193
153 169 188
156 175 198
153 170 192
155 175 200
155 174 197
155 176 203
157 178 204
155 174 198
156 178 206
157 177 203
156 177 204
156 174 197
155 175 199
158 177 203
155 175 200
155 174 199
157 175 199
157 177 203
157 177 203
155 176 202
156 175 200
158 179 206
156 177 204
157 178 205
156 176 201
159 178 204
155 176 203
156 177 203
157 177 202
158 178 205
158 178 203
157 178 206
154 176 203
158 179 206
156 176 201
158 179 206
156 176 202
155 175 200
157 178 205
157 178 205
157 178 206
157 178 205
157 178 206
155 177 206
155 177 205
157 178 205
156 177 206
158 179 206
157 178 206
157 178 205
158 178 205
154 176 204
157 178 206
154 176 205
156 177 205
156 178 206
155 176 203
154 176 204
156 178 206
153 175 204
156 177 205
159 179 205
155 176 204
155 176 205
155 176 204
154 175 203
154 175 203
156 176 202
155 177 205
153 175 204
155 176 203
156 177 204
154 175 202
156 177 204
156 177 205
157 178 204
154 175 203
155 176 202
152 174 202
156 175 202
156 177 204
152 173 201
151 173 202
151 173 201
149 171 198
153 174 202
154 175 202
153 174 202
149 170 198
153 173 199
147 168 195
133 156 186
131 154 183
131 152 181
127 148 177
124 145 173
129 150 178
127 148 177
130 152 181
123 145 174
129 150 179
125 147 176
128 149 177
120 142 172
122 142 170
129 151 180
129 150 178
126 147 175
125 146 174
128 149 178
123 144 173
120 141 170
120 141 170
115 135 163
119 139 167
111 132 160
115 135 162
109 130 159
97 117 147
108 128 156
114 135 163
111 132 162
108 127 155
104 124 152
107 127 153
103 122 149
94 112 138
101 120 148
87 106 135
99 117 143
101 119 146
89 108 139
98 116 144
98 117 145
93 111 139
92 109 134
93 110 136
86 102 128
76 92 118
69 83 106
90 104 123
97 112 133
97 111 133
94 110 132
103 118 140
99 114 138
105 121 145
104 121 148
99 116 145
114 130 155
101 119 146
109 126 155
123 141 171
119 135 161
104 122 151
93 112 143
109 127 157
113 131 160
108 127 159
118 136 166
109 129 161
113 131 160
105 126 159
115 134 166
118 138 168
111 130 163
114 134 167
98 119 155
108 127 161
113 133 167
107 127 162
108 128 163
115 133 165
98 117 150
106 127 163
107 127 159
113 132 165
108 128 161
107 125 157
85 105 144
100 119 153
87 109 151
63 93 151
50 85 152
54 95 166
52 90 156
58 100 172
56 98 171
56 98 170
50 89 160
55 95 166
54 95 166
56 98 169
59 101 173
60 103 176
48 87 159
59 102 176
60 103 176
59 102 174
54 94 163
59 102 172
57 98 169
59 100 169
56 97 165
55 96 167
55 96 163
55 96 165
60 102 171
57 98 167
57 98 169
58 100 172
55 96 165
57 99 168
54 93 161
52 90 157
58 100 171
57 97 165
47 81 140
47 83 145
56 90 151
92 111 144
102 114 134
91 107 135
107 121 143
94 109 130
95 109 131
104 118 137
90 103 125
112 127 146
114 129 150
105 119 138
114 126 139
121 132 143
123 135 150
112 125 143
117 130 145
115 126 138
116 124 129
123 137 154
126 139 156
124 134 146
126 135 141
112 121 127
111 117 123
108 117 124
114 123 131
100 109 117
110 118 124
109 114 115
110 113 114
107 112 114
103 109 114
109 110 104
107 110 112
122 124 121
110 108 101
105 107 107
100 95 80
95 94 90
95 95 96
88 82 73
92 84 69
77 63 32
80 62 30
88 77 44
82 69 40
90 71 33
106 90 51
92 76 41
99 81 42
88 75 42
112 94 52
105 90 50
107 93 54
112 96 53
110 93 52
116 101 58
110 97 57
114 102 63
116 103 63
116 100 55
116 100 57
118 103 61
119 106 65
116 101 60
124 106 61
121 106 61
125 112 69
123 107 61
121 104 60
130 118 73
125 108 64
126 109 63
130 114 66
129 115 70
116 100 57
120 101 56
125 110 65
131 116 70
130 115 68
127 113 68
133 118 71
126 110 64
127 114 69
132 113 65
135 122 75
140 125 76
129 115 69
121 108 64
120 109 69
126 123 106
140 148 153
154 171 192
151 167 186
150 165 181
154 173 198
154 173 196
152 169 188
155 173 195
155 172 195
156 175 200
156 175 199
152 169 189
155 174 197
155 175 199
157 176 200
156 177 203
155 172 194
158 175 197
154 173 197
155 174 198
157 175 197
154 175 201
153 173 198
154 174 198
157 177 203
158 179 206
156 176 202
158 178 206
158 178 203
156 175 199
153 170 191
156 177 206
158 175 197
157 177 202
157 177 203
157 176 202
154 174 199
155 173 196
155 175 201
157 176 201
156 176 203
154 174 200
157 176 199
158 178 205
155 176 203
157 177 203
157 176 201
156 177 204
156 176 201
156 177 205
156 178 206
158 178 205
160 180 206
158 179 206
155 177 206
154 176 204
156 177 205
157 178 205
155 177 204
156 178 206
157 178 206
156 177 205
155 177 205
155 177 205
156 177 204
155 177 205
157 177 205
155 176 204
156 177 206
157 178 206
155 176 204
155 176 204
156 177 205
154 176 204
155 176 204
155 176 204
155 176 204
155 176 204
155 176 204
155 177 205
153 174 202
154 175 203
156 178 205
153 175 204
155 177 205
154 175 202
152 174 203
155 176 203
154 175 204
155 176 203
151 173 202
154 175 204
152 174 202
154 175 203
153 174 202
155 176 203
154 175 202
147 169 196
152 174 202
157 178 205
153 174 201
152 172 199
143 164 192
127 148 176
127 148 176
128 149 177
129 150 178
123 144 170
127 148 176
122 143 170
121 141 169
125 146 174
123 145 173
122 143 171
128 149 176
121 141 169
120 140 167
122 143 171
118 138 165
118 138 165
120 140 167
127 148 176
119 139 166
114 133 159
113 132 158
112 132 159
103 123 151
105 124 152
110 129 157
110 129 156
109 128 155
109 128 156
117 137 164
102 120 147
111 130 155
104 123 149
95 113 142
100 118 146
98 117 145
100 117 143
93 111 138
93 110 133
87 103 128
83 100 125
77 93 117
84 98 119
76 90 111
71 83 101
84 96 114
83 96 117
99 112 134
92 107 133
105 119 140
97 112 137
101 117 142
88 105 135
99 116 145
110 127 153
92 108 135
105 121 147
105 123 153
101 119 149
113 130 157
108 126 154
100 118 147
112 130 161
110 129 162
109 129 162
112 131 163
99 118 151
113 131 162
119 139 168
120 139 170
120 139 167
104 124 158
103 122 156
98 117 152
112 131 162
111 131 165
110 129 162
100 120 157
105 125 159
128 146 175
93 114 153
100 119 155
95 113 146
96 114 149
108 125 156
84 103 140
92 111 149
100 117 148
82 100 138
83 102 141
62 88 140
49 87 157
54 94 164
53 93 161
53 93 164
49 88 156
55 94 162
56 98 168
54 95 167
55 96 164
57 99 170
55 96 165
53 93 161
55 96 164
58 100 170
52 91 160
51 90 156
53 92 160
56 99 171
59 102 174
53 92 161
56 97 167
56 96 162
58 100 172
47 83 151
51 89 157
55 94 162
52 90 156
57 98 169
53 93 160
52 91 156
52 89 153
52 89 154
74 99 146
88 108 145
72 86 108
89 103 127
97 112 137
95 106 125
82 96 119
113 123 135
100 117 142
100 117 142
103 117 139
101 115 134
106 121 142
98 112 133
116 128 144
118 131 149
105 115 127
109 121 136
119 131 146
110 121 135
120 133 149
112 124 139
121 135 152
105 117 130
111 124 137
126 136 150
109 116 123
117 129 145
123 129 131
106 114 122
116 122 127
115 124 134
98 100 98
111 115 113
98 100 97
108 114 118
105 108 105
102 101 95
105 103 98
101 98 90
103 105 106
92 92 87
93 97 103
98 97 91
84 79 68
89 85 78
82 72 57
77 64 36
64 53 29
80 64 32
83 66 32
85 68 33
91 75 40
97 83 48
112 95 53
101 84 44
104 88 48
98 83 45
112 94 52
104 88 49
100 85 47
112 95 52
118 99 53
105 88 48
114 98 55
110 94 52
106 89 47
120 103 59
122 105 59
119 104 61
119 101 55
117 102 61
124 106 59
120 106 64
123 106 61
122 107 63
125 104 56
128 106 55
121 105 61
132 117 70
128 110 63
122 103 57
126 110 64
126 108 61
129 113 66
125 112 68
134 119 73
126 110 65
123 110 66
112 99 58
121 109 76
129 132 126
147 159 173
154 167 179
149 165 182
151 169 190
154 172 194
152 169 190
154 171 191
155 172 191
154 171 192
154 173 198
154 170 188
154 172 194
157 174 194
152 170 192
152 169 189
157 175 198
154 171 192
155 176 201
153 171 193
156 175 199
157 177 203
153 171 192
155 174 199
157 177 203
156 175 199
154 172 196
156 174 197
155 174 197
156 177 205
157 177 204
157 177 203
154 173 196
155 176 202
156 175 200
154 175 200
156 176 201
155 174 197
157 175 198
156 176 202
154 175 201
155 175 200
157 177 203
156 177 205
155 176 203
156 176 202
157 178 206
155 176 203
156 177 205
158 176 199
158 178 205
155 175 202
158 176 199
157 178 205
157 178 206
157 177 204
157 178 205
156 177 204
158 178 205
156 177 205
155 176 205
157 177 204
153 175 204
156 178 205
156 177 205
156 177 205
157 178 206
156 177 205
157 178 206
157 178 204
155 177 205
155 177 206
154 175 202
157 178 205
156 177 205
155 176 204
157 178 205
157 178 205
154 176 205
157 178 206
156 177 204
157 178 206
158 178 205
156 177 204
155 176 204
154 175 203
154 175 203
154 175 204
156 177 205
155 176 203
153 174 202
151 173 201
152 173 201
149 171 199
151 171 198
151 171 198
153 175 202
148 169 196
151 172 199
150 171 198
153 173 199
152 173 201
151 173 201
153 173 200
150 171 198
147 167 193
152 171 198
140 161 189
136 157 184
127 148 176
125 145 173
119 139 166
122 142 169
111 131 157
123 144 170
124 145 171
114 134 161
116 136 162
118 138 164
118 138 163
120 140 166
124 144 171
116 135 160
113 133 160
113 132 159
113 131 156
107 127 154
110 128 152
112 131 157
114 133 158
102 121 148
112 131 156
111 130 154
112 130 155
107 124 150
99 116 139
95 112 136
103 121 145
102 119 144
91 109 136
105 123 147
88 104 128
88 103 125
83 99 124
74 89 111
78 91 112
73 84 101
72 83 101
70 80 96
82 93 108
84 97 116
81 96 120
90 103 124
90 105 129
108 124 149
87 101 123
106 122 147
103 121 150
88 104 133
90 107 138
102 119 149
100 116 143
97 116 148
104 121 149
111 128 157
103 120 149
112 132 164
112 131 162
112 131 163
105 123 153
113 131 161
116 136 170
122 142 176
122 140 170
101 122 159
123 142 173
106 126 162
103 123 159
104 123 157
117 136 167
101 121 157
115 134 166
113 133 166
110 128 159
98 118 155
112 132 163
103 121 154
102 120 152
93 113 151
95 114 151
89 108 144
83 101 137
83 100 135
85 103 138
82 99 134
82 99 132
76 92 124
74 94 133
49 77 133
48 85 153
48 85 153
46 82 151
49 88 158
51 89 159
51 89 159
51 89 158
57 99 171
57 98 169
55 96 167
55 95 163
57 98 167
55 96 168
57 98 168
51 89 157
52 90 157
52 91 159
52 91 158
49 87 156
44 78 144
53 92 160
51 88 153
52 91 160
52 91 156
49 86 153
49 85 151
52 91 157
47 82 143
60 84 129
49 66 97
72 81 98
90 100 120
98 110 128
89 101 123
98 112 137
93 106 129
91 104 125
103 115 136
99 113 132
110 123 141
95 109 128
91 107 132
97 115 143
97 107 119
104 115 127
102 115 133
106 120 140
114 127 142
115 127 142
111 123 135
112 122 134
111 121 131
102 111 122
105 115 127
108 116 121
118 128 138
109 116 123
116 126 134
116 124 131
116 122 122
111 120 128
99 104 106
108 116 124
84 87 82
102 104 100
110 115 118
109 114 115
102 107 110
90 89 81
100 100 93
75 75 77
89 84 77
102 100 89
90 90 85
86 83 76
93 88 77
77 70 55
97 89 70
90 81 61
72 61 40
70 57 30
66 53 29
91 75 41
86 67 33
84 69 38
84 66 33
98 82 44
99 81 42
89 73 40
104 84 43
104 85 44
112 92 49
114 96 54
107 88 47
114 96 54
113 95 51
103 88 49
109 90 48
121 105 62
122 104 58
121 102 55
110 91 47
125 106 59
124 106 61
115 98 54
125 109 64
128 111 65
126 108 62
129 111 64
128 112 65
125 105 57
128 112 64
125 106 59
134 118 71
125 109 63
118 103 61
120 105 61
117 105 69
126 125 113
141 148 152
146 156 165
150 164 180
150 167 186
153 168 186
151 163 173
153 167 183
152 165 180
152 169 188
155 173 194
152 167 184
157 174 194
156 174 196
155 173 197
151 166 183
154 170 188
151 165 181
153 173 197
156 174 194
155 172 193
155 175 200
159 177 200
155 174 197
155 175 201
153 172 195
154 173 197
156 175 200
154 174 200
155 174 197
156 175 197
157 176 199
155 174 197
156 174 197
157 177 203
157 176 200
155 175 200
155 175 200
155 173 197
155 175 200
155 175 200
156 174 197
156 175 198
156 175 200
154 175 201
155 174 199
155 174 197
156 175 200
156 177 204
158 177 201
159 178 203
159 178 203
155 175 201
156 177 205
156 176 201
155 175 202
153 175 203
155 176 205
156 177 204
156 177 206
154 176 204
156 178 206
156 177 206
153 174 202
155 177 205
157 177 204
156 177 204
157 178 206
157 178 205
155 176 205
155 177 205
155 176 204
155 176 205
155 176 204
153 175 204
152 174 203
158 179 205
157 177 204
155 177 204
154 176 204
155 177 204
155 176 204
153 175 203
152 173 202
156 177 205
152 174 202
153 174 202
156 177 204
154 175 204
151 173 201
152 174 202
154 175 202
152 173 201
151 173 201
154 175 203
152 174 201
153 175 202
151 172 199
151 172 199
154 174 201
152 173 200
151 172 198
151 171 197
153 172 198
149 169 196
149 170 197
146 167 193
152 171 198
150 170 197
150 169 195
150 170 195
152 171 197
145 165 192
148 168 194
132 151 176
131 151 177
114 134 159
114 134 160
122 142 168
115 135 160
116 136 162
110 129 153
119 139 165
118 138 166
115 134 158
111 130 156
112 131 157
116 135 159
109 128 154
106 124 148
114 133 159
94 112 137
114 133 157
100 117 142
93 110 134
101 119 144
89 106 130
92 110 135
84 100 121
103 121 146
79 95 119
87 103 125
90 105 126
88 103 124
75 88 107
63 75 91
72 83 99
65 74 88
64 72 86
74 85 101
79 89 104
74 87 107
94 107 127
93 106 128
89 104 129
92 106 129
92 108 132
93 107 133
103 118 144
101 118 146
108 125 153
106 124 154
106 123 151
112 129 156
107 126 157
97 114 146
107 125 154
112 130 160
112 130 160
113 133 166
112 131 162
111 129 159
110 131 163
126 144 174
119 139 170
110 130 162
120 140 171
111 131 162
113 133 167
105 125 161
114 133 164
117 135 166
118 137 169
113 133 166
114 133 163
113 134 168
101 120 154
97 116 150
99 118 153
106 124 157
91 111 146
89 107 141
99 119 155
100 119 152
88 106 141
100 118 149
89 108 145
77 94 128
86 102 135
80 97 131
80 96 128
74 90 122
63 79 112
47 71 117
56 89 150
49 85 152
48 83 146
54 94 163
48 85 150
48 85 152
56 97 166
57 97 169
52 90 157
53 93 164
47 84 152
53 93 162
52 90 154
48 85 154
51 88 154
47 83 148
53 92 159
53 92 160
52 90 155
51 87 148
48 84 148
49 86 151
44 79 142
55 81 130
55 73 112
40 54 88
85 98 121
85 97 119
74 89 120
80 93 115
75 89 117
69 82 107
92 108 138
105 117 135
88 104 129
92 107 130
104 116 135
99 112 132
99 113 136
118 131 150
104 119 141
104 117 133
115 129 146
118 129 141
116 128 141
104 119 140
111 126 146
110 119 129
113 126 141
106 121 139
118 129 143
103 117 135
105 121 144
114 126 138
116 128 141
116 127 139
113 122 131
112 124 140
116 124 129
113 120 126
110 118 124
112 117 116
106 114 121
107 110 105
111 116 121
115 118 116
106 109 111
110 111 109
95 99 104
103 104 103
99 98 90
97 93 85
102 101 97
100 100 94
101 95 81
83 81 77
83 80 73
84 82 75
78 74 72
74 69 65
71 64 57
67 55 34
72 61 44
78 64 33
85 68 36
81 65 34
86 68 35
82 63 30
95 78 44
94 76 38
107 87 46
99 81 42
110 91 48
115 94 50
101 82 42
110 92 49
102 85 46
116 98 54
113 95 52
119 100 55
119 100 53
111 95 54
123 103 57
121 101 54
117 98 53
115 96 51
119 98 50
113 95 51
119 102 57
121 106 63
116 99 56
111 96 62
127 123 111
126 126 121
140 147 150
145 156 165
149 165 183
148 159 171
151 161 172
150 161 172
150 160 170
151 164 179
149 160 171
153 169 187
152 166 181
152 168 187
151 165 181
153 171 191
149 163 178
152 168 188
152 170 190
153 171 192
153 171 194
154 171 191
152 169 190
155 174 199
153 171 194
153 169 188
153 170 191
154 172 195
156 175 198
153 173 200
154 170 188
155 174 197
156 174 197
153 170 191
154 173 197
157 177 202
158 177 202
155 174 197
156 177 203
156 175 200
155 175 199
155 174 197
156 175 200
155 174 198
155 175 199
156 175 199
156 176 200
152 170 192
157 177 202
155 175 199
156 176 200
156 177 205
157 178 205
156 176 200
154 175 201
156 176 202
155 174 199
155 173 196
156 176 202
156 175 200
155 176 204
157 178 205
156 177 205
158 178 205
156 177 205
157 178 205
155 176 204
154 175 204
156 178 206
158 179 206
155 176 204
156 177 205
158 179 206
156 177 205
155 176 204
155 175 203
156 177 205
157 178 205
156 178 205
156 176 204
153 175 202
154 175 204
153 174 202
155 177 205
152 173 201
156 177 204
151 172 200
152 173 201
156 176 203
152 173 201
153 174 202
152 173 201
156 176 202
157 178 205
152 173 201
155 175 201
154 176 204
152 173 200
153 174 201
152 172 199
154 175 202
150 171 198
149 170 197
150 170 197
149 170 197
149 170 196
151 171 197
149 169 195
148 169 196
151 171 198
144 163 189
147 167 193
149 169 195
148 167 192
144 164 189
146 165 191
148 167 191
143 162 187
139 158 182
136 155 180
138 156 180
137 155 179
127 145 169
122 140 165
108 126 149
114 132 157
110 128 152
107 125 148
108 127 152
116 135 160
103 120 143
101 118 142
102 120 143
109 127 151
95 111 134
100 116 139
96 112 132
95 112 135
97 113 134
97 113 134
85 101 124
85 100 120
86 99 119
70 84 104
66 77 95
61 72 88
70 82 99
71 82 96
65 74 85
73 84 100
77 89 107
80 92 111
75 85 101
92 106 127
72 83 102
87 102 125
89 103 125
97 112 135
91 107 132
99 114 139
106 122 149
104 121 148
114 131 158
99 115 145
97 113 141
109 126 152
106 123 152
99 117 149
102 120 151
110 129 159
110 128 160
124 142 169
115 132 161
108 127 158
100 120 155
112 131 163
108 128 160
111 128 157
108 129 165
108 128 164
115 135 167
124 143 174
118 138 171
112 132 166
102 122 157
117 137 170
109 129 161
104 125 161
100 120 155
112 131 164
100 119 154
112 130 162
103 122 155
99 118 151
100 121 159
111 131 165
102 121 155
98 115 148
96 114 149
79 99 139
96 113 144
88 105 138
73 93 134
76 94 132
85 101 132
76 92 125
73 90 123
68 83 117
69 81 110
54 68 100
39 61 106
51 74 125
37 66 124
43 78 142
50 87 152
51 88 153
45 79 143
49 87 157
46 81 144
50 87 152
50 87 152
48 84 151
46 81 146
48 85 153
44 78 142
47 84 148
41 74 137
43 71 125
53 74 117
53 69 102
34 46 75
68 79 101
75 87 110
77 89 110
63 74 92
70 79 96
77 91 120
73 83 105
92 101 116
78 95 123
99 112 137
92 107 131
94 108 132
97 106 119
93 111 140
98 109 128
91 107 131
118 132 152
115 128 148
116 129 148
109 123 144
103 116 135
116 130 148
115 128 144
113 126 145
120 133 149
110 123 141
104 115 130
120 133 148
112 123 136
115 127 140
120 132 144
115 128 143
113 121 128
115 127 143
116 124 133
107 114 121
122 133 144
113 122 128
116 126 139
117 124 133
109 116 121
100 102 97
102 107 107
110 114 112
87 89 85
99 99 95
103 109 114
101 100 89
102 103 100
106 105 99
88 81 68
106 110 112
83 83 83
79 79 82
92 91 84
88 83 70
74 68 59
81 67 37
78 78 79
85 78 67
63 52 35
60 51 35
57 45 24
66 53 28
69 58 39
79 61 27
87 71 37
91 73 38
87 67 33
93 73 35
96 76 38
103 85 46
108 89 48
111 92 50
102 84 44
101 83 44
104 86 46
100 82 43
107 90 48
106 87 48
110 91 49
106 87 46
101 86 51
113 96 61
114 100 66
117 108 82
133 132 124
138 142 142
144 150 152
139 144 145
142 148 153
147 156 164
147 155 160
147 156 161
146 155 164
150 160 169
151 162 174
149 162 174
143 152 160
151 163 176
151 164 180
150 166 185
150 162 172
156 168 180
156 169 182
153 169 187
148 159 166
151 165 180
150 163 176
152 166 180
151 167 186
152 170 191
153 167 182
154 172 194
153 167 183
153 170 190
154 172 193
156 173 194
155 171 191
154 172 194
154 172 194
153 171 192
154 172 194
155 172 193
155 175 200
158 176 199
155 174 198
155 175 200
155 173 195
156 176 202
156 174 197
155 175 199
153 171 193
155 174 198
156 176 200
156 177 203
154 175 202
155 175 201
155 173 196
154 174 198
157 177 202
155 176 203
153 171 194
156 176 203
152 173 198
155 176 203
157 177 205
153 175 204
157 177 202
157 178 206
156 177 205
157 178 205
158 178 205
157 178 205
156 177 204
152 174 202
156 177 205
154 176 204
157 178 205
156 177 205
157 177 204
152 174 203
154 176 205
156 177 205
154 175 203
156 177 204
154 176 204
153 175 203
153 175 203
156 177 205
153 175 204
154 175 203
154 174 201
151 172 200
150 172 200
157 178 204
154 175 203
153 174 202
156 176 203
154 175 202
151 173 200
155 175 202
151 172 200
154 175 203
151 172 200
151 171 199
150 171 199
148 170 198
154 175 202
150 171 199
147 167 193
153 173 199
150 171 198
151 171 198
148 167 193
148 169 196
151 171 197
147 168 195
147 167 193
141 161 186
144 164 189
148 167 193
147 166 190
144 162 186
139 157 181
145 163 187
141 159 184
138 156 181
140 159 184
144 162 186
139 157 180
133 151 173
137 154 176
122 139 161
133 149 171
124 140 162
128 145 166
125 142 163
109 124 145
106 121 143
102 117 137
102 117 136
100 115 134
98 112 132
92 106 126
99 113 132
79 91 106
84 97 115
86 98 115
82 93 109
83 93 106
73 82 95
66 75 88
76 86 100
76 86 101
87 100 117
68 79 94
86 98 116
80 92 112
76 88 105
82 94 112
89 103 122
75 88 109
92 106 131
91 106 129
101 118 144
98 114 141
96 112 139
116 133 158
112 129 156
96 114 144
110 127 155
97 115 144
111 128 155
111 129 158
101 119 148
120 139 168
100 119 150
105 123 153
119 138 168
122 142 172
107 127 161
118 137 167
105 123 155
109 129 162
117 136 165
110 128 161
113 133 165
115 135 167
104 123 156
108 126 158
113 134 167
113 132 165
117 138 172
109 130 164
110 131 165
103 122 156
114 133 166
112 131 163
110 129 163
112 130 161
97 117 153
93 114 151
105 122 152
104 123 156
110 128 159
90 107 143
71 90 127
97 115 150
88 105 140
70 87 124
83 100 133
89 105 139
67 82 116
89 104 134
67 83 116
63 78 113
76 88 115
48 64 101
51 65 95
70 81 106
58 71 99
67 81 110
48 61 91
50 66 98
49 64 105
33 56 103
35 57 109
49 69 113
37 59 104
51 69 112
41 57 94
41 57 92
43 61 98
38 51 80
15 29 61
75 87 112
59 71 98
46 56 79
46 62 94
83 96 120
56 69 94
77 91 119
76 89 116
82 94 118
89 101 120
87 97 119
88 100 120
91 104 126
90 104 129
104 117 136
103 118 141
83 100 124
95 111 135
93 109 134
105 119 138
109 121 140
106 118 135
114 128 147
112 127 151
108 123 145
104 114 127
113 125 139
117 130 147
114 127 144
113 126 144
114 130 150
117 129 145
105 117 132
122 134 148
114 125 139
105 115 129
113 125 139
127 138 148
116 127 140
110 120 133
118 129 142
120 129 141
106 117 131
117 124 131
104 113 123
119 125 129
110 119 130
100 107 115
111 114 110
109 111 107
113 116 116
111 114 112
114 115 111
116 117 114
106 106 99
95 94 85
101 101 100
101 101 100
99 94 84
89 83 73
92 84 65
91 86 72
90 85 74
81 72 56
80 72 56
70 60 39
69 65 60
84 78 70
80 70 46
78 68 50
63 50 26
75 64 42
68 58 44
91 79 54
81 68 42
88 75 51
80 69 49
88 75 52
85 72 48
102 94 77
96 87 73
111 102 81
100 87 58
106 98 80
120 115 103
127 124 115
128 125 115
136 138 133
143 148 151
132 132 124
134 135 130
137 140 140
130 135 139
139 143 142
140 146 149
142 150 157
138 143 142
146 153 156
141 148 152
146 152 155
146 152 155
152 161 169
147 158 167
147 157 166
152 162 170
146 157 165
150 161 172
154 168 184
152 167 184
149 163 180
151 165 178
152 165 181
154 169 185
152 168 187
150 165 183
151 165 178
152 169 190
149 166 185
150 164 181
153 167 181
155 169 186
151 167 186
155 173 195
154 168 183
155 171 191
153 171 195
154 172 195
157 175 199
154 171 191
154 174 199
151 171 194
158 177 202
153 170 191
155 174 197
154 173 197
152 171 197
154 174 198
155 176 201
153 173 197
153 171 194
156 175 200
153 173 198
156 176 202
155 174 199
156 175 197
156 176 202
156 175 200
157 177 203
157 176 200
158 177 202
155 173 196
155 176 202
157 178 205
155 176 204
155 177 205
155 176 205
154 175 204
156 177 204
153 175 203
154 176 204
155 176 203
153 175 203
154 176 204
157 178 204
156 177 205
155 177 205
153 174 200
154 175 203
156 177 204
153 175 203
153 174 201
157 178 205
152 173 201
155 176 204
151 173 202
156 177 205
149 171 199
154 175 201
153 174 203
153 174 201
148 169 196
152 173 200
150 172 199
153 174 201
151 171 199
155 175 202
154 175 201
153 174 201
150 171 198
151 173 200
151 171 198
150 170 197
149 169 196
151 171 198
144 166 193
148 167 193
149 170 197
146 165 191
145 166 193
150 170 196
142 161 187
150 170 196
148 167 192
147 167 193
145 164 189
150 169 193
146 165 191
139 158 183
142 161 186
140 159 183
142 160 184
138 156 180
141 159 183
141 158 181
131 147 169
128 146 169
131 148 170
135 151 173
124 140 160
124 140 162
121 137 159
116 132 153
110 126 147
112 128 148
110 124 142
113 126 145
91 104 122
100 114 132
89 102 120
101 114 132
100 113 129
85 96 112
77 88 104
102 115 132
87 99 115
85 97 112
98 110 128
96 108 127
95 108 126
88 101 121
91 105 125
90 104 126
94 109 130
99 114 136
99 113 135
112 128 152
111 128 152
98 113 135
96 113 139
106 122 147
113 130 155
105 121 148
115 132 161
113 132 162
111 130 159
108 126 155
108 125 152
105 123 155
107 126 158
116 135 167
121 140 170
107 125 157
105 124 158
108 127 160
111 131 163
104 123 154
127 146 175
116 135 165
108 128 163
116 136 169
114 135 170
126 146 174
111 132 166
105 127 163
105 125 158
108 129 165
120 140 173
115 134 167
109 128 160
108 128 162
102 123 158
111 131 166
96 117 154
116 137 171
102 123 161
107 127 164
116 134 166
105 123 153
105 122 154
101 120 156
92 112 148
95 113 147
99 116 147
97 115 149
89 108 143
93 111 144
76 93 127
84 101 134
83 98 131
73 87 118
78 95 132
63 80 116
69 83 114
59 75 110
67 81 111
63 75 104
62 78 109
63 74 102
74 86 112
44 57 88
41 53 81
43 55 81
59 70 96
48 61 90
47 59 87
46 58 86
56 67 94
53 64 88
67 80 107
50 61 88
54 68 100
72 83 106
46 61 92
63 74 98
76 88 112
68 80 106
76 90 117
84 97 124
65 81 111
74 88 115
95 108 131
67 84 114
87 99 119
87 100 121
99 113 134
94 107 126
89 101 121
108 122 145
90 105 130
100 115 135
111 126 149
110 124 143
95 111 138
118 130 145
115 130 152
97 108 118
97 112 135
116 130 151
114 129 147
111 127 147
119 132 147
109 120 131
118 131 147
114 129 148
122 137 157
122 133 145
123 135 151
104 117 130
123 138 158
125 136 146
115 126 137
109 117 125
115 124 132
128 134 135
111 117 123
113 119 124
123 131 140
107 115 122
116 121 125
114 119 122
108 114 121
114 114 102
109 109 106
108 106 96
108 112 117
107 110 109
117 120 118
100 100 90
116 118 115
104 106 105
100 95 82
108 107 101
99 98 95
102 96 83
99 100 103
97 95 91
92 88 82
86 79 60
86 79 68
99 92 77
99 95 85
77 70 56
84 78 68
84 79 69
98 92 80
93 86 71
95 91 81
97 89 72
100 92 81
106 98 82
107 104 98
113 109 99
121 119 114
121 118 109
121 120 115
125 122 111
126 125 117
128 131 128
129 129 121
136 137 133
138 139 135
124 123 116
132 131 121
137 140 137
142 144 139
137 142 142
139 144 146
138 142 138
146 154 160
145 151 153
146 155 162
142 148 150
142 151 161
147 157 168
145 154 161
152 161 167
151 162 172
152 167 183
150 162 174
152 164 176
154 170 188
149 161 174
154 168 183
150 164 179
149 161 173
151 166 183
153 169 186
152 169 190
153 168 183
152 169 189
152 167 185
152 167 184
151 165 181
155 174 197
150 167 188
152 169 189
154 173 197
154 171 191
155 174 199
156 173 195
156 175 197
154 170 190
154 173 197
155 174 199
155 175 199
155 171 191
154 174 197
156 174 196
156 173 194
155 175 200
153 172 194
157 177 202
154 171 192
154 175 200
155 175 200
156 176 201
155 176 203
156 174 197
153 172 194
156 175 200
158 177 202
155 176 202
156 176 200
154 176 204
154 176 205
155 177 204
156 177 205
154 176 205
151 172 200
157 178 205
156 176 204
153 174 202
156 177 204
155 176 203
155 176 204
154 176 204
153 175 204
156 177 204
155 176 203
154 176 205
152 172 199
151 172 199
152 173 201
153 174 202
156 177 205
150 171 199
154 174 202
153 173 200
155 176 203
152 173 202
153 173 200
151 172 199
147 168 197
153 173 200
152 172 200
149 170 197
150 171 199
147 168 195
151 172 198
153 173 199
146 167 194
151 170 196
151 171 197
150 169 194
151 171 196
144 164 189
148 169 195
150 169 195
144 163 189
148 168 194
141 162 188
145 164 190
146 165 191
140 159 184
141 159 184
139 158 182
142 160 185
141 160 184
134 151 175
140 157 181
137 154 177
124 142 165
132 150 173
125 142 165
125 142 164
131 148 171
121 138 161
123 140 162
124 140 163
112 127 148
117 133 154
116 132 154
110 126 147
104 118 137
109 123 142
99 112 130
107 121 140
107 121 140
102 116 134
104 118 138
103 116 133
97 111 129
92 104 122
105 119 138
103 117 137
99 113 134
100 114 134
102 116 135
108 122 143
102 116 136
116 132 155
119 134 156
96 112 138
103 118 141
110 127 151
115 132 157
117 134 158
113 130 157
109 127 158
112 129 155
116 133 159
104 121 149
118 135 162
125 143 169
116 133 161
117 136 165
123 142 173
110 130 160
114 132 162
119 138 168
117 137 167
118 137 167
103 122 155
117 136 167
127 146 176
122 141 172
115 135 168
103 122 155
121 141 173
119 139 172
116 135 167
105 125 157
109 129 162
115 136 169
109 131 167
119 138 168
113 132 165
113 134 168
107 126 159
107 128 162
118 137 169
98 118 155
101 121 158
99 120 157
105 124 158
108 128 162
100 119 154
107 127 162
99 121 160
92 110 145
100 118 152
106 126 161
94 112 147
94 115 153
79 99 137
92 112 150
81 101 139
78 96 130
86 105 141
80 96 129
70 87 122
76 91 123
60 76 113
71 84 116
63 80 115
60 77 114
60 75 111
79 94 124
72 84 112
52 65 95
67 82 114
77 90 117
47 66 106
52 65 95
61 73 101
61 76 111
75 87 111
74 89 117
71 81 105
82 97 125
62 75 107
71 84 114
68 82 111
86 96 116
68 81 107
76 92 125
71 83 111
75 93 128
78 93 119
83 95 119
98 111 133
85 99 126
90 106 133
97 110 132
89 105 133
102 115 138
97 112 138
87 103 128
99 113 136
111 127 151
102 121 149
106 121 144
106 118 135
116 128 145
113 125 140
111 124 142
110 124 143
112 126 143
119 134 154
127 146 172
123 138 157
117 129 144
117 132 151
115 131 152
116 129 146
122 137 154
115 126 139
108 119 135
111 126 145
119 135 156
116 129 145
114 125 138
110 121 135
125 136 149
122 131 139
109 119 129
117 128 139
125 135 146
109 114 118
121 127 128
105 114 122
109 116 120
111 120 128
122 131 141
114 118 119
103 106 103
108 109 105
112 117 119
123 126 127
117 116 111
102 101 95
115 115 108
111 109 104
115 108 88
102 97 83
110 110 106
107 107 103
96 93 87
112 107 95
110 104 88
110 106 97
103 98 89
105 100 89
97 92 81
101 94 80
108 101 88
114 109 101
110 108 104
112 108 100
108 102 92
109 103 94
112 108 98
118 112 100
119 117 113
121 116 102
123 125 121
120 116 105
122 120 112
134 135 131
132 130 122
132 133 131
134 134 129
128 130 126
133 136 136
139 138 128
135 134 126
144 147 145
135 136 130
147 154 157
139 142 138
136 139 138
148 158 167
149 160 169
148 160 174
145 151 153
147 157 165
144 153 159
150 161 171
151 160 167
152 166 182
146 158 168
150 163 177
150 163 179
152 168 186
152 166 182
147 160 172
150 159 166
153 164 175
152 167 184
149 164 179
153 169 189
156 172 190
152 167 184
156 170 187
153 168 185
152 170 192
148 163 180
153 170 191
155 173 196
155 174 197
154 173 197
153 170 192
155 171 191
155 174 197
155 172 193
155 170 188
154 173 196
154 173 197
156 172 193
154 172 195
154 174 197
154 172 194
153 172 196
156 173 194
153 172 194
152 171 194
156 176 200
157 176 200
156 176 200
155 173 194
156 176 203
156 176 200
155 176 202
156 177 206
156 178 205
154 175 202
154 175 203
153 175 203
153 174 201
156 177 205
154 176 204
155 176 204
155 177 205
155 176 203
153 175 202
158 178 205
151 173 201
154 174 201
156 177 204
153 174 201
155 176 204
155 176 203
153 174 202
152 173 201
155 175 202
152 173 200
148 170 197
153 174 201
153 174 202
155 175 202
153 173 200
154 174 200
151 172 200
149 169 196
154 174 201
151 171 198
156 176 203
145 165 191
150 170 196
150 169 195
150 171 198
147 166 192
148 168 193
149 170 197
148 168 195
145 165 191
150 168 193
147 166 191
147 166 192
149 168 193
141 161 187
142 161 187
142 160 184
141 160 184
135 153 176
138 156 180
137 155 180
141 160 184
135 152 176
133 150 172
127 143 166
135 153 176
138 156 179
129 146 168
128 144 166
124 141 163
123 139 160
127 143 165
125 142 164
115 131 152
124 140 161
116 131 152
117 132 152
115 130 151
110 125 146
103 118 138
111 125 144
112 126 145
115 129 148
109 124 145
110 123 140
113 128 149
102 116 136
108 122 143
109 124 147
110 124 145
125 140 161
114 129 150
116 132 156
104 120 144
106 123 148
114 131 155
105 123 149
114 131 156
109 126 151
107 124 151
107 123 149
108 124 149
116 133 160
113 132 160
118 136 164
119 137 165
115 135 166
117 136 165
119 137 165
119 139 169
124 142 171
117 136 164
121 141 172
120 139 170
108 128 161
123 143 175
130 149 179
124 143 174
116 136 166
115 135 165
129 148 177
116 136 167
131 151 181
114 133 165
121 140 170
118 138 170
109 129 162
121 142 175
119 139 171
113 133 166
111 133 168
103 124 159
122 142 174
111 131 165
100 120 156
111 130 164
119 139 171
104 125 161
99 120 158
111 131 166
102 121 155
112 131 163
111 131 164
94 116 155
102 123 158
111 127 159
96 115 151
92 110 144
90 108 142
90 110 148
92 111 146
92 111 148
86 104 140
80 98 133
82 101 140
80 99 138
78 95 132
83 99 132
76 93 130
73 89 123
79 95 129
69 83 114
69 83 116
73 87 118
76 91 119
80 95 125
82 96 125
79 94 124
71 91 128
60 75 111
71 85 116
78 94 125
59 75 111
73 90 126
70 87 121
84 99 127
81 99 136
69 87 123
78 93 123
90 105 132
75 93 128
83 99 130
84 98 125
90 103 127
94 109 135
101 117 146
107 126 157
94 110 137
93 108 135
100 113 135
107 121 141
101 118 145
106 119 138
111 125 146
103 117 133
103 117 140
106 121 143
103 112 122
109 124 143
99 113 133
107 125 152
126 139 153
122 136 152
115 127 143
127 142 160
114 126 141
117 129 145
106 118 134
121 134 151
111 123 139
117 128 139
110 122 135
121 133 145
122 136 154
117 129 143
109 120 133
124 137 152
101 110 121
116 128 142
123 133 144
118 130 143
114 123 132
109 122 137
115 121 123
113 123 132
116 122 127
115 119 123
115 119 118
125 131 136
115 118 119
122 124 121
109 111 108
115 120 119
116 120 123
109 110 109
105 109 112
106 107 103
112 111 101
99 100 95
116 117 112
121 124 123
116 114 105
116 117 114
117 118 119
115 113 106
108 99 77
103 101 93
109 103 87
108 107 105
105 99 88
114 114 110
102 99 87
103 100 93
114 111 100
121 121 119
113 107 91
117 108 89
109 103 86
115 109 91
129 130 127
126 124 116
127 126 118
122 120 110
130 127 116
128 128 121
131 133 129
136 136 130
132 134 129
136 132 117
143 148 152
134 135 130
141 145 145
142 147 147
142 149 153
130 130 122
141 146 147
143 153 163
147 155 161
149 158 168
147 154 157
145 152 155
144 152 159
149 161 174
148 159 171
147 157 163
143 150 153
148 160 172
153 167 183
150 162 173
149 164 179
151 166 184
155 166 177
156 171 189
148 161 175
154 170 189
156 172 190
155 171 190
153 168 185
152 168 187
154 170 189
150 166 183
148 163 181
154 170 190
153 170 190
149 167 188
153 173 197
153 171 194
154 174 200
153 170 191
150 166 184
152 168 185
158 175 197
154 172 194
153 171 194
153 172 195
155 172 192
149 165 182
153 171 193
156 176 200
154 173 196
155 173 196
153 172 196
154 172 194
156 173 194
154 171 191
154 173 197
156 176 202
158 178 205
153 175 203
155 176 203
153 174 202
154 176 204
153 174 203
153 174 201
153 174 202
152 174 203
154 176 204
153 175 204
153 174 201
152 174 202
154 175 203
155 176 204
155 176 203
153 174 202
153 173 200
154 175 202
154 176 204
153 174 201
152 174 202
157 177 204
154 175 202
157 178 204
153 174 202
147 168 195
152 173 200
152 173 200
151 171 197
148 168 195
153 174 201
154 174 200
146 166 193
149 168 193
150 170 196
149 169 195
152 172 198
142 161 187
148 168 195
143 162 188
146 165 190
145 164 190
145 164 189
144 162 187
146 165 190
146 166 192
144 162 186
146 164 189
138 156 180
146 164 188
137 155 179
141 160 184
138 156 180
136 154 177
137 155 179
136 154 178
135 151 174
132 149 171
136 153 177
133 150 173
126 143 166
124 141 163
129 145 166
126 143 166
118 134 156
127 143 164
121 137 159
132 149 170
117 133 156
120 136 158
112 128 148
113 129 151
111 128 151
124 140 163
112 127 146
115 130 151
115 130 152
119 135 158
116 131 154
115 131 152
112 128 151
114 130 154
112 128 153
123 140 163
116 133 156
110 127 152
120 137 162
102 118 143
118 136 163
117 135 161
111 128 156
118 136 166
109 126 153
106 125 156
119 136 162
117 135 163
124 142 168
109 129 160
125 144 173
126 145 173
123 141 169
117 137 167
132 152 180
111 129 158
120 138 165
123 141 171
133 153 183
126 146 177
114 135 168
125 144 175
120 141 175
119 140 173
119 140 173
119 138 168
126 146 176
104 126 163
114 136 172
117 138 171
123 145 180
120 140 172
119 139 172
116 137 173
113 133 164
109 130 166
119 141 176
116 137 173
105 128 165
117 137 170
93 114 153
118 138 172
115 135 169
114 134 167
105 126 162
100 121 159
89 111 151
107 127 162
106 123 154
91 111 148
102 122 159
98 117 152
95 114 151
107 125 159
98 117 153
91 111 146
97 115 150
88 106 142
102 120 151
84 100 135
88 105 138
72 90 129
82 100 138
81 99 135
82 99 134
92 109 142
91 108 140
78 97 134
86 101 133
73 91 130
81 97 130
94 111 143
91 106 136
74 91 129
85 102 136
86 102 133
97 112 140
100 115 146
79 97 132
74 89 123
78 94 127
77 95 129
73 87 118
73 87 116
91 107 137
101 119 150
91 106 133
92 108 135
93 108 134
113 130 160
111 122 138
107 123 151
104 121 149
89 105 131
95 113 141
110 124 144
101 117 140
97 112 136
112 128 153
110 125 149
105 121 147
104 122 149
115 132 158
115 127 142
116 131 154
125 140 162
119 135 155
114 128 148
113 130 154
108 126 155
119 131 147
120 133 150
117 131 148
124 139 159
122 138 158
118 136 161
111 125 145
128 137 146
115 126 140
117 125 133
120 132 144
124 134 146
121 134 149
121 133 147
117 124 130
124 135 146
111 122 133
110 121 135
136 146 155
121 132 145
118 126 135
116 127 138
128 136 142
114 123 131
128 136 140
118 126 133
110 114 118
119 128 138
110 112 113
119 126 134
114 114 107
126 129 128
125 129 131
107 109 107
115 113 102
113 110 96
124 132 140
116 114 110
107 106 99
125 124 117
106 108 108
128 126 118
115 111 99
117 114 102
117 112 103
123 125 123
110 102 83
121 118 106
118 116 108
111 106 89
119 116 107
122 120 110
121 117 105
126 125 119
115 112 103
129 130 128
125 125 119
132 133 130
131 133 132
135 134 125
129 130 123
136 138 135
134 133 126
139 142 142
137 142 145
141 145 145
139 139 132
131 131 121
140 144 143
144 151 154
146 152 156
142 146 144
144 148 148
142 143 137
145 153 160
153 162 169
147 157 166
143 154 164
148 157 164
152 161 170
146 159 173
150 166 183
145 156 166
150 162 176
155 169 186
148 161 174
150 163 176
150 163 177
154 168 186
147 163 182
153 169 188
153 167 181
149 160 169
152 168 186
149 163 179
151 165 179
149 163 180
152 168 185
150 166 184
155 173 195
153 170 191
151 164 178
152 169 189
154 171 191
151 166 184
153 171 194
155 172 194
152 171 194
153 171 191
156 173 194
157 176 202
157 176 199
153 172 197
155 174 197
155 171 191
153 173 198
155 174 198
154 172 194
152 171 194
155 174 197
156 175 200
154 176 204
151 173 201
157 178 205
153 174 202
154 175 203
154 175 203
152 174 202
157 177 204
152 173 201
152 173 200
156 176 203
155 176 204
156 176 204
152 173 200
158 178 205
152 173 200
154 175 202
151 173 201
153 174 202
154 174 200
151 172 199
151 170 196
153 174 201
151 172 198
152 172 199
154 174 201
152 172 200
154 174 200
146 167 194
149 169 196
150 171 197
149 170 198
150 170 197
149 170 197
144 164 191
150 170 197
148 168 195
142 162 188
141 161 187
143 163 189
146 165 191
145 163 188
147 166 192
147 165 190
147 166 192
142 162 188
145 165 191
144 163 187
147 166 192
137 155 180
144 162 187
138 156 180
131 149 173
137 155 178
134 152 176
133 151 174
127 144 167
132 150 174
135 153 177
133 150 173
138 156 179
124 141 163
131 148 170
130 147 171
127 144 167
121 137 158
121 138 160
123 138 160
116 133 156
121 137 160
121 137 159
117 133 154
114 130 154
116 132 156
116 132 155
116 133 156
111 128 152
125 142 165
114 130 154
116 132 154
120 137 160
117 133 156
121 138 161
132 150 176
112 129 155
113 130 156
116 134 160
120 137 163
120 138 164
119 137 164
123 141 169
122 139 166
114 133 163
120 140 169
121 140 169
125 144 173
121 141 172
121 140 169
116 136 169
121 141 172
125 144 174
119 139 172
128 146 174
126 146 176
121 141 173
112 132 166
119 139 171
124 142 173
132 152 183
120 141 175
118 137 167
118 138 171
126 146 176
118 139 171
128 148 177
116 137 171
113 135 171
117 137 171
119 140 171
119 140 174
118 138 171
123 144 177
119 140 173
114 135 169
120 140 175
120 141 175
120 140 173
120 141 173
114 135 169
111 132 167
102 122 158
100 122 159
107 128 163
110 132 169
97 120 161
103 122 157
107 126 161
111 131 165
102 121 156
106 127 162
106 125 157
103 122 157
106 124 158
94 113 149
96 115 149
91 110 147
99 118 152
84 102 138
100 118 152
84 101 136
93 111 145
80 99 135
94 114 152
86 104 140
103 121 154
92 108 137
91 107 140
86 103 135
93 110 141
72 92 131
93 111 143
80 97 132
92 108 139
84 101 134
87 105 140
82 98 130
93 110 141
82 98 131
80 97 130
91 109 142
90 107 139
94 112 144
98 116 147
103 119 144
90 104 130
102 116 138
107 119 138
96 114 147
102 120 151
104 121 147
93 108 135
112 127 151
107 122 142
107 124 152
106 124 154
101 116 140
101 119 146
99 115 141
111 126 149
101 118 145
107 124 151
119 135 158
115 130 153
107 123 150
128 143 161
123 136 156
117 132 155
110 124 141
118 132 150
121 136 156
118 133 155
116 133 156
122 136 157
130 144 162
125 137 151
115 128 143
124 140 159
118 129 141
112 123 133
120 132 146
114 124 136
127 141 154
133 148 166
123 134 149
121 133 148
117 129 142
126 137 150
118 130 145
115 128 146
115 127 140
120 131 143
125 135 145
113 118 123
124 130 132
118 126 135
118 127 137
116 121 121
126 133 139
125 134 142
129 138 150
116 121 122
123 129 133
130 138 146
121 128 131
125 130 130
123 127 130
124 130 136
125 124 114
120 125 128
115 115 108
115 118 118
126 130 129
124 128 128
127 127 122
113 109 94
121 121 116
119 115 101
117 118 115
129 131 132
124 124 116
124 121 113
126 125 115
125 124 116
123 122 114
126 124 116
126 128 125
125 126 122
135 135 128
133 135 129
137 140 140
131 130 124
135 135 128
131 129 119
134 137 136
137 141 140
142 147 149
146 152 155
137 140 136
139 145 148
135 140 140
142 150 156
139 144 144
148 158 169
135 138 135
143 152 158
147 157 167
139 144 143
151 161 171
141 148 152
144 155 165
146 154 158
148 155 156
144 153 160
147 159 171
151 162 172
152 163 174
149 163 178
150 165 185
157 171 188
151 165 179
148 161 175
154 167 182
152 165 178
154 172 194
153 169 187
150 166 184
153 171 192
156 172 191
150 165 182
153 169 189
152 169 190
151 169 192
155 170 189
153 169 187
149 166 184
154 171 190
156 174 196
155 172 193
154 172 194
150 167 186
155 172 193
152 170 193
154 172 194
152 172 197
156 176 202
151 169 189
157 175 197
155 174 199
156 173 194
156 174 196
156 176 202
156 178 206
152 174 202
155 176 205
152 173 201
151 172 199
154 175 203
153 173 200
151 174 202
154 176 204
154 175 201
152 174 202
148 169 197
153 174 201
155 175 202
157 177 203
150 172 200
151 172 200
156 176 202
152 173 200
153 175 202
148 169 197
151 172 199
153 173 201
154 173 200
152 172 198
147 168 196
148 169 197
150 169 195
153 173 200
151 171 197
149 170 197
147 167 193
149 169 195
146 166 193
145 165 191
149 169 196
150 169 194
145 165 191
143 163 190
141 160 184
146 165 189
141 161 187
143 162 187
145 165 190
147 165 189
145 164 189
132 151 175
134 153 178
142 161 185
141 159 184
140 158 182
139 157 182
139 157 181
143 161 185
129 146 169
134 152 175
136 153 176
133 151 176
124 141 165
141 159 182
123 140 162
129 147 170
124 141 165
131 148 171
125 142 165
121 138 162
129 146 169
117 134 158
127 144 169
121 138 161
124 141 165
123 140 163
123 140 162
130 147 169
124 141 165
124 141 165
127 145 170
129 147 172
127 145 170
122 139 164
121 138 162
131 149 175
125 143 169
118 134 158
126 144 170
126 144 172
128 147 176
120 138 166
135 152 178
112 131 160
121 140 168
113 132 160
123 141 170
117 136 165
122 142 172
118 138 168
123 143 173
112 130 160
119 138 168
121 141 173
124 145 177
121 141 171
115 134 166
118 138 168
121 141 172
124 143 172
122 141 172
126 148 180
117 139 173
126 147 179
119 139 171
130 151 184
120 141 172
127 149 180
140 160 189
130 150 182
119 140 174
128 149 181
120 140 174
126 146 178
125 146 178
126 146 177
114 136 171
118 140 174
111 131 165
118 139 173
120 139 170
97 118 154
121 143 178
111 132 166
117 136 167
109 129 164
104 124 159
112 133 167
110 130 166
99 118 154
99 119 154
113 132 164
91 111 148
107 127 162
100 121 160
95 115 150
107 127 162
110 129 163
105 126 160
101 120 156
94 113 148
99 118 151
92 113 152
95 113 147
86 104 140
95 114 149
94 113 147
91 111 148
93 111 144
106 123 154
95 114 147
94 113 148
87 107 144
94 110 141
79 96 131
88 106 142
106 124 157
83 101 135
101 119 153
94 111 143
89 104 131
92 109 142
98 115 147
93 110 139
86 104 137
103 121 152
96 113 142
101 121 155
87 105 136
108 125 155
97 116 148
118 133 158
104 121 150
115 132 158
101 117 142
104 123 153
99 117 148
116 132 155
99 114 137
108 123 144
109 124 143
116 130 148
122 141 167
107 124 149
115 132 158
120 137 160
112 130 157
108 125 151
128 139 152
127 144 169
122 138 160
109 123 144
126 142 164
124 140 161
122 137 154
118 132 154
126 140 159
126 140 156
127 142 163
127 141 158
128 143 163
122 139 162
120 132 145
128 145 165
115 129 147
125 140 162
135 150 170
124 135 147
126 138 152
130 141 152
115 128 145
131 142 156
116 130 144
118 128 140
121 135 153
120 128 135
127 137 148
118 125 131
124 132 141
134 142 147
130 137 141
122 130 136
119 125 126
122 129 130
125 132 136
126 130 132
135 143 151
126 129 127
121 125 123
127 129 129
117 120 116
127 132 136
128 132 134
123 127 127
122 127 131
127 130 127
133 135 131
119 118 110
113 110 96
128 131 130
119 115 104
124 126 122
131 131 121
124 122 112
139 141 136
133 138 140
120 118 106
132 134 130
128 130 130
131 132 128
123 122 114
139 145 149
136 134 124
130 129 118
137 144 151
133 136 136
140 144 144
139 140 135
137 138 131
141 148 153
142 148 148
145 152 155
149 155 158
136 142 146
143 151 157
137 142 144
145 153 159
147 155 161
139 148 158
142 150 157
138 144 147
142 147 148
145 152 157
147 158 169
152 161 167
146 156 167
152 166 183
144 155 165
150 160 170
151 164 176
147 158 168
152 163 174
147 159 169
156 169 186
153 169 186
148 163 181
149 163 179
148 163 183
150 165 182
148 161 175
155 169 186
154 172 195
155 171 189
154 169 185
153 170 189
150 163 178
151 166 181
151 167 184
153 169 188
152 170 190
153 171 192
155 171 189
155 174 199
152 168 187
155 176 201
156 173 194
156 173 193
156 174 196
153 171 195
155 174 199
154 173 197
157 174 195
155 174 199
151 173 201
149 171 198
152 173 201
152 172 199
149 170 198
151 173 201
153 174 201
153 174 201
150 171 200
149 171 200
156 177 204
151 172 201
155 176 204
153 174 202
150 171 199
153 174 201
152 172 198
150 170 198
151 171 198
151 171 198
146 167 194
147 166 192
153 174 201
147 167 193
149 169 196
152 173 199
151 171 198
148 167 192
150 171 198
147 167 193
145 166 193
148 167 193
152 170 195
147 167 194
149 168 192
141 161 186
146 165 191
147 167 193
141 159 184
145 164 190
142 160 184
143 162 186
149 168 193
148 167 193
131 151 176
142 161 186
144 162 187
141 160 185
144 163 188
142 160 185
139 158 183
141 159 183
132 149 173
133 150 174
132 150 174
140 158 181
137 155 180
133 151 176
129 147 171
125 141 164
128 145 167
125 142 166
130 149 174
125 143 166
127 144 166
128 145 169
121 137 159
118 136 160
123 140 163
120 138 162
118 135 158
127 144 168
120 138 164
123 140 165
118 136 161
120 137 161
117 136 163
111 129 157
129 148 174
132 150 176
126 144 172
127 146 173
123 141 168
120 138 165
120 138 165
118 137 167
138 156 182
125 143 172
122 141 170
125 144 175
125 144 171
112 131 160
127 148 179
117 137 170
135 154 182
116 135 164
122 142 171
114 133 163
132 151 179
120 141 171
126 146 177
125 147 182
125 146 178
120 141 174
126 147 177
132 152 183
122 143 174
128 148 178
123 144 177
124 144 177
130 151 182
125 146 177
128 148 180
119 140 172
122 143 178
123 143 174
128 148 179
119 142 178
116 138 172
123 144 176
125 146 179
125 146 181
125 144 175
113 135 171
109 130 165
118 139 173
129 148 178
108 130 164
123 143 176
109 128 162
114 133 166
110 132 169
106 127 166
116 137 170
122 143 177
111 131 166
105 125 162
103 124 161
109 130 165
100 120 159
107 127 162
112 133 167
104 124 160
104 126 163
108 127 162
88 107 142
101 119 151
91 112 152
110 131 165
95 114 149
91 112 150
99 118 151
109 127 159
107 126 162
115 133 164
92 108 141
79 98 135
84 103 140
101 117 148
101 118 149
91 109 143
107 126 160
106 122 150
98 117 151
100 118 151
85 105 144
88 109 147
98 115 146
96 114 148
106 123 153
85 103 138
103 121 150
98 117 153
84 105 143
97 113 142
106 118 140
119 136 163
115 131 158
103 121 152
95 114 148
112 129 157
112 129 154
111 127 152
117 136 167
110 128 154
105 120 145
116 133 160
112 128 151
122 139 167
115 133 161
114 130 156
107 123 148
109 124 146
122 137 160
118 135 157
116 131 152
117 132 150
127 144 168
125 139 158
117 133 157
119 133 153
117 133 155
127 141 160
119 136 157
116 131 152
123 137 153
119 131 146
117 132 149
125 141 160
126 138 152
130 144 161
125 140 159
139 154 174
124 138 153
115 130 148
128 139 150
120 135 154
121 132 147
129 141 155
127 139 151
127 132 130
134 145 158
133 144 156
120 129 135
128 138 148
136 144 151
118 124 130
127 138 148
117 126 134
122 131 139
117 127 137
132 138 142
128 134 140
126 134 139
128 134 134
129 136 139
128 134 137
125 128 127
134 140 142
126 131 134
121 126 125
122 127 129
125 127 124
124 128 127
134 142 149
122 123 118
132 136 139
127 130 129
127 131 129
131 133 129
127 129 125
123 127 126
129 130 123
135 135 126
134 137 134
131 132 124
133 136 136
133 135 133
136 139 139
132 134 129
142 147 147
138 136 128
132 133 129
137 141 140
135 136 127
135 140 141
142 145 141
138 144 147
133 137 139
143 147 147
131 132 127
138 143 142
141 149 156
144 151 155
140 146 148
142 148 150
146 154 160
147 156 161
145 154 161
143 151 156
147 155 160
147 158 168
149 158 165
155 167 180
153 165 178
149 158 165
145 154 162
148 158 166
151 163 176
147 156 163
151 165 181
150 163 177
148 162 176
153 168 183
154 168 182
149 163 180
153 166 181
154 170 187
152 166 181
153 167 184
151 166 182
153 165 178
154 172 195
153 169 188
154 169 186
154 170 188
151 166 181
154 171 192
156 175 197
153 169 189
152 169 188
155 172 193
154 171 191
153 171 192
152 170 192
151 168 188
152 170 192
154 174 200
154 174 198
154 172 194
151 172 199
157 178 205
152 172 199
156 176 203
154 175 202
156 177 204
153 173 200
151 171 199
150 171 198
154 174 201
154 173 200
154 175 203
154 174 201
151 172 199
155 175 201
154 175 203
151 171 198
152 173 201
148 170 198
151 172 200
150 171 199
150 171 198
152 173 201
150 171 198
154 174 201
151 171 199
150 170 196
147 167 193
148 167 193
148 168 194
146 165 192
148 168 194
144 163 189
146 167 196
152 171 197
151 169 194
146 165 190
148 167 193
142 161 186
143 163 189
144 164 189
145 164 189
143 162 187
141 161 186
138 156 181
139 157 181
137 156 180
145 164 188
140 158 182
134 152 175
144 163 189
139 158 182
133 151 175
141 159 182
138 156 180
135 153 177
139 157 180
138 157 183
140 158 182
132 150 173
124 143 168
135 153 178
130 147 171
133 151 174
133 151 175
130 148 172
125 142 165
123 140 164
135 153 177
130 148 171
129 148 174
128 146 170
127 145 170
125 143 170
123 141 168
127 145 170
120 138 165
123 141 168
126 145 171
133 151 176
125 144 170
122 141 170
130 148 175
124 144 173
128 147 176
129 147 172
139 157 182
131 151 180
129 147 175
127 146 174
127 146 174
125 144 173
120 140 172
117 138 169
120 141 172
129 149 180
133 153 181
124 143 174
123 145 178
116 137 168
129 147 176
126 146 176
137 157 187
131 150 181
131 152 183
129 150 181
125 146 177
127 147 178
125 144 176
121 143 179
115 137 174
125 143 172
122 144 179
116 137 171
126 147 180
117 138 173
123 145 180
129 150 182
113 134 167
122 143 176
128 149 181
126 147 178
116 138 173
122 143 177
124 143 174
115 136 172
117 139 174
129 148 179
120 141 175
112 133 167
115 135 168
118 138 171
106 125 158
111 130 162
107 129 167
119 140 175
113 133 168
99 120 156
122 143 175
111 132 167
108 130 168
112 132 166
102 121 157
98 118 154
111 131 164
110 131 168
105 124 159
100 120 156
122 142 174
97 118 157
106 125 159
97 119 157
97 117 154
92 115 157
102 123 161
111 131 166
107 125 159
111 128 157
102 121 154
100 119 153
92 110 146
114 132 162
78 98 138
97 114 149
101 120 152
105 125 160
100 117 148
100 120 157
115 134 164
103 119 147
103 120 150
109 128 161
104 121 151
102 120 149
100 118 148
113 132 163
116 135 163
112 130 158
114 129 153
114 134 166
116 133 159
110 126 152
126 143 166
106 122 150
109 127 156
103 120 149
125 144 172
118 135 161
117 132 154
116 131 153
118 136 162
120 133 150
120 138 164
120 135 156
123 138 157
116 134 158
117 131 152
123 142 170
117 135 159
114 131 156
128 147 175
118 134 156
116 135 159
124 137 152
130 143 158
127 144 168
126 140 160
135 150 170
129 145 166
131 146 163
119 132 146
130 145 162
127 140 155
129 145 163
106 120 138
130 143 157
123 135 146
133 150 172
114 125 137
132 144 155
134 147 163
126 136 147
134 146 157
128 139 151
128 141 158
128 140 153
127 137 147
127 139 151
124 132 140
130 138 145
128 137 145
124 129 130
127 133 135
126 129 128
129 138 144
132 139 143
130 136 139
131 134 131
126 132 134
127 136 144
131 138 144
136 141 142
131 137 144
126 133 138
130 129 120
139 146 152
135 138 135
130 133 131
132 138 143
126 127 122
130 133 132
135 140 140
128 129 122
129 132 128
135 139 138
130 132 128
130 133 130
138 144 151
130 133 129
137 140 136
129 130 124
139 142 141
132 130 119
138 140 136
144 149 150
139 146 151
137 141 140
134 135 130
137 141 138
142 148 148
140 146 149
140 146 147
139 142 139
135 141 145
142 149 153
141 144 141
137 144 149
142 150 157
144 151 154
141 145 142
142 150 156
146 159 172
143 155 169
147 157 163
151 164 179
146 156 164
144 156 166
141 151 159
149 163 178
148 158 168
151 163 174
150 160 171
148 159 170
153 165 176
151 163 175
146 157 165
146 158 170
152 166 181
150 162 175
148 162 176
153 170 190
150 162 174
150 168 189
156 174 197
155 168 183
153 170 192
152 168 186
154 171 191
152 169 191
151 166 183
153 167 183
155 173 194
154 169 185
153 170 189
155 173 196
154 174 199
154 170 191
154 171 193
153 171 192
155 173 197
153 174 202
153 175 204
150 171 199
153 174 201
152 174 202
155 174 200
152 173 200
150 171 198
152 173 201
154 175 202
149 170 197
152 173 200
151 173 201
149 170 197
149 169 196
153 174 200
149 171 199
151 171 197
148 167 193
152 173 200
150 170 196
152 171 197
151 172 199
151 171 197
149 170 197
148 169 196
150 170 197
144 164 189
151 171 198
142 161 187
148 168 194
145 164 190
149 169 195
145 164 190
143 163 190
148 167 194
144 163 189
151 170 195
145 164 190
140 160 187
146 164 188
140 159 185
140 160 187
142 160 185
143 163 188
140 159 184
141 160 185
143 161 186
139 159 185
139 159 184
140 160 185
133 151 175
140 159 184
146 164 189
139 157 180
133 152 177
133 151 175
139 158 183
140 158 183
132 150 175
136 155 181
136 154 178
138 156 182
121 139 165
133 151 175
136 155 181
136 155 181
127 145 169
130 148 173
127 146 173
137 155 180
134 153 179
133 152 177
129 148 173
126 146 174
137 156 181
134 153 179
125 143 169
131 149 175
132 151 178
125 142 168
125 144 174
137 155 181
119 139 169
120 140 168
123 143 174
127 147 175
129 148 176
131 151 181
131 150 179
126 145 174
123 143 172
133 153 181
131 152 182
130 150 180
133 154 183
123 144 177
127 147 178
126 148 182
120 141 175
135 156 187
130 150 178
124 144 174
124 146 178
117 138 171
120 140 171
126 148 179
131 151 181
126 146 177
130 152 183
127 148 179
131 152 184
126 147 178
128 149 180
124 145 177
134 154 184
115 136 170
109 130 165
123 143 175
118 138 170
126 148 182
119 140 175
126 147 179
127 148 180
132 153 182
126 146 176
123 144 178
116 137 172
111 133 170
114 136 172
115 135 167
121 142 175
110 133 169
125 147 182
115 137 173
118 140 176
114 137 176
109 128 162
107 127 163
100 123 163
115 136 172
118 138 171
108 129 166
116 136 169
101 120 155
109 130 165
121 142 175
90 112 151
108 128 163
119 138 171
113 134 169
92 112 150
102 120 151
100 119 154
105 124 155
114 136 174
118 136 166
108 127 158
107 126 158
107 126 160
104 121 153
95 115 151
95 115 151
112 130 161
124 144 175
105 126 160
112 131 164
109 126 155
106 126 161
114 134 169
94 115 151
110 129 162
108 129 162
110 130 163
113 132 163
97 116 150
93 115 150
106 126 159
117 135 161
116 137 170
109 126 154
121 140 168
116 132 157
123 144 175
112 130 157
109 127 155
127 145 171
113 131 161
118 134 159
110 128 158
112 130 159
123 138 159
118 133 155
118 138 165
128 146 173
117 133 154
119 134 154
119 137 162
120 139 166
122 137 155
128 144 166
113 127 146
127 144 167
122 138 160
125 142 168
132 146 162
121 138 160
118 132 147
120 136 159
124 142 166
119 132 146
136 149 165
135 149 166
127 138 153
125 140 159
132 146 163
131 142 154
125 136 146
130 143 158
126 141 158
138 149 161
133 144 158
126 138 153
133 147 163
129 142 156
123 130 136
133 144 158
130 143 158
122 130 137
127 136 146
125 133 142
120 130 139
128 135 139
129 140 150
132 139 144
132 140 147
135 144 152
133 142 151
138 148 159
138 146 149
131 140 150
130 138 143
125 131 132
126 131 133
143 151 157
128 135 141
126 132 138
130 134 136
126 133 139
127 129 124
129 134 138
131 138 143
127 133 137
136 139 138
131 133 131
138 145 151
135 137 132
138 143 145
136 143 149
138 142 143
127 130 128
134 137 136
136 140 138
134 138 137
137 144 148
140 144 145
133 135 131
139 145 148
139 146 149
141 146 145
134 136 131
150 156 162
136 144 151
151 157 160
136 140 138
147 151 151
147 154 160
145 153 159
139 141 137
141 152 163
149 156 161
145 155 165
151 159 165
145 152 155
146 157 166
146 155 163
146 154 159
155 170 186
144 154 162
148 161 172
147 156 165
150 164 179
151 162 170
148 161 173
150 164 179
144 154 163
152 169 190
149 164 182
150 163 177
152 165 180
154 169 186
151 166 184
152 168 186
150 164 179
153 169 186
149 162 178
153 169 185
150 165 181
150 166 183
153 170 190
154 171 192
153 169 188
149 167 188
153 169 188
152 168 187
155 170 186
152 169 188
154 173 197
148 164 183
154 171 191
150 171 199
152 173 200
147 168 196
155 176 203
154 176 204
150 171 200
156 176 203
147 168 196
154 175 203
151 171 198
148 169 198
151 173 201
152 173 200
149 170 196
150 170 197
150 171 199
149 170 197
152 173 200
149 169 196
149 169 194
152 172 199
148 169 196
147 168 196
148 169 196
148 168 194
151 171 197
147 167 193
145 167 195
145 165 192
146 166 192
151 170 197
151 171 197
143 162 187
153 172 197
136 156 182
148 169 196
144 164 189
148 167 192
141 161 187
146 165 190
138 157 182
146 165 191
142 162 188
141 161 187
139 157 182
149 168 193
138 157 182
140 159 184
139 157 182
137 156 181
133 152 177
140 159 184
141 160 185
131 148 171
132 150 175
140 158 183
144 162 186
129 147 172
138 157 183
139 158 183
130 148 174
132 150 175
137 156 181
132 151 177
134 154 180
129 148 174
135 152 176
137 157 184
147 165 191
135 154 181
127 145 171
126 145 175
130 149 176
132 152 179
131 149 175
134 153 180
135 154 179
126 145 174
130 150 178
128 146 172
136 156 183
134 153 180
131 152 182
131 151 180
129 149 180
128 147 173
129 150 180
122 142 172
133 153 182
130 150 178
131 151 180
139 159 187
134 153 183
132 153 183
129 150 183
130 150 179
139 157 184
124 145 176
132 153 183
137 157 185
130 151 183
126 150 184
122 146 182
133 153 183
133 153 185
127 149 182
138 158 186
132 151 180
125 146 181
134 154 182
131 151 183
136 156 184
130 152 185
123 144 179
121 140 171
132 153 185
120 140 173
128 148 179
121 142 175
121 141 173
112 133 170
127 149 183
123 145 179
126 148 182
113 136 172
127 148 180
133 152 183
111 132 169
120 139 170
109 131 168
112 133 168
119 141 176
113 135 172
108 131 170
114 133 167
110 131 167
103 124 160
104 127 167
115 134 166
111 132 169
104 126 164
136 156 186
122 142 175
115 135 168
110 129 164
109 127 159
112 130 161
113 132 165
111 133 170
111 131 167
109 130 166
105 128 166
114 136 172
115 136 173
102 122 159
111 132 167
123 143 176
96 118 157
110 130 164
100 118 152
110 130 166
113 131 161
111 131 165
108 127 160
112 130 162
113 131 162
110 129 162
106 125 157
123 141 168
121 139 166
117 135 163
108 126 156
102 123 160
98 118 152
108 126 155
110 130 161
108 128 162
117 136 167
118 136 167
123 142 173
116 134 162
108 127 156
119 135 159
122 139 165
115 132 158
112 131 159
120 140 169
108 126 155
116 133 156
115 134 164
121 141 171
111 129 155
117 134 157
115 133 160
113 131 157
131 150 175
128 144 165
126 145 171
118 137 163
128 144 167
124 137 158
133 150 171
116 133 158
131 147 167
129 148 172
120 132 149
128 145 168
140 157 178
140 152 166
139 151 164
134 149 167
125 140 157
135 149 166
128 146 170
132 146 161
127 142 158
133 145 159
139 153 169
130 143 160
126 142 161
132 143 155
133 147 167
126 140 156
127 138 147
134 147 162
135 144 151
138 151 166
127 139 153
121 132 143
129 140 151
123 136 152
136 149 166
138 149 159
140 152 164
127 137 147
137 151 170
137 148 159
134 147 161
137 143 145
127 133 136
136 142 143
131 137 138
139 147 153
133 141 145
143 151 158
134 141 148
132 142 149
141 148 154
139 145 148
139 147 154
133 138 140
134 140 144
137 144 148
142 149 152
135 142 146
140 147 152
133 136 132
135 138 137
136 141 141
133 139 140
137 144 148
141 146 147
139 143 143
136 139 134
131 134 133
134 139 140
135 139 140
135 141 144
139 142 140
138 144 146
144 147 142
138 143 143
141 144 143
135 141 142
141 144 138
147 154 160
147 154 157
137 141 143
151 160 166
141 149 153
147 154 159
148 159 169
150 159 165
148 159 168
143 151 158
147 158 168
143 149 152
147 154 159
149 158 166
148 158 168
152 164 177
152 164 177
151 160 166
151 161 172
147 157 166
152 164 176
149 163 177
148 163 180
151 165 182
149 162 176
151 168 189
151 165 181
148 162 178
153 167 183
151 166 182
156 170 186
154 170 191
151 168 187
156 169 182
152 168 187
154 171 192
152 168 186
151 165 179
151 168 188
152 167 184
155 172 191
154 171 191
151 166 183
152 171 194
158 174 194
155 175 203
152 173 201
152 174 203
154 174 201
154 173 199
149 171 200
155 176 204
151 172 200
152 173 200
152 172 199
154 174 201
150 170 197
153 173 200
154 175 202
147 168 194
151 171 198
152 171 196
154 174 200
152 172 198
149 170 197
151 170 196
153 172 199
151 171 197
150 170 196
148 168 194
149 168 193
153 172 197
147 167 194
147 167 193
149 169 196
147 167 193
145 164 191
150 169 196
147 168 195
142 162 188
144 164 190
146 165 189
143 162 187
145 165 191
146 166 191
140 160 187
138 158 185
141 160 186
143 163 191
140 158 183
144 163 189
135 153 177
137 155 179
142 161 186
142 161 187
146 165 190
137 157 184
130 150 176
132 151 176
142 160 185
136 155 179
140 158 183
138 158 184
138 156 180
131 149 174
135 153 179
135 154 181
136 156 183
134 153 179
130 148 175
135 154 183
137 156 182
122 141 168
144 163 189
134 153 180
130 150 178
138 157 184
126 146 175
131 152 180
129 149 178
126 145 173
126 145 173
131 152 181
133 154 182
133 152 179
120 140 172
131 151 181
132 150 178
126 146 175
137 157 186
132 152 181
126 146 175
136 157 187
129 149 179
130 149 179
135 155 185
137 156 182
130 151 182
132 151 180
136 155 183
134 154 184
133 154 186
125 145 177
131 152 183
133 155 188
123 144 175
125 146 178
129 150 182
130 151 183
138 159 190
129 150 181
127 148 180
131 152 184
136 157 189
124 146 181
128 150 184
129 150 182
121 142 175
121 142 177
126 147 180
117 138 172
126 148 182
128 148 179
111 134 172
113 134 169
126 148 181
128 148 179
127 148 181
122 143 176
122 144 179
115 135 169
130 151 182
121 141 175
118 139 175
123 143 174
123 144 177
113 135 170
133 153 183
115 135 167
115 137 173
126 145 173
117 137 171
119 140 173
107 130 169
123 143 176
117 139 175
114 135 169
121 143 179
125 146 180
112 134 172
105 126 163
120 142 176
115 137 173
120 142 176
107 129 167
115 136 170
111 131 164
109 129 162
121 140 171
99 120 156
109 130 167
108 128 163
106 126 161
112 130 160
99 118 154
117 138 172
114 135 169
126 144 172
112 131 162
113 133 166
117 137 170
104 124 158
99 120 155
120 139 170
110 129 162
109 128 161
119 137 166
112 132 163
112 132 166
108 127 159
113 133 167
104 122 153
106 124 154
117 136 168
121 139 168
120 139 168
112 130 158
119 138 168
115 132 161
121 142 174
120 136 162
127 146 175
120 140 171
124 145 176
127 145 169
119 135 159
121 136 156
122 138 163
131 148 175
117 137 168
127 145 170
127 144 167
116 135 163
134 150 171
136 151 172
134 151 174
112 129 154
130 145 165
129 147 168
133 152 177
122 142 172
130 146 166
126 141 162
121 136 155
121 138 162
132 149 172
129 147 170
135 150 168
129 144 162
124 138 157
124 138 157
131 147 169
135 148 163
127 141 157
126 140 159
123 138 157
129 142 159
133 147 164
135 148 164
133 147 164
131 144 158
132 142 153
128 141 157
137 151 165
134 145 153
118 129 139
129 142 157
142 155 170
129 138 147
129 141 155
141 151 159
126 137 146
140 152 163
128 138 146
130 140 149
136 146 154
134 142 148
137 148 159
133 143 153
133 139 142
137 145 152
136 143 150
140 149 158
133 145 157
138 145 148
141 151 162
138 146 151
134 140 144
136 144 149
140 147 154
131 136 137
133 139 142
141 148 150
140 145 145
133 136 134
129 137 144
132 140 145
140 149 159
138 146 151
143 151 155
140 145 145
137 143 147
143 151 159
142 148 151
142 149 153
139 144 145
139 146 150
143 151 156
148 153 153
134 138 135
135 142 150
139 143 141
151 161 170
145 153 160
144 151 156
147 157 164
142 151 159
150 162 176
143 149 151
147 156 162
150 159 167
143 151 157
146 154 160
150 164 180
143 155 166
146 155 158
147 156 164
145 156 166
151 164 179
148 159 170
152 164 178
147 160 174
148 159 171
151 165 179
151 166 185
148 163 179
149 161 172
146 158 170
150 162 174
152 166 180
153 166 181
154 170 189
152 168 188
149 163 176
150 164 178
151 164 178
152 168 188
152 167 184
155 171 192
151 168 188
151 165 181
154 168 185
150 164 180
154 171 190
153 169 187
151 172 199
154 175 203
151 171 198
149 170 198
151 172 199
151 171 198
152 173 200
152 173 200
153 174 202
150 171 199
150 170 196
151 171 198
151 172 198
152 172 198
153 174 201
151 173 201
151 171 198
149 170 197
151 171 197
150 171 198
146 166 194
145 165 192
149 170 196
149 169 196
150 170 197
146 166 193
147 167 193
146 166 192
146 166 193
148 168 194
143 163 190
147 167 194
144 164 190
148 167 192
144 163 189
143 163 190
144 163 188
144 164 190
145 164 188
143 162 187
144 162 188
142 160 186
142 161 187
142 162 188
140 161 187
140 160 187
139 159 186
137 156 182
138 158 184
140 159 185
137 156 184
139 158 183
133 153 179
133 153 181
137 156 182
133 152 178
140 160 187
133 151 177
132 151 176
139 158 182
141 161 187
142 161 186
139 158 184
130 149 176
138 157 183
133 151 176
135 153 180
131 150 178
135 154 181
133 154 184
141 160 187
131 151 181
123 142 171
132 152 180
120 141 173
136 156 184
121 141 170
136 157 185
131 150 177
130 150 179
137 156 185
131 152 182
137 157 185
130 151 182
130 151 183
131 151 179
130 150 178
131 150 178
132 151 180
134 155 185
133 154 184
134 155 185
132 153 185
132 153 185
129 150 181
130 151 181
129 149 179
138 158 188
131 151 181
125 147 179
124 145 178
137 158 189
129 151 184
127 147 178
134 157 189
124 146 181
131 152 184
123 144 177
133 154 185
135 156 187
131 152 182
128 149 180
130 151 182
129 151 184
137 156 186
134 155 186
133 154 185
132 153 185
131 153 185
113 135 173
124 146 179
130 150 181
126 147 179
129 150 182
121 143 178
113 135 172
114 135 171
129 150 182
118 140 174
131 153 184
125 146 180
117 138 174
125 147 181
102 125 164
121 141 173
121 142 176
118 140 175
111 131 166
112 134 171
110 131 165
119 139 172
122 141 172
114 135 171
119 139 170
118 137 169
114 135 169
120 142 177
112 133 169
116 135 166
115 135 168
112 132 164
121 140 170
108 131 170
101 125 166
121 142 176
122 141 172
122 143 179
113 133 167
109 130 164
106 125 157
109 128 160
121 140 172
119 139 172
106 124 156
120 141 174
116 138 173
115 134 167
118 135 163
117 137 169
118 137 167
123 141 171
116 136 169
114 132 163
120 140 170
112 130 162
120 140 171
123 140 169
122 140 168
119 138 168
121 140 170
114 133 163
124 141 166
116 134 163
118 137 169
118 138 169
123 143 173
118 137 166
129 148 174
123 142 169
124 142 169
126 145 173
122 142 170
121 141 170
122 140 167
126 142 163
133 152 178
123 142 170
124 143 170
125 142 166
135 152 174
135 152 176
123 142 170
133 148 166
132 147 167
123 142 167
132 147 167
133 150 172
131 145 164
141 161 189
128 144 163
125 140 164
132 151 176
140 157 177
137 153 174
135 153 175
120 134 153
138 154 174
131 146 165
134 146 159
134 148 165
132 147 166
133 148 167
133 150 170
123 140 160
129 141 154
136 148 161
138 152 170
131 145 163
136 150 167
135 146 157
129 140 151
133 147 164
137 147 159
139 151 165
136 149 163
138 149 162
132 143 156
141 152 163
128 140 151
134 147 161
131 140 150
135 147 160
134 147 162
131 137 138
139 145 147
131 139 146
138 146 153
140 146 145
129 138 145
130 139 147
131 141 151
140 147 150
140 147 153
142 153 162
131 138 144
132 141 148
143 149 152
140 148 154
136 141 141
140 150 159
147 155 160
142 152 158
133 137 136
128 133 131
136 142 143
138 147 159
135 139 138
139 148 155
135 145 153
142 153 164
138 144 146
143 152 160
141 150 158
142 149 152
140 148 154
144 152 159
149 157 163
152 160 167
146 158 169
143 151 158
144 154 163
147 156 164
144 155 165
144 154 162
147 154 154
149 162 178
144 153 162
145 156 166
152 164 177
148 158 165
146 157 168
143 155 168
148 160 173
148 158 167
146 160 175
150 165 183
150 161 171
152 168 187
148 160 171
145 159 173
149 162 176
152 166 182
144 156 166
151 168 189
151 167 185
153 167 184
151 166 181
151 163 174
151 167 186
151 164 179
149 164 182
151 166 184
152 167 185
152 169 188
154 169 186
153 168 186
151 166 184
152 171 193
153 171 194
155 171 191
153 174 201
153 173 200
154 175 203
150 171 198
152 173 201
151 172 198
149 170 196
148 168 195
154 174 200
150 171 198
145 165 192
150 170 196
152 172 199
150 170 197
149 169 195
147 167 193
150 170 195
152 171 197
148 168 195
146 166 193
151 173 201
143 164 191
145 165 192
146 166 192
153 171 196
146 166 193
142 163 190
148 168 195
146 166 192
145 165 191
146 167 194
147 168 195
139 159 185
146 166 192
145 165 192
144 162 187
146 166 192
145 164 190
144 164 190
143 162 187
141 161 187
139 158 185
141 161 189
145 164 190
141 161 188
143 163 189
144 163 190
146 165 189
143 162 187
143 162 187
150 168 192
143 163 190
142 161 186
139 159 185
134 153 179
138 157 183
125 145 172
140 160 186
145 165 192
138 158 186
137 156 182
139 158 184
141 161 189
133 151 178
141 161 189
126 145 172
133 151 178
132 152 178
141 159 184
138 158 186
133 154 184
136 156 182
136 156 184
130 150 178
127 148 178
135 156 185
136 157 187
143 162 189
135 154 183
138 158 186
131 152 182
133 153 184
130 151 181
136 156 185
125 145 176
131 152 183
131 151 180
130 151 182
132 152 181
124 145 178
125 145 175
140 161 191
136 157 186
135 156 187
121 143 177
130 152 184
130 151 181
130 152 183
134 155 185
130 150 181
136 156 186
132 154 186
130 152 184
131 152 183
134 155 187
130 152 185
137 158 190
124 145 176
137 157 188
132 153 184
132 153 184
129 150 184
122 143 177
124 146 180
119 141 175
120 141 174
125 146 179
112 132 167
132 153 185
130 152 185
110 133 171
117 139 175
127 147 179
128 150 184
121 143 179
134 155 188
122 145 182
123 144 177
113 135 171
118 140 175
121 142 175
129 149 180
125 146 181
132 153 185
128 148 180
119 140 174
125 146 179
130 152 185
115 138 176
108 130 168
109 131 168
113 136 174
108 128 162
111 131 166
113 133 167
122 143 177
111 132 168
106 128 166
113 134 169
110 133 174
106 128 166
113 133 167
112 132 165
115 134 167
121 140 172
108 128 163
111 134 171
114 133 166
106 127 162
107 126 158
111 134 171
113 133 167
117 137 171
111 133 168
117 136 168
110 131 165
116 134 163
124 143 172
113 134 167
122 142 175
126 144 173
121 141 172
120 139 168
119 139 173
115 135 170
115 136 170
120 138 168
120 141 174
120 140 170
112 132 163
124 143 171
129 148 174
124 141 167
107 127 161
121 141 170
106 126 159
125 146 176
139 158 184
122 139 163
121 141 169
126 145 174
133 150 173
125 143 169
116 134 160
122 141 171
126 144 169
131 149 174
112 128 155
126 144 171
127 145 168
119 137 163
135 152 174
118 138 166
120 138 161
132 150 175
134 152 178
128 144 164
138 154 175
128 144 162
128 146 171
123 141 166
131 148 170
138 155 176
130 147 166
136 155 179
133 150 171
131 146 167
137 152 170
135 153 177
141 153 167
130 143 158
132 144 158
138 154 173
129 145 167
129 141 154
139 155 175
135 150 169
135 151 173
137 152 172
129 144 163
135 150 170
137 152 172
134 151 171
136 147 158
129 141 154
128 137 146
132 142 153
139 149 159
136 145 152
131 143 156
136 147 157
134 145 155
138 152 166
138 150 165
131 144 159
132 143 152
144 156 168
136 144 151
126 136 146
138 146 154
136 143 146
141 151 160
135 145 154
140 150 162
140 147 152
144 153 163
143 153 161
143 153 165
122 126 123
136 143 146
137 146 151
139 148 155
142 150 154
143 152 159
147 156 164
145 153 157
141 148 153
141 151 158
135 144 154
129 133 134
144 154 163
145 153 159
146 154 160
145 153 157
139 145 147
142 154 165
143 153 163
146 155 163
146 155 161
143 151 157
142 152 163
146 154 160
148 158 168
141 148 153
146 154 157
141 151 158
151 164 177
149 159 166
145 156 165
143 155 166
150 160 169
147 159 171
148 162 177
146 156 164
145 157 169
152 164 176
146 161 177
150 162 172
150 162 173
146 157 170
150 162 175
147 159 169
151 163 174
148 162 178
153 168 187
155 171 188
149 163 178
148 162 177
149 164 183
149 162 176
155 170 188
153 168 185
147 163 183
153 168 185
149 162 173
152 165 177
152 169 191
154 168 185
151 167 186
154 168 183
153 174 202
147 169 197
144 165 192
149 170 198
152 172 198
155 175 202
152 172 199
151 171 197
150 170 196
152 172 199
150 170 197
151 171 197
150 170 197
152 173 199
144 165 193
149 169 197
147 168 196
149 169 195
149 170 198
148 168 195
148 169 195
150 170 196
149 169 195
148 168 194
144 165 193
147 168 194
148 168 195
145 165 191
144 164 190
148 169 196
141 161 187
145 164 191
148 167 193
147 167 194
146 165 191
144 163 187
144 163 189
138 156 180
141 161 188
139 157 182
137 157 184
142 162 188
145 165 193
137 156 182
141 160 186
139 158 183
141 161 187
135 154 178
141 161 189
135 154 180
147 166 191
140 158 183
139 158 185
138 157 182
139 159 186
134 153 181
142 160 186
135 155 182
134 154 180
134 154 182
141 161 187
139 158 184
141 162 190
133 153 180
142 161 189
140 160 188
135 155 183
139 159 188
131 151 181
133 152 180
137 158 188
131 150 178
134 155 187
134 153 181
140 160 188
133 152 179
134 154 183
131 151 179
131 152 182
135 155 184
127 148 180
129 149 180
135 156 186
130 151 183
127 147 177
137 156 184
140 160 188
137 157 186
134 155 187
138 158 187
137 157 186
139 157 184
126 146 177
136 156 184
136 158 189
131 151 181
134 154 183
134 155 186
127 149 180
130 150 181
132 154 185
130 151 182
139 160 191
132 153 183
134 155 186
125 146 178
122 143 178
128 148 179
135 158 191
127 148 181
120 142 178
135 156 186
131 152 183
135 156 187
132 154 185
129 150 181
125 146 178
136 157 187
128 150 184
128 151 185
132 154 185
130 153 187
132 154 188
131 152 182
128 149 181
127 148 181
133 153 185
133 154 187
117 140 176
126 149 183
122 144 179
131 153 186
129 150 182
132 153 183
128 150 184
117 138 172
129 150 181
126 146 178
122 143 179
110 132 169
125 147 181
120 139 168
127 148 180
121 142 178
121 142 176
116 136 171
120 141 175
121 144 180
129 150 183
108 130 166
125 146 179
126 146 177
112 132 167
107 127 163
124 145 179
117 138 170
109 129 163
115 136 169
120 141 173
116 136 168
112 131 162
113 133 167
112 135 173
126 146 177
116 138 171
128 147 177
115 136 171
129 150 182
121 142 176
121 139 169
114 134 165
113 132 161
118 137 167
129 148 176
117 138 171
123 141 170
116 135 164
128 146 173
130 149 174
120 140 172
125 144 175
129 146 172
127 143 167
123 144 175
125 143 168
132 152 182
118 136 164
120 138 165
130 151 179
128 147 176
124 142 169
128 148 177
128 144 166
131 150 177
131 150 175
124 143 170
130 148 175
139 158 183
131 152 181
130 146 169
127 143 168
123 143 174
121 138 163
119 138 164
133 149 172
133 152 179
127 145 170
136 154 178
125 144 171
129 144 163
133 151 176
143 159 178
130 142 155
134 150 170
136 152 175
127 145 168
137 154 177
124 142 168
145 161 180
143 157 174
131 148 169
136 153 175
136 153 174
131 145 159
137 154 174
141 154 169
132 147 166
132 149 169
133 148 163
128 143 163
135 151 172
138 152 170
133 150 172
136 152 170
140 154 169
139 153 170
131 145 162
140 155 173
136 150 166
131 143 156
133 144 155
136 148 161
132 147 163
139 152 164
136 150 166
143 155 167
131 146 165
138 147 155
129 143 159
140 151 159
131 139 145
139 146 151
136 146 155
131 140 148
133 142 151
139 148 156
136 147 156
143 152 161
142 151 159
136 145 154
143 157 174
142 154 168
140 149 156
141 151 161
140 148 156
132 140 145
142 153 162
137 147 157
136 142 145
140 150 162
140 147 150
136 145 153
142 154 168
144 155 165
140 146 148
144 152 156
142 151 158
142 152 160
150 162 174
141 150 156
147 158 169
144 151 156
143 151 157
145 155 165
145 155 164
148 156 162
148 160 172
147 159 170
150 162 174
149 159 168
147 160 173
143 154 164
145 159 177
148 157 162
150 164 179
142 150 155
150 161 171
151 167 187
148 163 180
150 163 179
149 164 180
147 156 166
148 163 181
149 160 172
146 158 169
149 164 181
152 167 184
152 168 187
151 166 184
153 168 187
153 170 189
153 169 187
149 162 174
155 172 191
151 165 180
152 168 186
152 168 187
153 168 186
149 166 186
149 166 185
150 171 199
153 173 201
149 171 200
153 174 202
150 171 199
150 171 198
152 173 201
150 171 198
149 170 198
150 171 198
153 174 201
147 167 193
144 165 193
149 170 197
149 169 197
144 166 193
149 169 197
151 171 197
148 168 195
147 167 194
152 172 199
145 165 190
148 169 196
152 172 198
147 167 192
151 170 197
149 168 194
140 160 187
145 166 193
149 168 194
144 164 191
146 166 192
147 166 192
145 164 191
142 162 188
149 169 195
147 167 193
143 163 189
138 158 184
140 160 185
143 162 187
139 158 184
144 162 187
151 170 196
142 163 192
140 160 186
152 170 195
144 164 191
145 165 191
140 159 185
141 161 187
140 159 185
144 164 190
138 158 186
144 164 191
135 155 184
135 156 186
134 154 182
130 150 177
145 165 193
144 163 188
138 158 184
139 159 187
149 169 196
130 150 179
139 158 186
137 157 187
140 161 189
134 155 185
128 148 180
141 161 188
136 156 185
138 158 186
129 149 179
134 154 182
132 153 183
133 152 181
133 154 183
136 156 185
122 144 179
132 152 182
135 156 185
132 153 184
131 151 181
131 151 178
136 157 187
125 146 179
130 150 181
141 162 192
135 155 187
137 157 186
127 149 183
142 163 193
128 150 183
142 163 193
136 157 186
134 156 188
136 157 188
133 154 186
136 157 188
132 154 186
133 153 183
132 153 184
134 156 187
129 149 179
135 156 188
136 157 188
129 151 184
139 158 186
134 156 188
137 157 187
141 163 195
131 152 185
118 140 175
135 155 184
141 161 189
132 154 185
122 145 180
132 153 184
132 153 185
126 148 182
122 143 177
125 147 181
128 149 182
136 157 188
126 149 183
134 154 182
125 147 182
131 153 186
130 152 184
124 145 180
119 138 170
126 147 179
124 145 178
127 147 178
124 146 180
109 133 173
121 142 175
126 146 177
126 148 182
124 145 179
125 147 183
119 142 178
118 139 172
116 138 174
108 130 169
117 139 177
125 146 180
124 145 178
114 134 167
114 136 173
120 139 171
122 143 175
127 147 178
112 135 175
119 139 172
129 148 177
124 144 176
119 139 172
116 138 175
109 131 167
116 136 169
99 122 161
119 138 170
123 144 177
109 130 165
128 147 176
135 154 184
119 139 172
110 132 168
122 144 177
123 143 175
129 149 179
130 148 175
127 148 179
114 134 163
124 145 177
112 132 164
101 119 150
127 149 182
111 131 165
123 142 170
129 147 174
117 139 172
135 153 178
129 151 183
133 152 177
131 149 174
124 145 178
124 146 179
110 130 161
129 146 170
130 150 178
123 140 162
120 140 170
132 151 175
128 145 169
122 141 169
121 140 166
123 140 164
130 151 180
133 150 174
129 148 174
127 146 173
126 143 167
135 152 175
125 143 168
138 157 185
134 153 178
127 145 170
132 148 167
135 153 178
127 144 167
138 156 179
134 151 174
134 150 168
135 153 177
123 140 161
133 151 174
135 151 168
130 145 161
137 154 175
136 150 167
136 150 166
127 142 160
130 145 166
135 152 172
125 139 155
144 160 178
139 152 167
137 147 156
135 149 165
127 141 157
138 150 162
133 148 165
134 148 164
145 162 184
133 144 152
144 158 174
141 153 165
146 160 177
137 150 166
137 149 161
143 155 167
139 153 170
132 144 157
133 143 152
136 147 155
138 150 163
139 150 161
137 151 168
133 141 148
141 152 162
135 148 162
143 153 162
139 145 148
141 150 157
143 156 170
135 142 145
136 147 158
141 153 167
136 147 157
133 144 155
133 139 142
137 151 167
142 149 152
142 154 167
140 152 165
138 142 139
137 149 160
138 149 162
135 143 148
141 151 162
141 152 163
139 146 149
140 147 152
141 152 164
153 160 164
138 148 156
144 154 162
145 157 170
145 155 162
136 144 149
147 161 177
144 156 169
147 154 158
147 154 157
148 160 174
147 157 167
145 158 172
150 160 169
149 161 173
150 160 171
145 155 164
149 162 176
144 153 159
145 154 160
145 156 166
145 157 170
148 161 174
144 157 168
153 169 189
149 164 182
150 162 174
155 170 188
147 157 168
146 159 173
149 161 174
153 168 185
145 157 168
154 169 186
151 164 179
150 164 180
152 166 180
152 167 183
149 163 177
153 171 194
153 169 189
151 166 182
152 167 184
155 175 202
154 175 202
147 168 194
149 171 199
150 170 198
150 171 197
149 170 197
148 169 195
151 171 198
151 170 196
145 167 194
150 170 198
148 169 197
147 168 196
147 168 195
149 170 198
153 173 199
144 165 192
150 170 197
149 169 196
145 165 192
144 165 193
147 167 194
148 168 195
142 161 187
146 165 191
144 165 192
149 169 195
143 164 191
144 164 191
139 159 187
143 162 187
141 160 187
146 166 193
149 169 196
147 166 192
150 170 197
142 162 189
140 159 185
138 158 185
141 161 187
134 154 180
143 164 191
139 158 184
139 158 185
140 160 185
143 163 190
147 166 193
142 162 190
146 166 193
148 168 195
140 160 187
137 157 184
136 155 181
139 158 184
143 163 191
140 160 187
143 163 190
138 159 186
143 163 190
137 157 185
147 166 192
143 162 190
138 158 185
133 154 183
138 159 187
136 156 183
133 153 182
138 159 187
139 159 187
138 159 189
133 155 185
141 162 191
139 158 186
141 160 187
131 152 185
134 154 183
138 158 187
133 152 182
131 151 181
138 159 188
140 161 190
137 157 188
145 166 195
135 156 187
136 157 186
140 160 188
132 153 185
144 164 192
132 153 185
138 158 187
138 158 187
143 165 196
138 160 190
138 160 190
125 146 178
142 162 191
135 156 187
130 151 184
137 157 187
123 144 176
130 149 178
136 157 190
124 146 179
136 157 185
129 150 182
118 141 178
138 160 192
138 159 189
131 152 182
132 154 188
127 148 181
131 152 184
125 146 178
132 153 185
133 155 188
130 152 183
130 152 184
130 151 184
121 145 180
127 149 182
125 148 182
125 146 178
120 142 177
128 150 181
135 156 188
126 148 182
128 149 181
130 152 184
120 142 178
121 142 175
132 153 184
137 158 188
136 156 187
132 154 187
112 135 172
121 142 175
129 150 183
119 139 171
123 145 180
123 143 177
121 143 177
126 148 181
114 137 176
128 147 176
133 154 184
124 147 183
127 146 176
122 142 173
114 136 172
125 146 178
126 148 182
123 144 175
122 142 175
117 139 174
121 141 171
121 141 172
118 140 178
122 142 175
130 149 179
131 152 184
118 140 173
126 146 176
127 149 183
121 141 175
108 129 164
112 132 165
119 138 169
124 142 170
106 126 160
113 133 163
124 146 179
133 154 184
115 136 171
136 155 183
132 153 185
130 150 180
127 146 176
125 146 177
130 150 178
123 145 178
116 133 160
130 148 174
135 156 186
122 142 171
124 144 175
128 146 172
130 149 178
135 151 175
124 144 174
141 162 191
125 145 172
138 159 188
133 151 176
128 147 174
142 159 182
129 150 180
134 155 186
129 145 169
128 146 170
132 151 176
139 157 179
140 159 184
138 158 182
131 148 169
132 151 177
138 157 182
140 155 176
130 148 174
125 145 172
134 149 171
141 158 180
132 149 173
137 157 183
147 167 195
133 149 171
131 150 176
135 152 174
131 152 179
130 148 171
130 146 168
135 152 174
141 156 175
133 148 168
131 146 165
131 148 169
129 145 166
133 148 166
135 150 168
132 148 170
131 145 162
139 153 171
135 153 175
130 146 166
138 153 171
135 146 155
131 142 155
137 151 166
130 143 158
138 152 168
143 158 176
139 151 162
137 152 171
137 153 174
139 153 169
137 151 171
142 152 160
139 152 166
136 149 166
138 149 160
137 149 160
141 153 166
131 142 153
133 145 156
130 143 158
137 150 163
135 144 151
135 142 146
142 152 160
140 152 166
140 148 153
139 149 156
141 150 157
144 155 165
142 153 163
146 155 163
141 153 166
148 158 166
139 148 155
146 155 163
145 158 173
140 150 159
143 152 162
139 151 163
141 155 170
144 152 156
145 159 174
142 152 162
146 155 161
144 152 158
144 155 164
142 155 168
148 160 174
140 148 155
141 149 154
145 157 168
146 156 165
144 157 173
145 155 164
150 163 178
150 162 174
147 158 168
150 164 179
148 159 171
148 161 176
151 162 173
148 161 175
148 161 174
151 162 173
144 155 166
150 163 178
145 156 169
148 157 165
148 162 178
148 161 176
153 168 184
151 164 179
139 152 167
147 158 168
150 165 183
151 168 190
145 158 172
148 164 186
154 169 186
153 165 178
151 165 181
149 164 182
152 167 183
155 171 190
154 170 188
152 173 200
152 173 200
150 171 198
150 170 196
147 167 194
151 171 198
152 173 200
148 169 197
152 172 199
147 168 195
149 170 197
147 168 195
147 167 193
148 168 195
150 171 198
149 170 198
149 169 195
149 169 196
149 170 198
152 172 199
150 171 197
148 168 195
147 166 192
147 169 197
149 169 195
147 167 194
151 172 198
145 164 191
150 170 196
141 161 188
144 164 191
144 165 193
139 159 185
148 167 193
141 161 188
142 162 188
151 170 195
143 164 192
143 162 189
144 165 193
143 163 190
143 163 190
140 160 188
145 165 192
145 165 193
137 157 184
149 168 195
141 161 188
138 157 184
143 162 189
143 164 192
142 162 189
138 158 187
139 160 189
134 155 185
142 161 188
139 158 184
134 154 182
144 164 192
138 159 189
137 157 185
140 159 186
137 158 188
144 165 194
136 156 184
134 156 186
129 150 179
136 157 187
134 154 182
136 157 186
138 158 185
138 158 188
125 145 175
139 159 189
137 157 185
139 159 189
137 157 187
140 159 186
136 157 188
141 161 188
137 158 188
144 164 193
139 160 189
139 161 191
135 155 185
135 155 184
133 155 185
140 160 189
124 144 176
134 156 189
136 156 184
142 162 190
133 155 186
140 161 190
140 161 190
133 154 185
136 158 190
140 160 190
140 162 193
132 154 185
141 162 193
135 157 188
126 147 179
131 153 186
129 152 186
136 157 187
138 160 193
134 154 185
137 158 189
132 153 184
126 148 181
137 158 189
140 162 193
133 155 186
116 137 172
130 151 183
127 149 182
123 145 179
125 147 182
128 150 183
135 156 188
119 142 179
119 142 178
133 155 187
123 145 180
130 151 184
118 141 177
122 143 175
131 153 186
126 146 178
128 149 182
125 148 184
127 148 181
138 159 189
127 149 182
126 148 182
118 140 175
121 142 178
119 141 176
120 141 175
128 148 179
120 142 178
128 149 182
130 151 183
115 137 173
117 139 173
130 150 183
123 144 176
122 143 177
128 150 183
123 144 177
132 151 178
131 153 186
121 142 176
120 141 174
119 140 173
120 141 175
125 146 177
116 138 173
112 133 165
123 141 167
122 142 173
122 142 175
121 141 173
123 144 176
127 147 178
121 142 175
125 146 180
117 138 172
116 138 171
110 131 165
121 144 179
130 151 182
124 143 174
115 137 171
122 142 173
123 145 178
133 153 182
117 137 168
120 141 176
130 149 177
120 138 163
114 133 162
124 143 171
135 153 177
123 142 172
129 149 178
118 137 167
135 154 181
119 139 167
138 158 185
125 146 178
126 145 172
133 154 182
139 158 185
125 144 174
134 153 179
128 143 166
126 145 170
128 147 174
130 148 173
134 154 182
129 146 169
129 145 166
132 150 175
138 158 186
128 144 165
132 148 171
125 144 170
135 154 180
132 149 170
134 152 177
137 157 185
129 147 168
138 154 175
135 154 180
122 139 161
137 156 181
131 147 167
135 151 173
142 156 171
133 151 173
134 151 171
128 146 169
140 156 176
134 152 176
141 159 181
135 152 172
127 140 156
139 156 175
129 145 166
136 152 171
135 149 168
133 150 170
139 156 178
134 149 167
134 149 170
138 149 161
140 155 169
136 149 161
138 151 167
138 151 167
137 151 169
136 150 166
143 158 177
137 152 169
137 148 159
143 156 172
141 152 164
142 155 169
146 163 183
138 151 168
136 148 161
143 157 172
140 148 153
139 151 165
139 150 160
145 156 169
139 151 165
138 151 167
134 148 166
138 150 162
145 159 174
143 152 158
134 148 163
143 155 169
144 157 171
143 154 164
142 153 163
144 157 170
140 151 162
140 153 165
145 157 168
132 141 148
142 155 169
143 156 170
146 155 160
143 152 160
146 158 171
148 162 177
140 152 165
144 155 168
141 152 164
146 158 169
148 163 180
146 160 176
147 155 159
143 154 163
146 159 173
153 164 173
146 159 173
147 157 165
150 162 176
147 162 179
145 157 167
148 161 176
146 157 170
148 161 175
149 164 182
143 156 170
145 157 168
150 163 178
143 157 171
148 161 175
151 166 183
151 164 178
150 164 179
146 161 177
148 162 177
150 166 184
146 155 160
152 164 175
151 165 182
153 166 180
153 166 181
152 166 181
154 170 189
155 168 180
148 159 169
152 168 186
152 172 199
150 170 198
153 173 199
150 171 199
149 170 198
151 172 199
147 168 195
152 173 201
148 168 195
148 169 196
151 171 198
144 165 193
144 164 191
146 166 194
151 171 199
144 166 194
150 170 197
146 166 192
148 168 196
150 171 198
143 164 191
145 165 192
148 169 197
144 164 191
143 163 189
141 161 188
146 168 196
145 166 194
145 165 192
144 164 191
151 172 198
150 170 197
139 160 187
141 161 188
138 158 186
149 169 195
143 163 190
141 161 187
141 161 188
141 161 188
141 160 187
141 161 190
144 163 190
145 164 190
141 161 189
134 154 183
144 164 191
142 163 191
141 161 189
143 163 189
141 161 188
143 162 188
141 161 188
137 158 186
144 164 192
133 153 181
147 167 194
134 155 186
141 161 189
140 160 189
143 164 192
138 158 184
140 161 189
137 158 185
133 153 182
133 154 183
140 160 189
140 160 189
141 161 189
137 158 188
138 159 188
135 155 185
139 161 191
143 164 193
143 164 192
138 159 189
144 165 193
128 149 180
138 157 186
138 160 191
137 158 187
136 157 189
143 163 190
134 156 187
141 162 192
135 156 188
132 153 184
129 150 180
144 164 193
136 157 187
137 158 187
137 159 191
136 157 188
134 155 187
135 157 189
132 152 182
134 156 188
132 154 187
139 161 192
140 161 192
136 158 190
138 159 190
130 152 185
142 163 192
136 157 188
137 159 191
138 159 190
135 156 189
129 150 182
133 156 190
132 154 188
133 155 187
137 159 192
133 156 189
133 153 182
131 153 187
128 149 181
141 160 189
132 154 187
133 155 188
127 148 180
131 153 187
130 152 186
137 159 191
129 148 177
131 152 185
132 154 187
127 149 183
137 157 186
130 151 183
133 155 187
126 149 185
134 154 184
133 154 186
122 144 179
123 145 180
129 151 185
127 149 183
123 144 176
119 141 176
133 153 182
123 143 176
133 154 186
133 155 189
119 142 178
121 143 177
140 160 191
123 145 179
127 148 180
119 141 177
128 148 179
115 138 176
128 149 182
125 145 176
131 152 184
116 138 173
118 140 175
132 153 185
125 148 183
136 155 184
136 156 188
131 152 185
121 142 176
119 141 175
125 146 178
134 154 183
119 137 166
131 151 180
129 149 179
126 148 182
131 151 179
122 142 173
130 150 180
129 150 179
130 150 180
126 146 175
126 144 171
139 159 187
114 136 171
119 139 168
135 155 181
132 151 179
125 147 179
126 144 167
129 149 177
122 141 171
136 155 182
127 146 173
131 151 180
130 150 178
130 145 167
132 151 179
129 148 174
125 143 171
120 140 170
140 158 183
129 149 177
130 151 182
139 159 185
126 145 174
135 156 185
132 151 175
126 146 175
139 157 181
130 149 177
128 150 181
140 159 184
137 155 178
129 149 177
131 148 172
130 145 163
130 150 179
136 152 173
136 155 180
135 150 169
131 150 177
125 143 167
130 149 175
140 157 178
138 155 177
140 156 177
143 163 189
139 155 174
137 157 184
132 147 165
135 154 182
137 154 174
133 151 174
141 157 177
131 145 163
133 149 171
145 159 174
135 151 173
127 140 156
142 161 184
139 157 179
136 153 174
138 151 166
139 153 169
138 151 165
138 156 178
144 161 182
141 154 168
144 159 179
136 149 162
139 155 175
139 154 173
141 153 165
137 150 166
134 145 157
142 157 173
142 155 171
143 153 165
138 149 159
138 151 164
138 151 164
138 149 158
144 155 165
140 153 169
145 159 174
137 151 166
138 149 159
135 151 170
142 151 157
137 150 164
143 153 163
139 149 157
145 160 177
146 158 172
143 155 167
146 160 176
135 148 163
148 160 175
139 148 155
139 146 150
142 153 165
136 146 155
145 154 159
145 155 162
148 158 167
139 150 161
145 160 175
148 157 167
142 153 164
151 164 177
149 164 180
153 169 188
143 152 161
143 155 166
149 164 183
144 154 162
147 160 176
148 160 170
149 162 175
147 158 168
146 156 166
143 151 154
146 159 174
142 151 157
143 152 160
151 165 179
144 158 175
148 161 174
152 165 178
150 163 177
152 167 186
149 163 178
149 166 188
150 165 183
152 166 183
148 164 182
150 162 174
151 164 178
150 164 178
149 164 179
148 162 177
152 166 181
152 167 184
150 161 172
153 168 186
149 170 198
152 173 201
152 172 199
151 172 201
151 172 199
153 173 199
148 169 197
154 173 199
149 169 196
147 168 196
148 169 196
147 168 195
149 169 197
148 168 195
148 167 193
145 166 195
143 164 190
148 169 196
147 167 194
146 166 193
150 170 197
146 166 194
150 169 194
143 164 192
152 172 199
143 163 189
144 165 193
143 163 190
140 160 188
148 168 194
142 162 189
150 170 196
147 167 194
143 163 190
147 166 193
142 162 190
141 161 189
137 158 187
144 164 191
141 161 188
143 162 189
143 163 189
143 163 191
143 163 191
142 162 188
143 162 189
142 164 193
150 171 200
147 167 195
139 160 188
139 159 187
128 149 180
140 159 187
142 162 190
141 162 191
139 160 189
139 159 187
132 153 185
135 155 184
136 158 187
142 162 189
137 158 186
135 156 184
132 153 182
135 156 185
141 163 194
135 155 186
135 156 185
140 161 190
139 160 190
140 161 190
140 159 187
141 161 189
146 166 192
131 153 185
140 161 191
143 164 194
137 157 187
136 156 186
139 160 189
141 161 189
131 154 187
137 158 188
130 151 183
139 159 186
141 162 190
144 166 196
129 149 178
134 157 191
135 157 189
141 162 193
139 160 189
133 155 187
134 156 187
138 159 190
129 152 186
127 148 181
138 160 191
140 162 192
141 161 191
137 158 189
131 151 182
128 150 182
129 150 183
129 152 186
132 154 186
140 161 190
124 147 183
140 162 192
134 155 185
131 152 183
127 149 184
134 155 186
130 151 183
131 154 187
134 156 189
137 159 190
140 161 192
142 165 197
132 154 188
133 155 188
135 156 185
130 152 186
135 157 190
126 149 185
134 154 184
136 156 184
128 150 183
137 158 190
132 154 187
125 147 182
134 155 187
127 150 184
130 154 190
129 150 182
123 145 179
133 155 187
137 157 187
136 157 188
127 149 183
130 150 181
123 146 183
125 145 178
132 154 186
132 154 188
131 151 182
131 152 183
128 150 184
131 152 183
121 141 172
122 143 177
129 150 181
112 135 172
130 151 184
124 146 178
122 144 179
118 137 168
125 146 178
135 156 187
128 149 180
134 155 185
123 143 175
127 149 182
130 151 183
124 145 176
129 149 179
131 151 183
130 148 176
126 146 177
124 146 180
133 154 184
122 143 174
129 148 179
128 148 176
130 151 184
125 147 182
128 148 176
127 149 183
125 144 174
134 154 183
130 148 173
120 139 170
128 147 175
128 149 180
126 147 180
129 147 173
131 152 184
133 149 172
144 165 194
126 145 172
128 147 173
129 147 173
127 147 176
134 153 178
137 156 181
129 145 170
127 145 171
139 158 185
135 152 176
130 149 175
124 141 165
129 146 171
130 150 177
141 160 186
144 164 193
135 154 179
131 152 182
132 150 174
116 137 167
132 153 181
133 149 171
134 154 183
126 144 170
132 147 166
137 156 180
131 151 176
135 153 179
136 153 177
144 163 188
137 157 183
130 147 169
147 164 186
132 147 165
138 158 186
131 147 168
132 150 173
137 153 171
141 161 185
137 156 182
146 164 189
141 158 182
142 157 174
139 155 176
132 151 177
131 147 168
139 151 163
144 159 178
137 153 172
141 160 183
134 151 172
139 153 172
134 150 170
133 148 166
146 163 183
135 150 169
144 158 174
136 153 174
141 153 167
132 142 154
137 152 170
145 156 165
135 149 164
135 148 162
142 153 161
131 145 162
137 150 165
140 154 171
136 146 155
138 149 161
135 145 155
139 150 161
141 153 165
145 155 165
137 151 168
147 159 172
141 154 169
142 152 161
145 157 167
146 159 170
147 161 176
139 150 159
139 153 169
139 153 168
137 148 158
137 147 158
141 150 155
143 154 165
147 161 175
146 157 169
145 157 168
146 156 166
138 150 160
149 160 172
137 149 160
145 156 167
146 160 175
145 158 170
147 158 170
144 158 174
148 161 176
148 157 165
149 161 174
145 159 174
145 158 174
147 161 177
152 166 181
148 159 170
151 163 176
147 162 178
150 160 170
149 163 180
147 158 169
150 162 174
149 163 179
150 162 174
150 163 176
154 167 182
151 167 185
149 165 184
154 170 190
144 157 170
149 164 183
150 166 184
153 168 186
149 163 179
149 163 181
150 164 178
146 158 172
146 159 174
151 166 184
151 171 198
150 171 198
149 170 197
149 170 198
151 172 199
150 171 198
150 170 195
152 173 200
146 166 192
149 169 197
147 167 195
143 164 193
146 167 196
146 167 193
149 169 196
146 166 193
147 167 195
148 168 196
140 160 187
145 165 192
151 172 200
145 166 195
143 165 192
143 162 189
146 166 192
151 171 198
148 168 195
148 168 195
149 170 196
144 164 191
145 165 192
144 164 193
139 160 188
139 160 188
148 170 197
145 164 191
146 166 192
149 169 196
139 160 189
140 159 186
143 163 191
147 168 197
144 165 193
148 168 195
146 166 193
140 160 188
141 161 190
145 165 192
144 164 193
148 169 196
142 163 191
136 157 185
138 159 189
143 162 188
134 154 184
140 160 189
138 159 189
144 165 193
144 165 193
139 158 185
142 163 192
137 158 187
138 158 187
139 160 187
139 159 188
135 155 183
145 166 195
134 155 185
136 156 186
136 157 187
141 163 192
140 160 189
141 162 190
138 160 190
135 156 189
136 157 188
142 164 194
140 161 192
146 167 196
134 155 185
139 161 192
138 159 189
141 163 193
133 155 187
144 166 194
127 149 183
136 157 187
132 154 186
140 161 191
131 154 187
138 158 187
137 159 189
140 162 192
137 159 191
139 159 188
134 155 185
135 158 190
145 166 196
132 153 185
128 149 182
134 156 188
141 162 192
136 159 192
130 151 182
140 161 191
133 155 188
140 162 194
139 161 192
146 167 196
137 158 189
133 155 187
139 162 194
133 155 187
133 154 187
143 165 195
132 152 185
135 156 186
134 156 188
133 156 189
124 145 179
125 147 181
136 155 184
131 151 182
123 144 177
126 147 179
126 147 180
136 158 190
129 150 184
136 158 189
124 147 182
136 157 187
125 149 185
135 157 190
134 156 188
126 149 185
135 157 190
137 159 191
131 153 186
132 153 184
127 149 181
131 151 181
126 148 182
130 151 184
126 149 183
129 150 182
125 144 171
128 150 185
131 151 182
133 154 184
127 148 181
132 152 181
131 153 183
134 154 183
126 146 177
124 146 179
126 146 178
129 150 183
126 145 175
122 143 175
136 156 185
130 150 182
130 151 183
126 147 180
122 142 174
132 153 186
117 139 174
131 151 179
125 146 176
121 141 174
128 147 176
117 138 172
128 146 175
124 146 179
138 159 191
132 151 179
134 155 185
125 145 172
120 142 176
122 142 171
127 146 172
125 144 173
126 148 181
126 145 173
138 156 180
134 156 187
124 143 173
132 152 179
131 152 182
126 147 176
138 157 183
135 156 187
135 154 181
127 147 175
139 159 186
126 146 175
132 151 179
142 160 183
144 163 189
138 157 185
138 158 186
139 156 179
137 157 184
129 149 177
132 151 178
134 152 175
124 146 179
143 162 187
139 158 184
136 152 173
133 150 173
142 160 183
136 155 179
143 162 187
126 145 173
141 158 180
134 154 181
135 154 181
137 156 181
134 150 172
134 151 174
136 155 180
128 144 167
126 143 163
134 152 174
140 159 181
137 154 174
130 147 168
146 164 186
146 161 180
133 149 167
135 150 166
137 152 172
144 161 180
129 145 165
141 157 175
135 150 168
131 146 165
141 159 183
132 150 173
140 154 169
132 146 161
141 153 165
145 163 187
139 155 174
138 153 171
141 158 180
143 159 179
134 149 170
133 148 167
139 153 170
134 147 163
141 150 156
141 155 170
134 149 165
143 157 173
140 153 167
136 150 167
140 155 174
139 150 160
141 155 171
139 152 166
141 156 175
142 152 159
144 157 173
146 162 182
143 156 171
138 152 168
147 159 170
142 154 165
146 161 177
136 147 159
141 152 161
147 163 181
141 154 169
140 151 162
143 157 174
142 151 158
144 156 170
138 148 158
144 157 169
143 152 156
146 155 158
143 154 164
147 161 177
147 160 175
151 164 179
141 153 165
142 156 173
140 154 171
145 159 175
146 158 170
144 159 176
140 148 156
142 154 165
151 164 176
144 154 162
150 166 184
146 159 174
150 163 176
151 165 180
150 164 179
148 164 182
150 165 182
148 162 177
149 162 176
151 164 177
150 160 169
151 162 174
150 165 183
145 157 168
153 168 183
147 158 167
152 166 181
151 168 188
147 162 179
148 161 177
148 162 179
149 162 175
151 167 186
149 162 175
147 167 194
150 171 198
146 168 195
153 174 202
153 174 200
153 173 201
152 173 200
147 168 196
150 172 201
149 170 197
150 171 198
147 168 195
148 168 196
149 169 196
146 166 193
148 168 195
147 167 194
149 169 194
148 168 195
147 166 193
149 170 197
142 163 192
142 163 192
147 168 196
146 167 195
150 170 197
141 162 191
146 167 194
148 168 196
148 168 196
145 165 192
142 162 190
145 166 194
140 162 191
144 165 192
144 164 192
143 162 189
142 162 189
144 164 192
139 160 190
143 163 191
143 162 187
144 165 194
137 157 185
141 161 188
147 168 195
140 160 187
145 166 193
142 164 193
147 167 194
140 159 186
140 160 187
142 163 193
139 160 189
137 156 182
139 161 189
141 162 189
147 169 197
140 162 191
147 169 198
145 166 194
143 163 190
135 157 188
137 160 191
138 161 193
140 160 189
144 164 192
137 159 190
145 167 196
142 164 193
138 159 190
141 163 192
138 159 190
130 151 182
140 160 189
139 160 191
139 161 190
137 159 190
141 162 193
141 163 193
138 161 192
134 154 184
138 161 192
141 163 194
135 157 190
130 153 185
133 155 186
138 159 189
141 163 194
148 170 199
138 159 189
139 160 190
132 154 186
137 158 188
132 153 184
141 162 192
133 155 187
136 157 189
138 160 191
137 157 187
139 161 192
138 159 189
132 154 187
133 154 186
136 157 189
131 151 181
136 158 189
135 156 186
134 157 190
136 158 189
133 155 188
140 161 192
133 155 187
132 154 185
142 164 195
132 153 184
131 151 181
127 148 180
131 154 187
138 159 190
131 154 187
132 155 189
138 159 189
132 155 187
133 154 185
131 152 183
133 154 185
131 154 188
129 151 183
130 152 186
122 145 181
129 151 185
135 156 188
130 151 183
126 148 182
135 155 185
132 153 183
127 150 185
134 154 183
127 148 180
128 149 180
132 153 186
134 155 185
124 144 176
133 155 187
133 153 184
122 146 183
128 152 188
134 156 189
131 152 184
133 153 180
122 143 177
133 156 189
130 150 181
132 153 185
137 158 189
125 146 180
128 149 180
132 153 184
131 150 179
126 148 182
137 157 186
133 153 184
127 147 180
128 150 184
119 140 174
135 157 187
130 150 182
123 145 179
131 151 180
133 153 183
125 146 178
135 157 189
122 144 178
132 152 180
139 160 191
123 145 179
131 151 178
131 151 181
124 146 179
134 154 183
142 162 190
134 153 181
131 150 177
134 156 187
130 148 173
133 152 179
128 147 177
132 152 182
129 151 183
138 157 184
135 155 183
139 157 181
131 151 181
134 150 173
127 146 174
136 155 180
136 155 182
123 144 176
132 153 183
136 156 184
133 152 177
132 149 171
140 159 187
132 152 182
139 156 177
128 148 176
135 155 181
132 152 178
136 156 184
139 158 185
139 160 186
141 161 187
138 156 179
131 147 167
132 148 169
137 156 180
126 143 167
138 155 175
136 153 174
143 164 191
136 153 177
138 157 184
134 154 182
148 166 189
140 156 178
139 154 173
129 147 173
140 155 173
138 154 176
139 154 172
136 152 173
138 155 178
136 153 178
147 165 188
142 156 172
139 157 179
137 152 170
135 154 176
144 161 184
131 146 164
144 159 177
135 153 175
142 160 181
140 154 169
133 150 172
142 157 175
140 155 171
140 155 174
140 155 174
148 162 176
145 161 181
138 154 174
136 150 168
137 148 159
145 160 179
143 158 176
138 153 169
139 152 165
138 150 163
142 157 175
144 155 165
143 158 174
142 158 177
143 157 172
147 160 175
140 154 171
136 149 165
140 152 164
137 153 171
148 161 172
141 155 170
144 158 174
146 159 173
142 155 167
144 156 167
149 166 187
150 163 179
143 156 172
144 154 162
151 161 169
144 155 168
145 160 178
143 155 165
142 154 166
145 162 181
146 164 185
147 161 177
150 164 180
149 157 161
147 159 174
146 161 179
148 160 171
142 157 174
143 155 167
139 150 162
147 158 171
153 166 182
144 159 176
147 157 165
144 155 166
151 167 186
144 156 167
146 161 178
150 162 175
151 159 163
147 159 169
148 166 188
149 166 187
152 169 190
145 162 181
148 162 180
150 165 183
151 164 177
149 164 184
149 165 183
151 167 186
154 170 192
149 162 176
151 169 190
152 172 199
145 165 193
151 173 201
151 172 199
150 170 197
147 168 196
148 170 198
152 173 200
152 173 201
149 169 196
149 169 196
151 172 199
149 169 196
153 173 200
148 169 196
145 165 192
148 169 197
147 169 199
145 167 195
144 165 193
144 165 192
142 162 188
150 170 196
148 167 193
150 170 198
146 166 194
141 161 189
148 169 198
148 169 196
146 167 194
146 166 192
141 163 193
144 164 193
142 163 192
143 164 190
145 166 194
147 166 192
146 166 194
142 163 190
143 163 190
147 168 197
143 165 194
138 158 188
149 169 196
139 160 190
141 162 191
144 165 192
139 160 189
134 155 184
141 162 192
143 163 190
145 164 191
143 165 197
139 160 190
136 157 188
131 151 179
140 161 190
144 164 191
148 168 193
139 160 188
143 163 192
141 161 189
138 160 190
144 166 194
137 157 187
147 167 196
141 161 188
138 161 192
142 163 193
138 159 190
141 162 190
150 170 198
131 154 188
141 164 195
141 162 191
143 164 193
142 164 194
137 159 190
138 159 190
137 158 188
134 155 187
145 166 195
140 161 192
134 155 184
140 162 194
147 167 196
134 155 186
137 158 189
132 152 180
136 156 185
142 163 193
138 159 190
143 165 195
133 153 183
135 157 188
141 161 191
144 166 196
139 160 191
131 154 188
140 162 192
141 161 191
132 155 189
127 149 181
136 158 189
140 162 193
144 166 196
137 158 188
142 164 195
133 154 187
136 157 187
132 155 189
136 156 187
134 155 186
136 158 189
130 151 185
127 148 180
140 161 190
134 157 192
130 151 183
130 151 183
136 159 191
137 159 190
131 153 187
128 151 185
122 145 180
124 146 179
130 152 183
133 156 188
133 155 189
134 155 187
128 149 181
136 156 186
138 160 191
132 154 186
122 146 182
130 152 186
125 147 181
136 157 189
133 154 186
142 163 192
134 156 188
127 149 184
135 157 188
140 159 188
139 160 190
135 157 190
127 151 186
130 152 186
136 157 189
133 155 188
131 153 185
127 150 186
129 150 183
131 152 184
127 149 181
128 149 181
124 145 179
135 157 189
135 154 181
130 151 183
136 155 183
135 155 185
135 156 187
128 150 183
124 147 182
130 152 187
124 144 175
134 156 189
123 144 177
130 149 177
132 153 183
130 150 179
128 147 177
130 150 179
132 153 181
131 151 180
125 146 178
121 143 177
124 145 178
132 152 181
128 149 180
128 149 179
131 151 180
134 151 172
132 153 183
129 150 180
139 160 190
140 158 182
135 155 183
131 149 175
134 153 181
141 162 192
136 156 184
133 152 179
133 152 179
122 142 171
138 155 176
135 156 187
135 155 183
134 154 182
136 156 182
141 160 187
133 153 181
132 151 178
127 145 172
130 150 177
125 143 172
135 152 176
145 165 191
140 159 185
133 154 182
136 157 186
146 163 185
139 157 181
137 155 180
141 161 190
135 152 173
137 156 184
136 153 176
139 158 183
133 150 171
143 162 188
135 151 169
136 153 173
138 154 174
133 151 173
140 159 186
137 154 177
135 151 172
138 156 181
139 156 178
139 157 181
127 146 170
149 164 182
135 151 172
136 154 177
134 153 178
140 157 179
140 159 181
139 156 175
147 164 185
141 157 176
142 158 179
144 158 175
138 154 175
130 145 162
147 161 176
140 158 181
132 147 163
144 162 184
139 153 169
142 155 167
137 153 171
144 156 169
136 149 164
141 157 175
145 161 179
136 151 171
142 157 172
143 158 177
144 158 174
137 153 172
138 153 170
137 150 165
143 157 175
143 155 168
144 157 173
139 153 170
142 154 166
139 153 168
135 151 169
143 157 172
142 155 170
142 155 171
147 160 174
143 155 169
143 155 166
149 161 174
146 160 176
146 159 173
138 148 156
144 157 173
148 163 180
147 160 176
147 161 178
138 150 163
147 161 178
145 156 166
152 164 176
141 152 165
145 158 173
148 162 178
143 156 170
143 155 165
145 161 180
148 162 176
148 162 176
143 156 170
147 160 172
148 162 177
142 156 170
153 169 188
143 158 176
150 165 182
141 155 170
149 163 178
145 159 173
147 161 176
146 161 179
150 164 180
152 169 190
151 167 185
145 162 182
145 159 174
147 159 173
149 165 181
150 162 174
150 165 182
153 167 181
152 166 181
154 174 200
147 169 199
148 170 198
146 167 195
150 171 198
146 167 195
153 173 200
152 173 200
151 172 200
152 172 198
147 167 195
147 169 196
145 166 193
146 166 193
147 167 194
153 173 200
144 164 192
148 168 195
145 166 193
148 167 193
144 164 192
150 170 196
146 167 196
147 167 195
146 167 195
148 168 195
151 172 199
148 169 198
146 167 194
149 169 195
151 170 196
143 163 191
141 160 187
146 167 195
144 165 193
147 167 196
146 166 194
140 161 190
145 166 195
143 164 193
144 164 191
145 166 195
140 162 192
151 171 198
141 162 191
134 154 182
142 162 190
145 166 194
142 163 192
143 165 196
147 169 198
142 162 190
144 164 190
147 168 196
139 159 187
141 161 190
137 159 189
144 164 191
149 170 199
143 164 193
138 160 192
144 165 193
138 158 186
141 162 192
144 164 192
145 165 195
144 166 195
139 161 191
144 165 194
140 162 191
138 161 192
146 167 197
144 165 194
145 167 196
139 160 189
140 161 190
137 158 190
145 165 193
143 163 192
140 162 192
139 162 194
143 164 194
141 162 192
141 161 190
133 154 185
141 163 193
134 155 186
139 160 191
146 167 196
140 160 188
141 162 192
124 147 181
137 158 189
143 165 197
140 163 194
131 154 188
136 158 190
141 163 193
142 162 190
130 152 184
134 155 187
132 155 189
137 159 192
134 157 189
138 159 189
144 164 192
137 160 192
136 157 189
134 154 184
132 154 186
127 149 183
128 151 186
137 159 191
128 150 183
139 160 191
143 164 194
142 163 192
133 155 188
139 161 191
136 157 188
134 155 187
130 152 185
131 152 183
139 161 193
131 152 185
140 162 195
139 160 192
136 158 191
129 151 186
123 145 180
133 156 188
133 154 186
136 159 191
132 154 186
128 151 186
126 148 183
129 151 185
136 158 189
136 156 185
122 144 180
129 150 182
131 151 182
125 147 180
137 159 191
136 157 188
126 146 176
134 155 187
132 152 182
130 153 186
141 163 194
139 162 193
134 155 188
131 151 182
131 152 184
131 151 182
129 149 180
132 153 184
138 159 189
128 151 186
129 150 181
135 155 185
124 144 178
136 157 188
134 155 187
132 154 186
128 148 178
129 151 184
124 146 182
134 154 182
129 150 181
118 138 167
125 145 175
131 150 176
131 151 180
135 156 186
117 138 171
128 150 183
138 157 183
125 147 180
137 158 189
131 152 182
123 146 179
130 149 178
133 155 188
127 148 180
134 154 181
131 151 181
139 160 189
128 149 180
140 159 185
131 153 185
120 141 174
132 151 177
134 154 182
134 151 173
137 156 182
135 154 179
136 157 187
141 161 189
133 149 170
134 151 172
122 142 169
139 159 188
131 150 174
137 154 176
129 147 172
135 153 181
128 148 176
129 149 177
147 164 186
137 155 178
139 159 188
141 160 185
144 161 183
141 160 185
135 153 177
134 151 173
143 162 189
133 150 170
137 153 174
137 156 183
137 155 179
140 157 179
147 166 189
140 156 177
140 159 184
139 156 177
140 157 178
142 160 182
138 154 175
139 158 182
140 158 184
144 164 191
138 159 185
133 151 175
137 151 168
140 156 176
147 165 188
139 156 177
142 159 181
136 153 173
135 150 166
141 158 181
138 155 178
142 159 180
140 156 174
139 154 173
137 153 171
149 164 182
140 153 169
135 150 166
144 161 182
139 156 176
145 161 180
146 164 185
143 156 170
140 153 168
141 154 170
144 160 179
141 157 176
139 153 169
137 157 183
147 160 173
141 153 166
135 149 167
147 162 180
146 159 175
144 158 172
140 150 158
138 152 169
148 160 172
148 165 185
144 160 178
140 152 162
150 164 181
143 157 175
149 166 188
145 160 175
142 156 172
143 155 168
145 157 171
146 162 182
143 159 178
149 162 178
144 158 174
145 161 180
148 160 171
139 153 168
150 168 191
147 163 180
143 155 167
148 163 179
142 153 164
153 169 188
146 157 167
151 165 182
148 163 181
149 163 177
152 165 179
139 154 170
146 159 173
150 166 183
152 168 188
145 159 173
151 165 180
145 157 169
149 163 179
150 163 178
145 156 167
154 169 188
150 158 163
146 161 179
151 164 178
145 160 176
149 162 178
153 167 181
150 164 180
148 161 174
148 162 178
149 162 177
151 171 198
149 169 197
148 168 195
148 168 195
148 168 195
147 169 198
146 167 194
151 172 200
148 169 195
146 166 193
152 172 199
147 168 196
147 168 196
149 169 197
148 169 197
149 169 196
145 166 194
151 172 200
145 165 193
148 169 198
142 162 191
143 164 192
148 168 194
148 170 200
141 162 191
145 166 194
147 168 196
145 165 192
146 167 194
148 169 197
148 169 197
150 171 199
139 161 190
153 173 200
138 159 187
145 165 193
142 164 193
145 165 193
145 165 193
148 170 199
141 163 192
145 164 190
149 169 196
139 160 190
145 167 196
141 162 192
148 168 196
149 171 201
146 167 194
146 167 194
143 164 193
145 166 195
141 162 192
143 163 191
140 161 192
143 164 192
142 162 189
146 166 193
137 158 190
144 167 198
139 159 188
139 160 191
142 164 193
133 154 186
145 166 195
141 163 194
147 169 197
143 164 193
144 164 192
140 160 189
143 164 195
144 165 195
143 165 194
133 155 185
139 161 192
143 163 192
142 163 192
147 168 196
143 166 196
137 160 193
142 163 193
133 156 189
142 165 197
141 163 194
148 169 198
140 162 192
139 162 194
135 157 188
139 161 192
136 158 191
135 156 187
137 159 190
141 162 191
131 152 182
138 159 190
139 162 194
138 159 190
136 157 187
137 159 192
138 160 192
138 160 191
144 165 196
132 153 185
137 159 191
127 148 182
136 157 188
143 164 193
133 155 188
139 159 189
131 154 188
133 155 187
137 158 188
134 156 188
133 155 189
135 157 189
138 159 191
138 160 192
143 164 194
128 150 185
134 154 185
139 160 190
137 159 191
139 160 190
136 158 190
146 166 193
122 144 178
128 151 186
134 157 189
133 154 185
138 159 190
140 162 193
134 155 189
136 158 191
132 154 188
134 157 190
126 149 184
135 157 190
127 148 180
130 152 185
135 157 188
129 151 184
130 151 184
133 155 188
140 160 191
130 152 185
139 161 193
126 147 179
127 149 182
135 154 182
129 151 185
127 149 183
132 154 186
127 148 183
142 163 192
138 159 189
134 154 185
133 152 180
129 150 183
136 157 188
138 160 190
131 152 184
125 147 180
132 152 180
135 156 186
132 153 184
125 145 178
122 145 179
134 156 189
132 151 179
127 148 177
124 145 176
132 153 184
136 156 186
131 153 185
130 151 184
131 151 179
139 159 188
131 151 183
138 159 189
142 163 192
132 151 176
141 161 190
135 154 183
132 152 182
143 163 190
139 158 187
133 153 184
134 157 190
133 151 175
129 147 172
134 153 181
135 154 180
134 156 188
131 149 175
133 152 179
130 150 180
127 148 178
135 155 184
140 161 189
131 151 180
127 147 178
139 158 184
132 153 181
139 157 183
131 149 173
135 151 173
139 158 184
132 151 175
131 152 180
134 148 163
134 152 176
141 162 190
137 154 176
140 160 186
130 151 180
128 148 175
139 160 187
147 168 196
139 159 187
135 152 176
140 158 182
135 152 175
146 165 190
135 155 183
135 153 180
138 153 172
139 157 180
147 166 189
140 159 184
143 160 182
137 157 182
139 157 181
138 155 178
146 164 187
141 158 180
140 156 173
134 150 170
134 152 176
134 151 173
142 161 184
146 161 179
140 159 183
147 164 185
141 158 180
138 154 174
146 164 187
140 159 182
144 161 182
136 152 175
144 161 182
138 154 172
139 157 180
144 160 180
145 162 183
149 166 185
142 158 175
143 157 173
144 157 171
138 152 169
138 150 166
145 162 183
141 157 176
147 160 174
146 161 179
145 160 177
137 153 172
142 156 172
142 155 168
146 161 178
146 161 178
146 162 181
146 165 188
143 161 182
143 156 169
147 163 182
148 165 185
143 156 170
140 151 162
146 160 177
146 157 169
147 160 176
145 158 171
150 167 189
140 155 171
150 165 182
146 160 175
146 161 179
144 158 172
147 160 173
147 163 180
150 165 181
146 160 174
152 166 183
145 157 171
152 163 174
150 163 177
146 160 178
145 161 181
144 158 175
146 161 177
149 162 175
146 159 174
146 161 178
150 162 172
151 166 182
152 168 186
151 167 186
145 154 159
151 163 176
147 165 185
152 166 181
146 157 167
148 164 182
149 159 169
147 162 179
153 167 183
149 163 178
150 167 187
151 165 180
149 165 184
149 170 198
150 170 196
145 166 193
146 166 193
150 171 199
148 169 196
151 172 200
149 170 197
151 172 200
149 169 196
145 164 191
150 171 198
149 169 195
146 167 195
144 164 190
152 173 200
143 163 190
149 170 197
149 169 196
150 171 198
145 165 193
146 168 196
144 165 193
149 170 197
140 160 187
149 170 198
150 171 199
145 166 194
140 162 191
145 166 195
144 164 192
144 165 194
141 162 191
146 166 194
145 166 195
144 165 193
146 167 195
149 169 198
149 169 197
139 159 188
147 169 198
139 160 190
147 167 195
140 161 190
140 161 189
141 161 190
134 155 184
144 165 193
141 161 189
150 171 198
146 166 193
150 171 199
146 167 196
145 166 195
150 171 200
142 163 193
137 157 185
141 162 193
141 163 193
141 162 191
139 160 189
140 160 189
141 162 192
139 160 191
146 168 198
140 160 189
147 168 197
141 162 192
144 165 194
136 157 188
144 165 195
142 163 193
134 156 187
134 157 190
135 157 189
140 162 193
145 166 197
144 165 194
140 161 191
135 157 190
136 157 186
139 160 191
136 157 186
127 149 181
137 158 190
145 166 195
132 155 189
133 156 189
141 163 194
137 159 190
136 159 190
133 157 191
138 159 190
144 165 195
143 165 196
135 157 190
137 158 188
143 165 195
141 163 196
135 157 189
140 161 192
147 168 197
144 166 196
135 158 193
143 165 197
136 157 189
137 158 189
130 151 184
135 158 192
142 164 195
144 165 193
130 152 184
139 160 190
135 158 190
132 154 188
132 154 186
134 157 191
138 161 195
128 149 182
140 161 192
130 151 182
137 158 187
132 154 188
137 158 190
136 159 191
144 165 195
132 154 185
133 155 187
132 155 188
138 161 195
134 155 185
130 153 187
130 152 185
126 148 181
127 150 183
132 153 184
132 154 186
138 158 187
136 158 190
131 154 188
132 154 186
133 154 185
132 154 187
138 159 190
130 150 182
129 152 186
131 152 183
136 158 190
137 157 188
124 146 180
136 157 187
130 153 188
130 150 181
126 148 182
140 160 188
128 149 179
129 151 185
131 151 179
141 163 195
134 154 182
132 152 181
134 155 185
133 155 188
137 155 181
138 159 189
131 151 182
136 156 186
143 165 195
125 146 180
126 144 171
129 148 176
138 157 186
143 163 192
134 153 181
137 158 185
135 156 188
134 155 183
126 146 178
124 145 180
132 151 180
132 152 181
122 142 171
141 162 191
143 164 193
131 151 181
129 148 173
135 154 182
143 162 188
141 161 187
138 157 185
131 153 184
137 158 185
137 158 189
128 149 179
134 157 191
127 146 173
131 153 186
130 151 178
134 155 184
144 164 190
138 156 182
141 160 187
136 157 185
138 160 192
137 157 184
135 156 183
138 158 185
135 154 183
132 150 176
142 160 184
137 157 185
138 159 186
135 151 172
137 158 186
136 155 181
140 157 176
139 157 178
136 154 179
135 155 181
134 154 179
139 158 184
143 163 189
145 163 186
138 156 181
140 159 184
139 158 182
145 162 185
137 157 185
132 148 171
137 156 178
139 154 173
135 151 170
136 152 171
145 162 182
141 161 186
140 158 180
142 156 174
135 152 173
144 159 177
139 155 175
138 155 176
145 163 186
144 160 181
143 162 185
131 146 163
140 154 171
144 162 183
141 159 181
144 161 181
143 161 182
142 159 180
147 163 182
141 157 175
137 154 176
141 158 180
137 150 166
139 155 174
138 155 178
146 161 179
143 157 173
148 163 181
144 159 176
134 148 164
147 161 177
145 160 179
145 160 179
144 163 185
145 157 169
144 157 171
140 152 164
144 159 177
139 153 168
138 150 161
139 152 167
138 151 166
140 156 175
147 159 174
145 160 177
144 158 173
143 161 184
141 156 173
148 164 184
151 165 180
144 161 182
150 166 185
141 155 170
147 161 176
143 160 180
144 158 172
150 164 180
149 163 180
146 162 179
148 160 173
151 166 182
147 160 172
150 163 175
147 163 183
142 156 171
148 162 177
154 171 192
147 160 174
148 163 179
148 163 179
145 160 179
151 166 182
148 163 179
147 162 179
147 160 175
144 158 174
152 165 180
149 161 173
146 160 174
146 161 180
149 165 184
149 161 172
149 167 189
151 165 179
147 163 180
149 164 182
149 166 186
150 171 199
149 170 197
150 171 200
152 172 199
146 167 197
148 167 192
147 168 196
148 168 195
147 167 193
143 161 186
146 167 195
150 171 199
148 169 197
152 172 199
142 164 193
146 166 194
147 168 197
145 166 193
143 165 193
147 168 195
140 160 187
143 164 191
147 169 198
146 166 193
146 167 196
145 166 194
141 162 191
146 167 196
147 168 196
144 166 195
143 164 192
147 167 195
145 165 193
147 167 196
142 163 191
142 163 190
146 166 194
152 173 200
142 162 192
141 162 192
143 164 192
147 169 198
138 158 186
145 166 195
151 171 198
139 161 193
146 167 195
141 163 193
142 163 191
147 167 194
141 163 193
134 157 189
146 167 196
145 166 196
134 155 187
145 165 192
138 159 190
136 156 187
142 163 193
140 161 189
147 168 197
144 166 195
146 167 197
140 161 190
141 162 190
143 164 194
137 159 190
143 165 195
142 163 193
141 163 193
137 158 187
140 160 188
140 161 191
142 164 194
139 160 190
129 151 183
143 164 196
141 163 193
135 156 188
142 163 192
139 161 192
143 164 193
139 161 193
133 155 186
136 158 189
142 163 194
138 159 190
134 156 187
136 157 189
138 160 191
137 159 192
141 161 191
143 163 190
140 163 196
140 161 192
145 166 196
145 167 198
134 156 188
135 157 191
141 163 194
137 159 190
132 153 183
142 164 195
138 161 194
138 159 189
140 163 195
143 164 194
131 153 185
129 150 183
138 159 190
136 157 189
138 160 191
131 153 187
138 160 192
134 158 193
134 156 187
143 164 193
137 159 191
130 153 187
138 161 194
133 155 188
139 160 189
132 153 186
127 151 188
130 152 185
140 162 193
133 154 186
140 162 194
135 156 189
128 150 183
134 155 187
139 160 190
137 156 183
133 153 184
136 157 187
138 159 190
129 150 181
131 151 180
131 152 185
130 153 189
131 151 182
135 157 189
138 161 194
134 156 189
133 154 185
139 160 190
134 156 190
131 153 185
136 158 190
135 157 188
131 152 183
129 149 181
130 152 185
138 158 188
131 153 186
144 165 193
136 157 187
126 147 179
128 149 178
130 153 188
133 154 184
134 156 186
132 152 182
123 144 178
137 158 186
137 158 189
136 156 185
132 154 185
130 152 185
135 156 185
138 159 188
135 155 184
136 158 190
129 151 183
132 153 182
135 154 183
135 157 188
124 146 178
136 158 190
133 155 186
132 153 184
128 149 181
131 152 184
130 150 182
131 154 186
136 157 185
136 155 183
136 155 181
132 152 181
137 157 184
130 151 181
134 155 185
137 158 188
138 158 187
132 151 179
129 152 184
138 158 186
133 151 178
144 163 190
138 158 186
137 156 182
135 153 178
135 154 180
140 158 183
132 152 181
133 151 177
136 156 182
133 152 178
131 149 176
135 156 185
141 161 188
137 159 189
141 163 192
141 161 189
135 155 182
142 160 184
143 162 187
132 153 182
142 160 184
139 157 181
141 160 185
137 157 183
140 157 183
136 153 176
139 157 180
144 164 191
134 152 176
138 154 174
140 159 182
143 160 180
139 160 190
143 161 184
145 165 190
139 157 181
141 162 189
148 166 189
142 158 179
144 162 183
145 161 180
141 159 181
133 147 164
142 158 178
140 157 178
140 157 176
144 161 182
140 157 179
140 159 184
134 153 177
141 159 182
140 156 176
144 162 185
139 154 173
138 156 179
144 161 182
142 158 177
144 161 183
141 156 173
141 157 175
144 162 183
147 163 182
139 154 171
146 159 174
145 162 182
139 156 178
139 154 171
145 160 177
140 153 168
141 155 174
143 157 172
138 154 174
150 162 176
139 153 168
143 155 168
143 159 179
145 161 182
148 163 178
147 165 186
145 157 170
141 155 171
137 151 163
148 164 184
147 160 175
147 161 178
146 159 172
148 165 184
145 159 175
144 160 178
144 160 179
145 161 181
149 163 177
151 164 175
144 160 183
148 162 177
145 158 173
149 163 179
148 163 180
150 162 174
146 160 175
147 159 170
144 159 177
150 168 189
145 157 167
148 163 181
147 160 176
151 167 187
149 164 180
151 165 182
149 165 184
149 167 189
145 159 178
151 164 176
152 168 187
145 159 176
148 162 176
149 164 179
149 161 175
142 154 167
153 167 182
151 167 184
145 160 178
148 170 198
148 169 197
152 173 200
151 172 200
152 173 201
150 170 197
144 165 193
145 165 192
150 171 198
149 169 196
149 170 198
145 166 194
147 169 197
148 169 197
147 168 195
149 169 197
146 167 195
151 171 198
150 169 196
140 161 191
150 171 198
149 170 197
151 172 198
146 167 195
151 172 200
147 170 199
142 162 190
146 166 194
145 166 194
143 164 193
142 163 191
142 163 192
148 169 198
150 171 198
143 165 194
146 167 195
140 161 190
143 165 195
149 170 198
139 160 190
147 168 197
140 162 193
140 161 193
145 165 194
152 173 201
143 163 190
137 159 191
146 167 195
136 157 188
141 163 194
142 163 194
141 163 193
141 162 192
146 167 195
140 162 193
144 167 197
140 160 189
141 163 194
136 159 192
139 160 190
137 158 188
142 162 191
143 164 193
134 155 185
143 163 192
144 164 192
143 165 195
145 166 196
144 166 195
140 162 192
144 164 192
148 170 199
139 161 192
138 159 189
133 154 185
141 162 193
140 162 194
145 167 197
135 157 189
139 161 191
138 159 189
138 160 192
140 161 192
138 159 189
139 162 193
136 159 190
137 159 192
144 165 193
136 158 189
135 156 188
139 161 192
149 171 199
134 156 189
149 170 198
134 156 189
137 158 191
139 160 191
132 154 186
131 154 188
138 160 192
137 158 189
132 154 187
134 156 189
145 165 193
139 159 189
145 167 196
131 152 183
139 160 191
137 160 193
139 160 190
137 159 190
135 157 190
140 162 194
138 159 188
139 160 192
138 160 191
140 160 188
136 156 187
134 156 188
136 158 191
142 164 194
137 160 192
132 155 190
136 158 190
130 151 182
134 156 188
143 165 195
146 167 196
139 160 193
130 150 181
134 156 189
133 155 187
130 152 184
132 155 189
137 159 191
122 145 180
131 153 185
132 154 186
134 154 185
140 161 193
131 151 181
130 151 181
137 157 189
138 160 191
145 165 194
128 150 183
129 150 181
136 157 189
139 160 191
138 161 193
129 151 186
134 155 186
139 161 193
129 151 185
130 152 184
136 156 183
133 155 189
136 157 188
127 149 182
129 151 183
135 157 190
146 165 190
134 154 184
128 150 183
136 156 185
135 156 189
127 147 177
134 155 184
138 159 187
140 159 186
125 148 183
128 148 178
135 156 188
131 152 185
127 150 184
139 161 190
134 154 184
130 151 181
136 156 185
140 161 191
144 164 191
142 163 191
136 158 187
136 157 188
142 163 190
134 154 185
142 162 188
138 155 181
138 158 186
136 155 183
134 156 186
134 152 178
134 153 178
132 153 184
132 152 181
139 158 184
138 159 188
137 156 182
136 156 183
130 152 182
138 157 184
135 154 180
128 144 163
147 164 186
135 157 188
140 162 192
138 156 180
140 160 186
138 158 187
141 161 188
136 155 183
137 156 181
132 151 178
134 153 179
133 150 172
139 160 189
144 163 188
139 156 178
138 156 177
135 153 178
141 161 186
136 154 179
138 158 185
140 159 187
143 162 188
139 156 178
139 158 182
139 159 187
143 161 184
142 162 188
141 161 188
141 160 187
144 160 181
139 158 180
146 163 185
142 160 183
139 158 182
141 157 176
151 169 193
145 162 184
141 159 182
142 159 180
140 158 179
138 155 175
138 154 175
141 153 168
138 156 181
142 159 180
146 163 182
133 147 163
138 152 167
144 161 183
139 157 180
132 148 167
135 152 172
145 162 182
142 161 184
146 161 176
139 152 166
141 156 173
144 161 182
133 147 164
142 157 174
142 158 179
135 150 169
145 159 175
138 152 170
140 154 168
148 166 187
145 160 177
149 166 187
144 161 182
149 165 186
145 164 186
143 160 180
140 157 177
141 157 177
143 160 182
144 161 182
144 158 176
143 161 184
148 164 181
151 166 182
144 158 174
146 159 174
145 161 181
145 159 175
148 164 184
143 159 178
144 159 177
143 157 171
144 160 178
146 160 174
143 157 173
148 164 182
148 163 178
148 161 177
149 162 175
153 170 192
148 162 178
153 166 179
149 162 180
147 160 173
149 162 175
147 162 178
144 157 171
145 159 173
143 161 183
143 158 174
148 165 184
150 163 177
148 164 185
148 160 171
146 160 176
152 168 186
151 166 183
148 162 178
146 161 177
155 170 188
153 169 189
149 170 198
144 165 193
149 169 196
149 170 199
150 171 199
148 168 195
152 173 202
148 170 198
146 167 194
150 172 200
145 166 194
144 166 195
151 173 201
145 166 195
149 170 197
144 164 192
144 165 193
149 170 198
149 170 197
149 168 194
146 169 200
146 168 197
149 170 198
150 171 198
142 164 193
151 172 200
150 171 199
147 169 198
148 169 197
146 166 195
147 168 196
150 171 200
140 162 192
149 169 196
146 166 195
145 164 190
149 170 198
144 164 192
142 164 194
147 169 199
140 161 191
145 166 195
142 162 192
149 170 197
143 165 196
148 169 197
144 165 194
145 166 196
147 169 198
141 162 192
142 163 192
137 157 187
144 165 195
141 162 191
142 163 192
143 165 196
146 168 197
142 162 191
146 167 195
137 159 188
143 164 193
143 164 194
137 157 187
148 170 199
149 171 201
142 164 195
146 167 195
141 161 190
146 168 198
140 162 192
141 162 192
143 163 190
137 158 189
137 157 186
139 161 194
135 158 190
142 165 197
139 161 193
136 158 189
142 163 193
134 155 187
139 160 191
146 165 192
142 164 195
149 170 200
136 159 191
144 164 193
137 159 192
139 161 192
139 160 189
145 167 196
134 156 189
138 159 189
140 162 192
132 154 185
142 163 192
137 157 187
145 166 196
139 160 189
143 164 194
140 161 192
137 159 191
138 160 193
128 150 183
126 148 182
143 164 194
144 165 195
144 165 196
141 162 193
132 154 188
130 153 186
137 158 189
135 157 190
137 158 190
142 163 194
133 156 190
128 150 186
134 156 188
138 158 185
141 163 195
130 153 189
140 161 190
132 154 189
133 155 188
141 162 192
146 168 198
131 153 186
140 160 190
140 162 194
137 159 193
134 156 188
135 158 191
138 160 192
139 161 192
127 149 183
130 152 183
143 164 194
133 155 188
127 146 177
139 160 190
136 159 192
132 154 187
140 161 191
130 153 186
133 155 188
134 155 186
134 156 191
135 156 187
135 157 188
139 160 189
139 161 195
135 156 187
133 155 188
133 155 187
139 159 187
127 148 180
139 160 189
135 156 186
143 163 191
137 159 190
122 145 180
125 148 182
128 150 182
125 146 179
134 152 179
121 143 178
137 159 190
138 159 189
134 155 185
137 157 186
134 155 187
139 160 188
130 151 183
133 153 181
129 151 183
128 150 185
140 161 191
138 158 187
129 148 177
133 154 186
135 155 182
134 154 183
130 151 180
133 150 173
141 161 190
135 157 188
140 160 190
141 161 190
138 159 187
138 157 184
136 155 182
135 155 184
140 161 190
138 160 190
132 151 178
138 160 193
139 160 190
137 156 182
143 162 188
137 158 186
132 154 186
136 156 184
128 147 174
141 159 183
138 158 186
141 159 182
138 159 187
138 159 189
138 157 183
132 152 180
142 160 186
140 160 188
143 162 189
137 157 182
134 154 183
143 163 190
143 162 189
148 167 193
139 158 185
143 162 185
141 161 186
148 168 193
141 160 184
141 161 186
139 157 180
143 163 186
144 161 185
141 158 180
144 163 188
136 155 179
139 157 183
130 148 173
141 158 179
137 154 178
149 168 193
139 158 182
140 159 184
139 160 189
150 169 193
139 155 174
135 152 173
137 155 178
133 149 168
147 164 186
140 158 184
147 167 193
146 161 180
142 159 182
141 158 181
145 159 176
143 162 188
145 163 184
147 167 193
142 159 181
146 166 190
142 157 176
141 158 181
136 153 175
146 161 178
135 151 172
141 158 179
146 159 174
143 158 177
144 162 186
150 166 185
147 164 184
137 154 176
146 161 179
140 152 166
148 166 187
150 165 183
145 163 186
145 161 179
147 162 180
147 163 183
148 163 180
140 155 172
145 160 178
147 163 183
147 162 180
139 154 172
145 158 172
149 162 175
142 155 170
147 163 181
148 162 179
146 163 183
146 161 177
144 160 179
146 159 172
148 162 178
142 155 170
145 160 177
145 161 177
149 162 174
143 157 174
146 160 175
146 161 179
148 163 180
151 163 174
148 160 171
148 162 179
148 162 177
152 166 183
152 167 185
147 162 182
148 165 184
150 161 170
149 163 177
149 160 170
146 161 179
152 168 186
150 162 175
149 163 177
147 161 175
144 159 176
148 162 179
148 164 182
151 165 182
153 171 194
151 173 201
149 170 198
146 167 196
147 168 197
142 163 191
145 166 194
150 172 200
148 169 196
150 171 199
144 165 194
147 168 197
144 165 194
150 171 197
149 170 197
147 168 195
144 166 195
150 171 199
144 166 196
149 169 197
149 170 199
148 170 198
146 167 195
146 168 197
145 166 195
149 170 198
141 163 193
143 165 194
151 173 201
145 166 195
145 166 194
148 170 198
142 164 194
140 162 194
146 166 195
144 165 193
141 163 193
145 167 196
144 166 196
147 168 197
148 170 197
140 160 187
148 169 198
142 164 193
145 166 195
149 171 199
142 163 192
143 164 194
144 165 193
146 168 197
143 165 195
144 165 193
139 160 189
143 164 194
138 159 189
143 164 194
145 167 196
140 162 193
145 166 196
142 164 195
141 163 192
145 166 197
138 159 189
147 169 199
146 167 196
144 165 195
148 168 195
142 164 194
149 170 199
141 162 193
140 162 192
146 167 195
141 162 193
143 164 193
146 167 196
142 164 193
142 164 194
140 162 193
138 161 193
144 164 193
138 160 190
142 163 193
146 166 194
137 158 188
145 167 198
132 154 186
142 164 196
139 160 191
144 167 197
135 156 187
134 156 187
137 159 191
145 166 194
137 158 188
145 168 198
137 157 186
146 167 195
147 167 195
137 160 192
141 163 193
140 161 190
136 158 191
141 163 194
138 161 195
143 165 197
133 154 186
137 158 188
136 157 188
137 159 190
138 160 193
141 160 186
132 154 186
137 159 192
145 167 196
139 161 192
133 155 189
131 154 188
136 157 189
143 164 195
139 160 190
136 159 193
137 158 189
135 158 192
134 157 190
140 162 194
132 153 184
132 154 188
140 162 194
131 153 186
142 164 194
139 160 191
136 159 193
129 153 189
135 156 187
143 166 197
132 152 182
138 159 190
138 160 193
134 157 190
134 155 186
132 154 187
141 162 193
128 149 180
142 165 196
136 157 189
131 152 185
128 152 189
129 151 183
134 154 184
127 150 185
135 157 187
139 159 188
133 153 182
133 155 189
139 160 189
140 161 193
123 146 182
126 149 182
139 160 189
128 150 183
129 152 185
132 154 186
137 159 192
136 157 186
136 159 191
129 153 188
134 157 191
142 162 189
130 151 180
134 154 184
134 154 183
132 154 186
142 164 194
134 152 178
134 154 182
139 159 187
138 161 194
137 157 184
132 153 184
140 160 187
138 159 188
142 163 192
141 162 190
140 161 189
135 155 185
134 153 180
135 155 184
131 152 183
137 158 189
124 146 176
136 157 187
132 150 175
135 154 181
140 159 187
138 157 183
140 159 185
138 160 191
136 157 185
137 157 185
137 157 187
138 161 192
145 165 193
132 152 180
129 148 177
143 163 191
132 154 188
136 154 178
143 162 186
141 162 190
132 153 182
139 159 188
135 154 178
131 151 181
137 156 181
140 160 189
141 160 187
142 161 186
137 156 184
136 155 181
144 161 183
129 146 170
140 159 183
140 159 185
135 150 169
146 165 190
140 156 175
137 155 178
142 161 186
137 154 177
149 169 195
143 163 190
146 165 188
136 155 181
139 158 183
137 156 183
138 156 179
138 156 180
137 156 180
142 160 186
138 158 184
138 154 176
147 166 189
144 162 184
149 167 190
150 169 194
146 165 190
143 159 177
142 158 177
142 159 179
149 169 195
140 154 168
138 155 175
139 153 170
145 164 188
144 161 182
140 157 177
139 154 172
141 159 183
140 156 177
144 159 176
140 157 182
147 164 185
138 153 168
141 157 177
145 162 183
139 156 175
145 161 180
143 158 175
141 154 167
145 164 188
140 154 170
149 162 174
145 163 186
152 167 184
146 165 187
136 153 173
145 160 178
148 165 183
145 160 179
143 154 163
146 163 186
147 163 181
148 164 183
144 159 177
151 165 181
148 165 187
154 171 190
144 158 172
146 163 184
146 160 176
148 166 189
145 159 174
150 162 174
145 159 171
141 155 171
143 160 180
149 162 177
148 163 178
146 161 178
146 159 173
144 157 170
142 157 174
147 165 187
150 161 173
145 157 171
150 167 187
150 165 184
145 162 183
149 166 188
147 164 185
150 165 181
147 164 186
145 157 170
152 169 190
152 169 190
150 166 184
149 164 181
152 167 184
152 168 186
152 167 184
151 164 179
146 168 196
147 167 195
149 170 198
151 171 198
148 168 195
147 168 196
148 169 197
149 171 199
147 168 196
152 172 200
148 169 199
145 165 192
151 172 200
150 171 199
149 170 198
147 168 197
153 174 201
154 174 202
143 164 193
144 165 194
148 169 196
144 165 194
151 170 198
137 159 189
147 167 195
144 165 194
148 168 196
148 168 196
148 169 197
147 168 197
143 164 193
146 167 195
142 162 190
146 167 196
149 169 196
150 171 198
145 165 192
145 166 195
146 167 196
147 169 197
146 168 197
139 161 192
143 165 195
141 162 191
141 163 191
143 164 194
141 162 192
140 161 189
143 164 194
142 163 192
146 166 194
145 167 197
145 166 195
146 167 196
146 167 197
142 163 192
139 161 192
140 161 191
149 170 197
140 161 192
145 166 196
145 166 196
141 162 191
144 165 194
141 162 192
140 161 192
142 162 190
142 163 193
143 165 197
144 166 197
142 165 196
141 161 189
141 161 189
143 166 196
145 167 197
144 166 196
144 166 196
135 156 187
140 161 192
142 164 195
140 162 192
140 163 195
145 166 196
145 166 196
148 170 200
141 163 195
139 162 194
141 162 192
135 157 188
142 165 197
133 154 186
137 159 192
141 163 194
136 158 192
137 159 191
139 161 193
141 162 190
135 156 187
146 167 195
142 163 192
140 160 189
143 163 191
131 152 184
139 159 189
137 158 189
135 158 192
137 159 191
144 165 195
138 160 192
137 159 191
128 151 185
140 162 193
139 161 191
134 155 186
144 165 196
141 164 196
140 161 191
141 163 194
136 158 190
139 161 193
141 163 193
138 160 192
130 153 186
135 157 190
138 160 191
132 155 189
134 156 189
136 157 188
131 153 186
137 158 187
132 155 187
133 155 190
136 158 190
137 159 192
132 154 188
140 163 195
139 162 195
131 155 190
139 162 195
135 155 184
135 157 189
135 157 190
131 155 189
134 156 188
124 146 179
138 160 191
142 162 189
134 155 186
136 157 187
135 157 189
132 155 189
135 156 188
136 158 190
129 149 178
137 157 184
135 157 187
137 158 189
138 158 187
132 155 189
144 162 188
134 155 188
137 157 184
135 158 192
135 156 186
134 156 188
135 154 178
128 150 184
136 156 185
138 161 192
137 158 187
128 149 180
135 157 191
128 149 179
139 159 187
137 157 186
135 156 187
140 161 191
139 158 183
139 160 189
136 158 188
135 157 189
135 157 189
135 156 188
133 154 185
137 157 187
139 160 190
136 156 183
137 158 189
139 159 186
127 148 177
140 157 182
129 149 179
137 157 185
135 155 182
131 152 185
141 162 190
136 156 185
134 154 181
135 155 184
140 159 187
134 153 177
136 156 184
135 156 185
142 162 191
139 157 182
138 160 191
141 161 190
141 159 185
138 157 182
141 161 189
140 161 191
138 158 186
141 162 191
135 156 185
139 159 184
148 167 192
144 163 187
145 166 194
143 163 187
140 159 183
130 149 175
141 162 189
139 157 179
140 161 188
137 156 183
150 171 197
136 156 183
139 157 180
144 161 184
136 154 179
146 165 190
147 166 191
147 166 189
139 158 181
136 153 175
145 165 191
139 157 181
143 163 191
133 150 170
142 161 188
138 155 179
134 153 178
139 156 178
147 164 184
132 148 168
140 156 174
141 159 184
141 158 178
140 156 175
142 160 183
143 160 182
148 164 182
142 159 180
140 157 181
139 156 179
146 165 189
141 159 181
143 159 178
146 165 191
142 158 178
139 154 172
140 155 172
141 155 171
141 156 174
144 160 180
142 158 178
139 154 173
144 163 186
147 162 180
143 159 179
144 159 176
146 160 175
143 160 181
145 159 175
141 159 182
144 163 186
138 155 177
144 160 180
143 155 168
140 156 177
144 158 175
147 161 176
146 163 184
146 162 180
145 160 175
147 160 174
148 163 180
146 163 183
145 159 176
143 158 176
145 158 170
148 166 188
145 157 171
144 162 186
142 157 174
154 170 190
150 162 175
145 161 179
151 168 191
146 162 179
146 160 176
147 163 182
149 166 187
147 163 182
152 168 188
148 164 184
141 158 179
148 162 179
148 159 168
141 157 177
143 161 183
142 158 175
142 155 168
149 167 189
144 158 175
145 163 183
153 170 190
150 166 185
151 165 179
150 166 186
147 168 197
148 169 198
150 171 199
150 171 200
147 168 196
149 171 199
146 168 196
146 167 195
147 168 196
150 170 198
142 163 192
149 170 198
145 166 194
144 165 195
142 164 193
149 170 197
149 169 197
144 165 194
147 168 197
143 164 193
144 165 194
137 159 189
142 164 195
150 171 201
147 167 195
145 166 194
148 169 197
146 166 192
145 167 196
140 162 193
148 169 199
147 169 199
144 165 194
145 165 193
143 164 191
142 163 192
145 167 197
146 167 196
149 170 199
144 166 196
143 164 194
142 164 195
142 163 191
145 167 196
144 166 195
150 170 199
146 167 195
146 168 199
135 157 189
148 170 198
137 159 190
145 166 195
148 169 197
141 162 192
142 163 191
151 172 202
142 163 192
143 164 194
147 168 197
145 166 195
146 167 195
143 164 193
141 164 196
144 166 196
145 166 195
143 163 193
142 164 194
142 163 193
139 159 188
146 167 197
143 166 197
134 156 189
145 167 196
145 167 197
142 164 194
143 164 194
152 174 202
141 161 191
142 164 194
144 166 195
141 163 195
140 163 195
144 166 198
145 167 196
143 165 194
147 168 196
143 164 195
141 164 194
142 164 195
136 159 191
139 161 192
140 161 190
140 162 192
143 165 196
139 161 192
139 161 193
126 148 182
134 156 189
144 165 194
136 158 190
132 155 189
144 165 194
139 162 195
142 163 193
143 165 195
137 159 191
136 158 190
134 155 187
143 165 197
133 155 188
135 155 186
146 168 200
139 160 191
135 158 191
137 158 189
133 155 187
140 162 194
137 159 192
140 161 191
127 148 181
136 159 192
132 154 186
136 159 192
131 154 187
135 157 190
139 161 192
140 162 194
141 163 195
142 164 195
140 161 193
134 157 190
136 158 192
137 159 190
132 155 189
145 165 193
133 155 185
145 166 194
137 158 190
128 150 183
133 155 187
138 160 191
136 158 189
138 159 191
131 155 189
133 154 188
135 156 188
132 154 186
142 163 193
132 153 184
135 155 182
135 154 184
131 151 182
139 159 187
139 158 184
126 147 179
137 159 188
143 165 195
146 168 199
130 153 187
137 158 188
132 154 186
129 151 180
136 157 186
137 157 185
137 157 185
130 151 183
126 148 182
142 163 193
134 156 187
141 162 194
134 154 184
137 159 190
132 153 186
126 147 177
126 147 178
130 152 184
142 161 188
132 154 186
129 151 183
139 158 183
137 158 187
130 150 177
137 157 185
142 162 191
138 157 185
142 162 191
135 155 185
131 151 180
138 156 180
132 153 182
137 160 191
140 161 190
143 163 190
130 151 182
140 159 186
136 157 188
125 148 182
133 153 181
140 162 192
144 165 195
134 155 186
132 154 186
141 160 186
135 157 189
138 159 189
140 160 187
143 163 190
133 153 178
144 164 191
134 153 180
135 155 182
142 162 192
142 160 185
140 158 182
142 162 189
142 160 182
142 162 188
136 156 183
138 158 185
139 158 182
143 162 188
141 162 192
138 158 185
137 154 176
142 162 189
141 162 191
138 155 177
139 159 188
131 148 168
146 165 191
145 162 186
145 162 184
134 152 176
137 154 175
144 163 187
146 166 195
138 157 183
147 165 185
139 158 184
142 160 181
138 155 176
143 163 188
143 162 187
146 167 194
140 159 183
142 160 181
139 156 177
143 160 182
146 163 187
134 152 174
151 169 192
144 164 191
142 158 180
142 160 183
147 166 191
138 154 172
138 154 172
140 156 177
146 164 188
147 166 192
142 160 183
152 171 195
142 160 183
145 159 175
150 167 186
144 161 184
147 165 189
149 165 184
144 161 184
148 166 189
153 168 186
147 167 192
136 152 172
142 159 179
146 165 187
143 161 184
139 154 171
141 156 173
146 162 182
144 160 180
142 157 174
144 163 185
140 158 179
148 162 179
143 160 179
146 163 184
142 158 175
146 162 179
146 162 182
144 157 168
147 164 184
145 161 178
152 169 192
151 168 190
147 163 184
145 161 181
147 162 180
146 161 178
144 160 178
148 163 181
145 160 176
145 160 178
144 159 177
149 164 183
151 167 186
145 157 169
151 165 182
147 163 181
149 165 185
147 159 172
145 160 176
147 163 182
150 168 191
148 167 191
148 164 182
148 161 174
148 163 178
147 161 176
148 163 182
148 163 180
148 169 197
149 170 198
150 171 199
153 173 201
147 168 196
147 168 196
145 167 196
150 172 200
147 168 196
148 170 199
149 169 196
147 168 196
145 166 195
147 169 197
146 167 196
141 162 192
149 169 195
148 168 196
150 170 199
146 167 196
143 164 193
147 168 197
146 168 197
148 168 195
147 169 198
148 169 197
149 170 197
145 166 195
147 168 197
149 171 200
143 163 192
141 163 193
140 162 192
141 164 196
144 166 197
139 161 193
134 156 187
145 166 194
144 166 197
144 167 197
135 156 185
145 166 193
143 164 192
146 168 197
146 168 197
149 170 199
147 169 199
145 166 195
149 170 199
146 168 198
149 170 199
147 167 194
144 165 194
149 169 197
137 159 189
139 162 194
144 165 195
146 167 196
140 161 191
148 168 197
145 166 195
138 159 190
140 163 194
142 164 193
147 169 198
145 167 198
139 161 193
137 159 191
144 166 195
141 163 194
146 168 196
140 162 192
145 167 198
145 165 193
141 162 191
137 158 189
145 166 196
146 167 196
135 157 189
139 160 188
142 164 195
142 164 194
142 165 198
145 167 196
141 162 193
138 159 192
142 165 197
143 165 196
143 164 194
140 162 193
141 163 195
141 162 193
143 165 195
134 157 190
141 163 193
140 160 190
137 159 190
137 159 190
134 157 190
139 159 189
137 159 190
132 154 187
144 165 194
138 160 193
139 162 194
133 155 186
136 157 190
140 161 189
142 164 194
141 163 195
144 166 196
139 163 196
142 164 195
142 163 193
144 165 195
140 162 193
136 157 189
133 154 186
135 156 186
140 162 193
139 161 192
139 161 194
144 167 198
136 158 190
141 161 192
144 166 197
139 160 189
138 159 188
139 160 190
140 161 194
139 160 190
126 148 183
139 161 194
133 156 190
135 158 192
135 158 192
138 159 191
131 154 188
134 155 187
136 158 188
130 153 186
147 167 196
135 156 188
133 155 188
129 149 177
139 160 190
133 156 189
143 163 191
130 152 185
134 156 187
134 156 188
138 160 191
127 150 187
136 158 191
139 159 189
138 159 190
137 159 191
138 159 190
135 157 190
141 162 193
136 159 192
136 158 188
137 158 188
135 155 184
139 161 190
130 152 184
132 154 185
134 156 187
134 154 183
141 163 194
125 148 184
134 155 185
129 151 183
139 160 191
133 153 181
137 159 189
138 158 187
139 158 185
137 159 191
135 156 184
132 154 185
129 149 177
137 157 186
133 155 186
141 162 191
136 158 189
128 149 180
135 156 186
133 155 188
144 165 194
142 163 191
149 168 194
137 156 182
139 159 187
135 157 187
133 152 178
137 157 185
139 161 191
140 161 189
134 155 185
144 164 189
139 159 188
142 159 182
138 156 180
138 160 190
146 165 191
143 160 183
148 170 200
141 161 188
130 151 180
139 159 185
136 155 181
141 161 189
135 154 180
138 157 182
140 160 187
135 154 179
140 159 183
140 162 191
136 157 187
143 162 188
146 165 189
142 162 190
136 155 181
141 161 188
142 161 184
139 159 187
139 158 183
143 162 187
143 160 181
146 164 189
137 159 189
138 157 181
148 166 189
145 163 185
141 160 186
143 161 185
138 157 182
145 163 185
137 155 177
145 165 191
147 166 190
145 163 185
135 153 179
142 160 183
147 164 185
141 158 179
141 158 181
139 157 179
151 167 186
145 164 187
147 165 190
137 155 177
146 165 190
151 170 193
144 160 179
145 164 189
143 159 179
142 158 177
143 162 184
138 155 178
147 165 186
140 157 179
142 160 180
139 156 176
145 163 185
141 155 170
136 153 174
145 163 187
149 167 191
145 162 182
146 162 179
140 159 183
141 157 177
143 159 178
145 160 177
143 157 172
142 159 178
146 161 177
145 159 174
143 159 176
146 162 181
140 157 178
149 168 191
143 160 182
145 163 186
145 161 179
145 157 167
148 165 186
147 166 189
150 168 192
145 160 178
145 162 181
146 160 174
149 166 187
149 162 175
147 162 180
142 157 174
154 168 183
150 168 191
151 168 187
144 158 174
141 156 175
143 160 180
144 162 183
146 159 173
151 168 189
148 165 186
149 165 185
147 164 186
150 163 178
144 158 174
151 169 192
147 162 181
146 164 185
150 164 180
149 166 185
148 162 177
153 168 185
145 159 173
150 172 200
142 164 194
147 168 197
152 172 198
148 168 196
148 169 197
151 173 201
148 170 200
146 168 198
151 173 202
155 176 204
146 166 194
148 169 197
142 163 193
146 168 197
145 165 193
149 172 201
146 167 196
144 165 195
149 170 199
146 166 194
147 168 195
142 163 193
145 167 197
143 164 193
148 169 198
143 164 193
149 169 197
144 164 194
145 167 197
149 170 199
147 169 198
147 168 196
147 167 195
147 170 200
148 169 198
145 166 195
143 165 196
143 164 195
142 163 192
143 164 193
139 161 190
147 170 199
146 167 195
147 169 198
146 167 197
148 169 198
145 167 197
147 167 196
144 165 194
140 161 190
142 164 194
143 165 195
147 169 199
140 162 191
145 166 194
145 168 198
134 156 189
148 169 198
139 161 193
152 174 203
143 164 194
142 163 193
143 166 197
148 170 199
142 163 193
136 157 188
140 162 193
148 169 197
139 161 194
146 168 199
145 167 197
143 164 194
136 157 189
141 164 197
139 161 192
136 158 190
143 164 193
137 159 192
144 166 196
138 159 190
143 165 196
140 162 194
143 165 196
143 164 194
147 167 195
141 163 193
141 162 192
140 163 195
144 165 194
142 163 194
144 166 198
140 163 195
144 165 193
140 163 194
132 155 188
140 162 193
143 164 194
143 166 197
145 167 197
144 167 198
143 164 192
137 158 190
141 162 192
143 165 195
136 157 188
141 163 193
140 162 195
146 167 196
140 162 192
141 162 193
136 156 186
135 157 190
142 163 194
146 168 198
136 158 190
141 162 192
139 161 194
138 161 194
139 160 191
140 161 192
140 162 194
141 163 195
141 162 193
142 165 196
128 150 182
140 162 194
137 159 192
144 165 193
132 154 187
139 160 192
143 164 194
130 152 184
133 155 187
132 154 187
136 159 192
140 162 193
139 159 189
137 159 190
129 152 187
132 155 187
124 145 178
138 160 194
132 153 183
135 156 186
137 160 192
143 164 191
139 159 189
142 165 196
146 166 196
136 158 190
131 153 185
140 162 192
136 157 189
141 162 192
142 164 195
144 164 193
141 162 193
139 161 192
132 153 183
138 158 187
135 157 188
138 159 188
139 160 191
132 154 185
134 154 185
132 152 180
131 152 181
134 154 184
136 154 179
139 161 192
141 161 188
141 162 192
136 156 187
136 157 187
129 150 180
142 162 190
135 157 189
138 159 188
137 158 187
133 155 186
134 155 185
138 158 186
137 159 191
131 153 185
140 160 187
145 166 194
137 159 188
131 152 182
143 163 191
146 168 196
128 150 181
138 159 188
132 152 182
140 160 187
142 163 192
136 155 184
139 157 183
137 157 185
135 155 182
132 154 185
139 160 190
138 160 190
137 157 185
139 160 190
148 166 190
143 164 189
141 160 187
144 164 192
145 163 188
141 162 190
141 159 181
148 167 191
127 148 179
137 156 183
135 152 176
142 163 191
141 160 185
133 152 178
136 155 181
144 165 192
140 160 187
138 157 185
141 160 186
140 161 189
145 162 185
139 158 182
133 151 177
141 160 184
145 164 188
143 161 184
139 158 182
141 160 185
139 158 183
143 161 183
142 164 193
142 161 187
146 163 184
140 160 187
143 163 189
141 160 185
141 160 185
138 156 179
140 159 184
145 163 186
140 158 181
141 159 183
144 163 185
144 162 184
147 166 191
145 163 186
148 167 191
152 170 193
144 162 187
149 167 188
146 162 181
144 160 178
149 162 174
139 157 177
144 160 179
147 166 191
143 161 184
144 161 182
144 161 183
145 164 190
131 148 168
150 169 194
147 162 181
148 166 188
141 161 187
147 166 191
142 160 184
142 160 182
145 162 185
144 163 185
147 163 182
149 164 183
147 166 189
136 151 166
146 164 184
145 162 185
147 165 187
150 167 188
141 160 184
151 171 197
143 158 178
140 155 172
144 164 188
147 161 178
146 164 185
141 154 168
148 163 181
148 163 179
143 157 172
145 161 180
147 161 179
146 164 186
148 164 184
145 161 180
148 161 173
142 157 174
144 159 175
150 166 186
146 162 180
151 166 183
154 169 184
146 162 183
148 165 186
150 165 182
148 162 177
150 167 187
151 164 179
151 169 189
148 164 183
148 167 190
152 168 186
145 161 182
148 165 185
146 162 183
153 167 181
145 166 195
151 172 199
149 170 198
151 173 201
147 169 199
144 164 193
147 167 194
147 168 195
146 167 196
151 172 200
151 172 200
151 171 198
147 168 197
147 167 194
147 168 197
152 173 201
145 166 195
146 167 196
144 166 197
148 169 197
148 170 199
145 166 196
149 170 199
146 168 198
143 165 194
146 166 193
149 170 198
143 164 193
152 173 200
146 167 196
147 169 197
147 168 198
141 162 190
145 167 196
148 169 198
141 163 195
141 163 195
143 164 192
149 170 198
146 168 197
146 168 197
149 171 200
143 164 194
143 164 194
148 168 196
142 164 196
141 163 193
138 159 190
144 166 196
147 167 195
142 164 195
141 163 195
145 165 194
139 160 189
142 163 194
151 172 200
147 169 199
140 163 194
144 165 195
139 161 191
143 165 195
146 168 197
144 164 192
140 162 192
147 169 199
141 162 191
147 168 197
149 171 200
141 161 189
136 158 189
140 161 191
134 158 191
140 162 192
139 161 193
136 157 187
143 165 196
142 164 196
142 163 193
147 168 199
152 173 201
135 156 185
142 163 192
147 169 198
141 163 193
137 158 187
145 166 195
145 166 196
132 154 185
136 157 187
145 167 197
137 159 191
146 167 195
139 159 188
144 166 197
142 163 194
141 163 196
140 162 194
140 162 195
142 164 194
140 162 193
131 154 187
142 164 195
142 163 192
142 165 197
143 166 197
135 157 189
140 161 192
142 161 188
134 156 188
137 159 191
142 162 191
136 158 191
130 153 187
142 163 194
137 159 191
143 166 197
144 165 194
129 150 182
136 157 187
136 158 191
137 158 189
137 159 191
143 165 194
133 154 186
142 163 193
136 156 186
142 164 194
138 159 192
139 161 192
130 152 184
139 161 193
143 164 193
137 159 191
137 158 189
138 161 193
131 153 186
142 162 191
126 148 181
146 167 196
122 145 181
134 154 181
141 163 194
141 162 192
136 157 188
139 160 190
142 162 189
136 158 191
122 145 180
143 164 193
142 163 194
137 160 192
141 163 194
134 156 188
136 158 190
134 155 185
137 159 192
143 163 191
134 156 189
146 167 195
129 150 181
141 163 195
131 151 180
140 160 188
139 160 189
129 150 182
146 168 198
133 154 185
140 160 189
132 155 187
134 156 187
135 156 185
136 157 186
139 161 192
142 161 188
142 163 194
141 161 189
130 151 183
139 159 186
133 156 187
138 158 185
143 162 191
134 154 183
136 158 189
140 161 191
136 155 182
137 157 186
135 157 188
140 160 186
149 171 200
136 158 191
144 165 195
139 159 187
135 155 183
126 145 174
143 164 192
146 166 193
135 154 180
137 159 189
135 157 188
131 151 179
141 162 191
143 162 188
139 161 191
140 160 187
143 163 190
143 162 188
141 161 187
133 153 180
132 151 175
147 165 188
140 160 186
143 164 192
138 158 186
142 162 187
137 156 183
135 154 180
136 158 187
138 159 188
131 150 178
135 154 180
147 165 189
133 151 175
136 154 178
143 162 186
143 163 188
139 159 185
140 160 185
138 158 186
145 166 195
141 161 186
140 161 188
147 165 189
130 147 168
141 160 184
143 161 185
141 160 183
146 164 186
144 164 191
147 165 189
143 162 190
141 160 186
146 166 191
144 165 191
143 157 174
148 165 186
141 160 183
144 163 187
142 164 192
145 166 194
147 166 191
145 164 187
149 169 195
132 151 178
136 153 173
150 168 192
139 159 185
143 163 189
142 161 187
147 165 188
145 165 191
149 165 186
148 165 186
140 156 175
140 157 181
146 160 175
146 162 180
146 159 172
145 163 185
141 155 172
144 162 184
149 164 181
141 159 181
141 158 180
146 165 187
140 158 181
148 164 183
143 158 177
146 164 185
142 158 175
148 167 191
144 160 179
151 166 184
143 158 174
151 170 193
141 157 177
151 168 189
148 160 172
148 165 185
144 162 184
152 169 188
151 169 192
152 169 192
149 164 183
144 163 189
147 161 176
146 162 181
143 159 179
145 161 181
149 167 187
147 163 181
146 163 183
142 160 182
144 158 174
149 163 177
145 161 181
146 161 178
150 166 186
149 165 184
147 164 183
148 162 179
150 167 187
147 162 179
148 167 189
149 166 186
143 158 172
151 170 192
148 164 181
148 162 180
150 167 187
148 166 189
149 170 198
144 166 195
146 166 193
151 171 198
152 172 198
144 165 194
143 164 192
141 163 193
148 169 198
147 169 198
145 166 194
150 172 200
150 171 199
151 171 199
144 165 194
146 167 195
151 172 200
147 167 195
151 171 199
145 167 196
147 168 198
148 170 199
150 172 200
145 165 193
142 164 196
144 166 196
145 165 193
142 163 191
143 164 192
147 168 196
142 164 193
150 171 199
146 168 197
139 159 187
137 159 190
146 167 196
141 164 194
145 167 196
145 168 198
145 166 196
145 167 196
144 165 193
141 162 190
142 164 194
141 163 194
141 162 192
141 163 193
138 161 192
143 163 192
137 158 187
147 168 198
148 169 198
149 168 195
145 166 195
145 166 196
145 167 198
141 163 195
138 159 188
142 163 194
145 168 198
143 164 195
147 168 199
145 166 195
142 164 195
141 162 191
144 164 194
139 162 193
145 166 194
142 164 195
145 166 197
144 166 197
142 164 195
146 167 196
139 161 192
146 168 198
144 166 197
139 161 191
142 164 196
145 165 194
143 164 194
142 164 194
138 159 189
141 162 191
145 165 193
138 159 190
140 160 189
139 161 194
143 164 195
142 165 196
137 157 187
139 161 193
146 167 197
142 163 193
145 167 197
139 161 192
137 159 191
141 163 193
140 163 195
140 161 191
141 165 197
143 165 195
141 163 195
138 160 193
142 164 195
142 164 194
141 162 191
141 162 192
140 161 192
141 163 195
140 162 195
145 167 196
147 168 197
138 160 193
138 160 193
140 162 193
131 154 187
129 152 186
135 158 192
136 157 187
140 162 193
133 154 187
143 166 197
138 160 192
138 160 191
145 165 194
141 162 193
135 157 190
138 159 190
142 164 196
143 165 195
142 163 192
138 159 190
134 154 184
140 161 191
143 164 193
143 165 196
138 159 189
137 157 186
137 159 191
135 157 190
140 163 195
141 163 193
140 162 193
141 160 188
132 154 186
142 165 196
136 159 191
138 158 187
134 156 188
131 152 184
133 153 182
147 168 197
139 159 187
141 164 195
132 155 190
146 167 195
144 164 191
138 158 186
134 156 187
135 156 189
127 150 185
144 166 196
147 167 196
127 147 176
138 161 194
137 158 189
137 158 188
136 158 190
146 166 194
151 171 198
135 156 187
138 158 187
143 163 189
138 158 187
140 163 195
133 154 185
132 156 192
139 159 188
140 161 190
137 159 191
136 158 189
142 163 191
133 155 185
138 158 186
139 159 187
137 157 184
143 165 196
142 163 192
130 152 184
128 148 178
139 159 188
136 156 185
137 160 192
131 151 178
139 160 187
140 160 188
141 162 191
139 162 194
134 155 186
141 160 184
133 153 182
135 155 183
140 160 190
141 162 191
131 152 180
141 162 190
141 162 189
143 162 186
143 162 188
136 157 186
133 155 186
136 157 185
133 154 182
135 155 182
141 161 189
145 166 196
139 158 184
139 158 184
144 163 187
145 166 194
143 163 191
145 165 191
139 157 181
138 159 185
144 162 188
139 157 181
147 165 188
142 162 189
143 163 191
148 169 196
141 160 185
144 162 184
138 160 188
139 160 187
139 158 184
141 159 183
140 161 191
146 165 188
139 157 180
142 161 187
143 165 194
146 167 195
146 165 189
141 160 185
143 162 186
138 158 184
147 165 187
144 163 188
143 164 191
148 167 191
145 162 183
143 159 178
145 165 191
144 163 188
149 167 189
139 156 176
144 164 190
147 166 190
145 162 183
148 167 191
144 162 185
147 165 186
145 162 183
146 164 187
143 159 179
147 166 191
151 170 194
143 160 181
144 162 184
143 162 186
146 163 184
141 160 184
147 164 184
146 162 180
149 168 192
142 161 183
145 163 186
148 166 190
139 157 179
149 166 188
146 162 181
147 165 188
140 156 175
147 163 183
148 165 185
136 153 175
145 163 186
143 161 185
141 158 178
149 167 188
145 163 186
150 165 185
145 161 180
147 166 190
143 159 179
149 165 183
145 164 188
152 166 181
151 168 191
147 163 183
148 165 184
142 159 181
150 167 189
149 164 183
142 160 184
150 169 192
148 163 178
149 164 180
152 168 187
148 165 185
149 165 184
144 159 177
147 162 177
145 160 178
146 162 180
147 166 191
144 161 182
149 170 195
143 157 171
147 163 180
147 168 196
150 170 199
143 165 194
146 168 198
148 169 197
146 167 194
147 169 198
143 166 196
147 168 197
150 171 200
146 167 197
143 165 195
145 167 197
142 163 191
147 168 197
145 166 196
147 168 197
140 161 191
142 164 194
146 169 199
146 167 195
145 166 195
144 165 194
151 172 199
147 169 199
149 171 199
148 169 197
147 169 197
140 161 190
148 170 198
147 169 199
146 167 196
147 168 197
145 167 197
152 173 200
144 167 197
151 172 200
146 167 197
143 164 191
145 167 197
144 166 197
148 170 199
143 166 196
147 169 198
147 169 200
150 172 200
138 159 190
147 169 199
144 167 198
140 162 193
138 159 190
142 163 191
142 164 196
145 166 196
140 163 194
142 165 196
145 166 195
148 170 199
142 164 195
139 161 192
144 165 196
145 165 193
144 165 194
140 161 190
142 164 194
138 160 191
144 164 193
144 167 198
146 167 196
141 162 192
144 165 195
147 167 195
141 164 195
139 161 193
150 171 199
139 161 192
140 160 190
143 164 194
140 162 193
146 167 196
142 164 195
135 157 190
148 169 196
143 164 193
139 161 192
149 170 200
133 155 187
135 157 189
143 163 192
146 168 198
139 161 192
144 166 196
137 159 190
143 165 195
144 166 197
144 166 197
138 160 192
146 168 198
140 162 193
139 161 192
143 165 196
134 156 189
145 167 198
148 169 198
137 159 190
134 156 189
137 160 193
132 155 189
142 162 191
142 162 190
146 168 198
144 163 190
143 166 197
145 166 196
139 161 190
145 167 199
141 162 191
142 163 192
139 160 192
140 161 192
144 166 196
138 157 186
136 158 190
142 164 195
136 158 190
139 161 193
137 160 192
142 163 193
144 165 195
141 163 194
139 161 192
143 164 192
138 160 192
138 160 192
143 165 195
136 158 189
138 161 194
135 155 185
138 160 191
140 161 191
133 155 187
137 159 190
143 165 194
136 158 188
142 163 193
132 154 187
135 158 191
142 164 196
141 162 193
142 162 188
140 162 193
134 156 188
139 162 195
134 156 188
139 162 196
136 158 191
136 158 191
138 159 191
140 163 195
136 158 188
134 156 186
141 163 194
134 156 187
137 156 183
141 162 191
136 158 189
140 159 187
143 164 192
138 159 188
136 156 187
134 154 181
142 163 192
133 153 183
138 160 191
127 149 182
140 161 192
141 160 186
141 161 190
128 149 181
138 158 187
135 154 179
143 165 196
135 155 183
136 158 189
141 164 196
142 165 196
132 154 185
135 156 182
147 168 195
139 162 193
144 166 194
142 164 193
136 156 184
148 168 195
143 162 190
145 165 192
140 161 191
140 159 184
146 166 191
140 160 188
139 161 191
143 164 190
140 160 188
146 166 193
140 161 189
137 157 184
144 162 186
140 161 188
144 164 192
140 158 183
139 161 191
141 162 191
143 164 192
138 158 186
141 162 189
145 164 191
135 155 183
143 163 192
138 158 184
147 167 195
142 162 188
146 164 188
138 159 187
138 158 184
137 158 187
144 161 184
141 159 183
142 160 181
142 162 187
146 166 192
135 156 184
144 166 195
138 156 181
137 157 183
140 158 182
139 158 182
144 162 187
144 163 188
141 160 186
143 160 181
145 163 186
146 164 188
135 153 177
148 165 186
142 160 184
145 164 190
138 157 182
141 161 188
147 163 182
138 157 180
140 157 179
137 159 187
141 158 180
146 165 190
147 165 189
141 160 185
138 156 177
144 164 191
145 165 189
142 161 184
143 162 187
145 163 185
151 168 190
133 153 180
145 165 191
142 160 185
149 167 190
140 159 182
136 155 181
144 161 180
145 163 187
150 167 187
150 170 195
147 163 182
149 169 194
146 165 189
144 160 180
147 163 182
149 166 186
143 159 178
149 167 188
141 158 180
143 163 187
147 165 188
143 161 184
149 165 186
145 162 184
147 165 188
146 165 189
150 167 189
144 160 177
149 166 185
147 162 177
148 163 180
148 164 180
151 168 188
148 163 181
144 160 179
149 165 184
147 163 181
148 165 185
151 167 186
146 162 180
151 168 189
143 157 172
143 159 178
150 163 175
152 170 191
148 167 190
151 168 190
146 162 180
152 170 192
144 159 176
146 162 181
149 163 178
151 166 184
147 165 186
145 162 183
149 164 180
142 159 178
152 172 199
151 172 200
143 165 195
151 172 200
152 174 203
148 169 197
154 175 203
146 167 196
147 168 197
149 171 199
148 170 200
151 172 200
145 165 194
150 172 200
145 166 195
149 169 197
149 170 198
144 166 196
144 166 198
148 169 198
145 166 196
146 168 198
149 170 198
146 168 197
145 165 193
145 166 195
146 166 193
149 169 196
142 163 193
151 172 201
147 168 198
152 173 201
147 168 197
144 167 198
145 166 195
148 169 197
138 160 191
146 167 197
145 166 195
139 161 191
149 170 199
147 168 197
145 166 195
141 163 195
137 160 192
147 169 198
147 168 196
138 159 190
142 164 195
146 167 196
142 164 194
148 169 198
148 169 197
144 165 195
143 166 196
141 163 194
142 163 192
146 168 198
146 167 196
147 169 198
145 165 193
145 167 196
140 162 192
150 171 199
148 169 198
132 153 183
142 162 191
142 164 196
143 165 196
138 159 189
140 163 195
147 169 200
143 164 194
146 166 193
146 167 197
142 164 196
150 172 201
140 161 191
140 163 194
142 165 196
142 165 196
151 172 199
146 168 198
148 170 200
140 162 194
138 159 190
145 167 197
143 164 194
139 161 191
147 169 199
144 166 196
143 165 195
138 161 193
145 166 197
136 158 191
141 163 194
128 151 185
137 159 190
145 168 201
140 162 194
146 168 198
139 161 193
144 165 195
144 165 193
139 161 193
137 160 193
145 166 197
139 160 190
141 163 193
138 160 191
137 159 190
135 158 192
146 168 198
143 165 195
138 160 193
140 163 194
137 160 193
140 161 191
141 162 192
136 157 187
134 154 184
137 159 191
143 165 195
137 158 188
134 157 190
137 158 190
139 162 195
139 160 190
141 162 193
140 161 192
145 167 196
143 165 196
140 161 189
140 162 195
131 153 187
137 159 192
133 154 184
138 160 191
141 162 191
138 158 186
140 162 193
131 151 182
139 160 190
134 156 188
136 158 191
137 157 186
134 156 186
139 160 192
138 160 192
129 151 186
147 165 191
140 160 188
134 154 185
144 165 195
144 165 195
140 161 193
141 162 193
134 156 188
143 164 195
133 153 183
133 155 187
141 163 192
141 162 192
140 161 191
137 159 190
142 166 199
140 159 186
138 158 185
140 162 192
139 158 185
135 157 189
138 159 188
142 163 192
143 164 194
138 159 188
135 153 178
145 166 194
137 157 187
141 163 194
142 162 191
143 165 195
139 160 188
135 157 189
137 157 185
134 157 191
145 166 194
130 153 187
140 159 187
141 161 187
135 153 179
138 159 188
144 164 192
139 157 182
139 161 191
138 159 189
134 156 188
143 164 191
138 160 189
142 163 191
138 160 189
143 164 192
140 160 188
147 168 195
138 159 189
146 165 190
134 154 182
142 163 193
134 154 182
139 159 185
141 163 193
133 155 187
140 161 189
145 164 187
144 164 192
145 163 188
141 162 191
144 160 181
142 162 189
136 156 182
134 156 186
139 158 184
144 163 187
145 164 188
136 157 184
141 162 193
137 157 185
143 163 189
143 162 186
149 169 194
148 167 191
144 163 189
136 155 181
139 158 183
137 156 181
138 158 185
135 155 183
148 168 194
144 164 192
139 157 179
139 157 180
142 160 185
148 167 191
147 164 185
142 162 190
141 160 186
145 166 194
140 157 181
145 164 191
148 165 188
144 163 187
140 160 188
140 158 181
141 161 186
146 166 194
142 162 188
139 159 187
140 159 183
149 168 192
150 167 189
149 168 192
149 169 195
140 157 179
142 161 185
142 163 189
151 169 193
148 166 188
144 163 187
141 160 184
145 162 184
148 166 188
143 160 181
146 163 184
152 172 196
147 164 187
143 159 178
151 167 185
147 164 187
150 168 191
148 165 187
142 162 187
144 161 184
143 158 175
143 157 173
147 165 188
143 160 179
146 161 180
145 160 179
143 158 175
149 165 184
147 165 187
146 166 193
146 162 181
148 164 182
149 166 188
147 164 184
149 167 188
147 165 188
141 159 181
147 162 181
145 159 176
145 163 185
147 164 186
153 170 191
152 169 190
143 160 183
150 169 193
146 164 186
147 165 186
147 162 180
147 165 188
149 166 187
150 164 179
151 168 187
152 166 183
150 168 189
149 166 186
149 162 177
144 160 179
147 165 185
145 162 181
146 168 196
146 167 197
149 170 198
153 174 202
147 167 196
145 168 198
144 165 194
147 168 197
148 170 200
141 162 189
151 171 198
150 172 200
151 172 200
151 171 199
145 166 196
145 167 197
144 165 196
148 169 199
148 169 198
147 169 198
148 169 198
147 168 197
143 164 195
149 171 199
141 163 194
150 170 199
146 168 197
149 170 198
144 165 194
146 168 197
147 168 195
146 167 197
148 170 200
150 171 200
147 169 198
144 165 195
142 164 194
145 167 198
146 167 196
145 166 196
142 164 195
144 166 196
140 162 193
143 165 194
142 163 192
147 168 198
148 170 199
145 165 193
146 167 195
145 166 196
146 167 197
139 161 192
145 168 199
148 170 201
143 164 194
146 169 199
141 161 191
145 167 197
141 164 195
138 159 189
141 164 196
139 161 194
142 164 194
143 165 196
146 167 197
148 169 198
147 169 199
147 169 200
150 171 198
142 163 193
145 166 195
140 162 194
143 164 195
150 171 201
143 165 197
145 167 197
136 159 190
142 163 193
146 168 198
139 161 194
140 161 191
143 165 194
137 159 191
140 163 194
141 164 197
148 168 195
143 166 196
141 164 196
139 161 194
140 162 194
148 169 198
135 157 190
139 162 194
142 164 195
143 163 192
139 161 192
142 164 194
141 163 194
140 161 190
135 157 188
147 168 197
139 161 192
149 171 201
141 162 193
139 161 192
145 167 198
139 161 193
144 166 197
144 165 195
139 160 191
141 164 196
139 159 187
147 168 197
140 161 190
135 157 189
145 168 199
143 165 196
140 162 193
141 164 195
145 166 196
139 161 190
142 163 194
147 169 199
138 158 187
141 163 194
138 159 189
143 164 195
139 159 188
138 160 192
139 159 189
142 163 194
142 163 192
133 154 185
138 160 191
136 159 192
146 168 197
127 151 187
135 157 188
140 162 193
133 155 185
135 157 190
147 167 195
138 160 192
142 164 197
140 160 189
144 165 194
136 158 189
136 158 190
133 154 185
132 152 181
140 161 189
139 162 194
146 166 193
144 166 196
138 159 190
136 157 186
144 166 196
135 157 189
136 158 189
141 162 193
140 161 190
143 165 195
141 164 197
136 159 193
135 158 192
137 158 187
131 152 182
140 162 192
145 168 199
138 159 190
142 162 191
136 157 189
142 163 191
143 164 193
128 152 185
141 162 191
136 156 185
141 162 193
141 162 191
136 158 190
140 162 193
141 163 193
143 163 190
142 163 190
131 152 182
135 157 188
139 160 190
138 160 192
140 160 187
140 161 189
133 153 179
144 165 196
144 165 194
146 166 192
137 155 182
142 163 191
143 165 195
145 165 191
139 160 190
144 163 190
137 156 182
143 164 192
146 167 193
136 157 186
143 163 192
146 168 196
138 159 190
141 161 187
141 160 185
139 160 188
146 166 195
146 167 195
143 161 186
140 159 185
146 167 196
140 161 189
137 157 184
149 169 194
143 163 189
150 169 194
146 167 196
146 165 190
147 166 192
140 161 188
141 161 190
141 162 190
145 165 192
146 167 194
139 159 187
142 162 188
146 166 191
140 160 185
144 163 190
143 162 186
144 161 183
144 163 189
137 158 185
142 160 182
144 164 191
145 165 192
141 161 188
148 168 194
145 164 188
142 162 186
143 162 186
145 163 184
148 169 198
141 161 187
147 165 187
146 162 184
144 164 191
144 163 187
148 167 189
148 168 193
137 155 179
141 158 179
141 160 185
143 159 179
143 158 175
148 167 191
152 168 189
142 158 179
148 167 190
142 161 187
146 165 189
152 171 196
145 162 182
148 167 192
146 164 187
147 166 188
149 168 194
150 168 189
145 165 190
147 166 189
140 157 181
150 169 191
144 159 178
145 162 183
142 158 177
149 166 188
148 168 193
143 162 189
148 165 185
148 164 185
149 166 186
148 164 184
149 168 191
137 156 180
153 173 199
149 167 189
144 161 182
145 163 184
149 163 179
147 163 182
141 157 176
147 164 186
143 159 179
145 160 179
142 157 172
146 165 188
146 160 178
147 163 180
149 167 190
150 167 188
145 162 183
151 167 187
142 160 182
146 163 181
143 157 171
152 167 184
148 165 183
145 161 181
141 157 174
153 169 188
149 164 181
149 167 189
142 156 172
149 167 188
149 164 181
145 159 174
145 166 194
151 171 199
150 171 200
145 167 196
145 166 193
146 168 197
153 174 201
143 165 195
145 167 196
140 161 189
145 166 195
145 167 196
150 172 201
142 164 194
144 166 196
146 168 197
145 166 195
142 164 193
140 162 191
151 172 200
149 171 200
144 165 194
144 165 193
144 165 193
141 163 193
148 170 199
146 167 196
138 160 192
146 167 197
147 168 197
147 169 199
151 172 199
144 165 194
143 165 194
145 167 197
143 164 193
144 165 195
146 167 197
151 172 200
144 166 196
147 169 198
150 170 198
148 170 199
144 166 196
136 158 190
141 162 191
146 167 196
143 165 195
142 164 195
145 167 196
146 167 197
147 169 199
140 162 192
147 168 197
147 168 199
146 168 198
142 163 195
142 164 195
150 170 198
145 167 197
141 163 193
135 158 191
143 164 195
149 170 199
146 169 200
145 167 198
144 166 197
141 163 194
139 161 192
142 165 198
137 159 191
145 167 197
146 168 198
146 168 199
147 168 198
146 167 195
148 169 197
139 162 193
145 167 198
145 165 194
146 167 195
146 167 196
134 157 192
140 162 194
146 168 199
140 161 190
144 165 193
146 166 195
148 171 202
143 164 193
144 166 195
148 168 196
147 169 199
142 164 195
139 160 192
147 168 196
141 163 193
144 166 197
147 170 200
139 161 194
149 170 199
143 165 195
142 163 194
134 158 192
144 165 195
138 161 194
142 164 196
141 163 194
140 162 192
137 159 192
139 161 193
140 163 196
146 167 196
144 165 194
140 162 194
142 164 194
136 159 193
134 156 188
140 162 193
139 160 192
136 158 191
142 163 193
142 163 192
144 166 196
143 165 196
144 166 196
141 162 191
139 161 191
129 151 184
140 160 189
141 162 192
150 171 198
145 166 196
132 155 189
138 159 191
143 165 195
135 158 192
149 170 199
132 153 185
136 156 186
137 159 191
133 156 190
136 157 187
142 162 192
143 165 197
139 160 190
132 155 190
138 160 191
137 157 186
135 156 187
145 166 196
134 157 190
134 156 188
141 162 192
137 160 192
128 149 182
138 159 187
140 161 191
137 159 190
138 161 194
138 159 190
140 161 190
138 160 191
146 165 192
143 164 192
139 160 190
135 155 185
136 158 189
140 160 189
143 164 193
139 161 192
149 168 193
136 159 191
136 155 180
137 158 189
144 164 190
131 153 185
130 152 186
143 163 192
141 161 191
139 159 187
144 165 196
140 161 188
141 162 190
147 168 196
139 161 190
144 164 190
134 156 189
144 165 193
137 156 186
141 162 191
141 162 191
143 164 194
144 165 194
137 159 190
138 158 185
138 159 189
137 157 186
137 156 182
139 159 186
134 156 189
149 167 190
143 164 193
140 161 191
145 166 194
140 160 186
146 166 192
140 160 187
138 159 187
139 161 191
140 157 180
141 162 192
141 162 190
141 161 188
144 167 197
143 163 189
146 166 192
139 159 186
133 155 186
146 166 194
142 162 187
141 162 191
139 159 184
147 165 191
140 159 183
145 164 189
146 167 194
143 162 187
142 162 190
143 164 193
139 159 185
142 159 181
148 167 194
148 169 197
148 170 198
147 166 189
137 154 177
141 163 195
144 161 182
147 166 191
143 162 187
142 162 188
143 162 188
142 162 187
148 165 185
142 162 188
132 152 179
150 172 201
135 156 186
142 161 182
146 165 190
147 164 186
141 158 179
147 165 188
146 165 190
146 165 189
144 163 188
147 167 194
145 166 191
145 165 191
147 167 192
147 164 185
139 158 182
145 165 191
149 167 190
142 157 175
151 168 189
145 163 185
140 157 178
150 167 186
145 164 187
145 164 188
146 163 186
149 167 190
147 164 185
145 162 184
143 162 184
149 164 182
139 154 173
153 173 200
145 161 180
145 161 179
146 164 189
146 166 191
147 162 179
146 162 181
147 164 184
145 164 188
145 161 179
149 168 193
143 160 180
150 169 193
146 164 187
146 163 186
149 168 192
146 164 187
148 165 187
146 161 180
146 163 186
145 162 184
143 159 177
148 166 188
150 165 182
143 161 185
146 161 179
151 168 188
148 164 182
148 165 184
147 163 183
150 169 192
153 171 192
148 166 189
146 162 182
147 166 190
148 166 188
149 166 185
145 161 180
153 171 195
148 166 188
152 167 186
148 170 199
147 167 194
150 171 199
146 168 198
148 168 196
149 170 198
146 168 197
148 168 197
149 171 200
148 170 199
143 164 195
143 164 193
146 167 194
146 168 198
143 164 193
145 166 196
149 170 198
149 171 201
148 169 197
149 170 196
148 169 198
151 173 201
145 167 197
143 165 195
142 163 193
139 162 192
140 162 194
145 167 197
151 173 201
145 167 196
146 168 196
146 169 198
146 168 197
140 163 194
143 165 194
148 170 200
147 168 197
146 168 198
146 168 198
145 166 195
139 161 192
147 168 198
150 170 199
143 165 195
146 167 198
145 167 197
152 173 201
143 166 198
147 168 197
140 161 192
141 163 194
150 172 201
145 166 196
148 169 198
136 159 191
146 167 195
137 159 190
144 165 195
141 164 195
147 168 196
145 166 196
143 165 195
147 168 196
146 169 201
149 170 197
144 166 196
143 165 195
149 170 198
145 167 197
144 165 194
148 170 200
145 167 196
141 162 192
144 166 196
142 165 197
150 171 200
148 169 199
139 162 193
142 164 196
137 159 191
139 160 192
143 166 197
142 163 192
139 162 196
144 166 197
146 168 197
138 161 193
146 167 196
145 166 194
147 168 198
134 156 187
143 164 194
144 165 193
143 164 193
145 168 198
143 164 192
142 163 194
146 167 196
137 160 192
139 161 192
139 161 191
147 169 198
141 163 192
144 165 193
137 159 190
130 154 189
145 166 195
139 162 194
138 159 188
144 165 194
135 156 187
141 163 195
147 168 198
137 159 190
140 163 194
141 162 190
135 156 187
142 164 195
138 158 186
134 156 189
135 156 186
139 161 191
143 166 197
143 164 193
147 168 197
145 167 197
143 165 194
145 167 198
144 166 196
141 163 193
140 161 190
140 162 194
139 159 187
140 161 191
140 162 193
147 169 198
143 164 194
131 153 186
135 159 192
147 168 195
135 157 188
129 151 183
140 161 193
141 163 194
129 151 183
138 160 191
134 155 186
146 166 196
144 166 197
140 161 192
139 161 193
143 161 187
134 155 186
139 160 190
136 156 185
134 156 186
135 156 189
139 160 191
141 160 187
136 157 188
137 157 185
142 163 193
143 164 193
139 161 191
149 167 193
140 162 193
145 166 196
140 161 190
142 159 183
139 160 191
144 165 194
134 154 181
139 160 190
140 160 186
135 155 182
138 160 190
137 156 182
130 151 181
137 158 186
135 155 182
141 162 190
134 156 185
139 160 190
145 167 197
135 156 188
136 155 183
137 157 185
136 157 187
139 160 189
149 169 196
146 167 195
145 166 193
136 157 187
134 155 183
140 160 188
142 159 181
133 153 183
145 164 192
134 153 180
146 168 198
135 156 187
139 159 184
142 164 195
144 164 191
136 155 182
143 164 192
141 161 190
139 159 185
147 167 195
128 147 177
143 164 192
140 159 185
142 163 192
132 154 187
143 163 191
146 165 189
145 164 188
140 160 187
140 160 189
147 166 192
144 165 196
137 155 180
149 168 195
141 162 192
143 160 181
139 159 186
145 166 194
138 156 180
131 151 179
151 168 190
142 160 182
144 165 193
147 168 197
143 162 188
138 156 178
147 166 191
145 163 183
151 171 196
144 164 190
146 165 188
149 167 190
142 160 182
136 155 180
140 159 184
137 154 176
145 162 183
141 161 187
147 165 189
143 161 183
145 165 190
140 157 177
145 165 191
149 169 194
145 162 184
144 165 192
145 164 190
143 162 187
140 157 180
146 162 183
142 161 186
143 160 180
147 165 187
148 169 198
148 167 193
146 164 186
148 168 193
147 167 193
146 165 190
144 162 186
153 172 195
152 171 195
143 161 184
146 166 188
143 161 184
143 163 186
150 166 187
143 161 185
152 170 193
149 168 191
149 168 193
147 165 187
141 159 182
145 162 182
141 158 181
151 168 191
150 167 188
148 166 188
150 168 190
149 165 183
143 162 185
149 167 189
142 161 183
148 167 190
145 162 183
152 169 190
149 166 188
150 167 189
149 166 187
145 163 187
146 162 183
141 158 178
143 160 182
148 165 183
148 165 185
141 157 175
151 167 185
147 164 185
150 168 190
151 169 190
148 167 190
153 169 188
147 165 184
154 173 198
141 159 181
148 167 194
146 161 179
151 167 186
144 159 176
146 164 186
148 166 189
150 170 197
144 167 197
152 174 202
142 164 194
146 166 194
145 167 196
147 167 194
143 165 195
146 168 198
152 173 201
146 168 197
151 172 200
146 167 196
150 170 199
146 168 197
142 163 193
142 163 191
151 172 201
148 170 199
143 164 194
147 169 198
147 168 197
150 171 201
147 168 198
151 172 201
144 165 193
147 167 195
146 167 197
149 171 199
148 170 200
150 171 200
145 167 197
146 167 195
150 171 200
147 168 197
149 170 199
145 166 197
151 172 201
146 167 195
144 165 194
143 165 195
145 166 196
150 171 199
148 169 198
143 164 194
146 167 196
148 169 198
145 166 194
150 171 201
144 165 196
142 163 192
150 170 198
144 166 196
145 167 196
147 168 197
140 163 194
146 168 199
147 168 197
142 163 192
141 163 194
149 170 199
141 163 195
141 163 194
147 169 200
145 167 198
150 170 198
141 163 193
149 171 201
150 171 200
140 162 193
144 166 197
146 168 198
144 165 195
144 167 198
141 162 193
141 162 192
145 167 198
139 161 191
133 153 183
142 164 194
145 166 195
145 165 195
142 164 194
143 165 195
147 168 198
146 168 199
142 164 196
139 161 192
150 170 198
136 160 194
144 166 197
144 164 193
142 163 194
144 166 195
135 159 193
143 163 190
142 163 192
144 166 195
142 165 197
137 160 194
138 160 193
137 159 191
141 163 193
145 166 195
137 159 191
144 165 194
141 163 195
145 166 196
142 164 195
143 163 193
143 165 194
144 165 194
137 160 194
140 161 189
140 161 191
142 164 194
136 158 190
147 168 198
143 164 194
141 163 195
137 159 191
146 168 197
145 165 193
133 156 188
139 160 189
140 161 190
143 165 195
139 160 192
146 167 195
141 163 195
138 159 190
136 157 188
148 169 198
138 158 188
140 160 188
140 162 193
146 166 194
141 162 193
145 167 198
143 165 195
141 163 194
138 159 189
143 164 192
142 163 192
141 163 193
143 164 193
137 158 186
145 167 196
143 165 196
134 156 189
137 159 191
136 156 185
143 166 198
141 162 191
133 155 187
144 164 192
139 161 194
139 160 191
135 158 191
138 159 188
139 160 190
145 165 195
140 161 192
143 164 193
137 157 186
141 161 190
140 160 187
135 157 187
130 152 187
136 158 191
141 161 188
141 161 190
143 163 192
140 160 189
142 162 189
138 158 186
132 154 187
143 163 190
143 163 192
145 165 194
137 159 189
136 156 185
141 162 190
142 163 193
136 157 187
133 155 184
142 164 196
143 164 192
140 160 187
141 162 191
140 161 191
137 157 186
138 161 193
143 162 187
141 162 192
137 157 185
138 158 185
140 161 190
142 163 192
140 161 193
130 150 180
145 167 196
141 161 190
143 164 193
143 164 193
145 165 193
138 160 190
145 166 195
138 159 186
139 159 185
142 162 189
145 165 191
146 166 192
145 168 199
140 161 190
138 159 187
137 159 191
141 159 183
135 157 185
141 163 192
140 160 187
140 158 182
144 162 183
144 164 190
141 160 185
144 163 190
146 166 192
141 163 191
142 161 187
148 168 194
139 158 184
149 167 190
143 164 192
139 157 179
145 164 188
142 163 190
141 161 187
145 165 191
149 169 193
144 163 187
144 164 189
143 163 189
149 169 196
145 163 185
145 163 188
140 159 185
146 166 193
143 163 187
141 161 187
147 167 193
143 163 189
146 165 189
140 160 185
151 168 188
146 165 190
141 161 189
149 168 192
146 163 184
143 161 185
151 169 190
148 168 191
147 167 194
152 173 200
148 166 189
142 159 182
147 166 191
144 163 187
146 164 186
150 166 185
145 165 191
146 165 188
147 161 178
147 167 194
139 158 183
144 161 183
145 162 185
148 165 188
151 167 185
142 159 179
148 166 189
145 163 186
145 161 181
146 166 191
146 164 185
140 159 183
144 162 183
147 164 185
144 161 182
148 167 190
152 169 188
146 164 186
147 163 182
147 164 184
152 169 190
148 167 190
148 168 193
144 163 189
147 162 178
148 164 182
151 167 187
147 164 183
149 166 187
141 160 183
140 156 175
148 165 184
146 164 187
147 165 187
141 159 180
149 164 183
145 162 182
149 164 181
150 167 186
147 166 192
147 164 187
151 170 192
148 165 186
151 170 194
150 166 184
143 161 182
150 169 192
139 161 192
150 171 199
149 171 200
150 172 200
148 169 197
150 171 199
146 169 200
151 173 200
150 171 200
148 169 197
145 167 196
145 166 194
148 169 198
152 172 200
144 166 196
151 173 201
142 164 194
143 165 194
147 168 198
147 168 197
150 172 202
149 171 201
148 169 197
145 167 197
145 166 195
145 168 198
145 167 197
153 175 204
148 170 199
145 167 197
144 165 194
150 171 200
149 169 197
145 166 195
143 164 194
148 169 197
149 171 199
150 171 199
142 163 193
148 170 198
148 169 199
141 163 193
150 171 199
142 164 195
144 166 196
142 163 193
137 158 188
152 173 202
149 170 198
148 170 199
145 167 199
142 165 196
143 163 191
140 162 192
135 157 190
142 162 191
146 167 197
143 165 195
144 165 195
140 162 193
141 164 195
139 161 193
143 164 193
145 167 198
146 168 198
147 168 197
145 167 197
145 167 197
141 162 193
139 160 190
145 168 199
145 167 198
147 169 198
146 167 197
149 171 201
143 165 196
145 167 197
142 163 193
147 168 198
141 163 194
146 167 195
142 164 195
145 167 198
142 165 196
143 164 192
152 172 201
138 160 191
142 164 195
145 166 194
142 165 196
147 169 198
147 168 196
146 167 194
137 159 192
142 164 194
145 167 197
136 159 191
140 161 193
141 163 194
142 164 195
138 160 191
136 159 194
143 165 196
144 166 195
147 167 195
142 164 195
146 168 198
131 154 189
140 161 189
139 161 193
143 165 195
138 160 190
139 160 191
144 165 194
144 164 193
148 169 197
144 166 195
141 162 193
140 163 195
134 155 186
147 167 194
126 148 182
142 163 193
153 173 200
138 159 189
139 161 194
140 162 193
148 170 200
141 164 195
136 158 191
141 163 194
139 160 190
139 160 190
137 159 190
142 164 195
142 164 196
139 161 191
140 162 195
137 158 190
148 170 200
126 147 180
142 163 191
145 165 192
134 156 189
133 154 185
146 168 198
139 160 190
138 158 188
142 163 194
139 159 188
142 163 193
147 168 197
130 151 184
141 162 192
145 166 195
136 157 188
137 157 187
142 164 196
136 157 187
136 157 188
142 164 195
132 155 188
129 151 184
140 162 194
138 159 189
143 164 195
137 160 192
142 165 195
134 154 184
140 161 192
130 153 186
144 167 198
137 157 187
141 163 194
145 165 192
147 168 197
145 168 200
139 160 188
142 162 190
139 161 190
140 161 188
137 159 190
139 161 192
142 162 188
135 157 191
140 161 190
145 167 198
145 165 192
145 166 194
146 167 195
146 167 196
138 159 189
143 164 192
143 164 193
146 166 193
138 160 188
135 156 185
140 161 188
140 160 187
144 163 187
140 162 192
140 162 193
140 160 189
144 165 196
141 162 191
135 155 183
138 158 187
144 163 188
144 164 191
136 158 188
140 161 191
143 163 191
139 160 189
144 164 191
144 164 192
147 168 195
152 172 195
138 156 182
143 161 182
140 160 188
138 158 185
142 161 186
149 169 197
149 169 195
138 160 189
146 167 196
136 156 181
144 162 186
146 167 195
139 158 182
143 161 184
145 165 192
150 170 193
142 162 190
150 169 193
144 163 190
129 151 183
135 155 180
143 161 183
143 163 191
142 161 186
142 159 183
143 164 191
137 156 179
137 156 182
144 163 188
143 163 187
145 163 187
148 166 187
145 164 189
147 167 194
148 168 192
139 154 173
147 166 190
143 163 187
136 156 182
144 160 180
147 166 189
145 166 193
149 167 191
139 159 186
147 166 191
147 166 190
141 157 180
150 170 193
149 167 190
145 164 190
143 162 188
147 168 197
146 167 192
149 167 191
146 164 187
146 163 184
145 161 182
142 160 184
149 167 190
146 163 185
142 158 175
155 174 197
147 166 190
147 162 181
151 169 193
139 158 181
143 161 184
143 162 185
151 169 190
143 158 175
145 163 185
147 166 190
151 169 192
145 161 181
150 166 184
145 166 195
143 160 182
143 162 187
144 162 183
145 162 182
148 164 182
140 158 181
142 158 176
146 165 190
150 170 196
147 165 189
147 165 188
148 165 186
147 165 188
143 161 183
150 171 197
152 169 189
146 163 183
146 164 187
153 170 189
144 161 182
150 169 193
149 167 190
150 167 187
148 166 188
149 166 188
146 162 181
141 155 170
150 171 199
148 169 198
149 170 198
144 165 195
147 167 195
148 170 200
148 170 199
150 171 201
145 167 196
145 166 195
146 168 197
147 168 198
151 173 202
147 169 198
143 165 196
150 171 200
148 170 200
153 174 202
143 165 195
147 168 198
146 168 198
146 168 198
147 168 197
143 165 198
153 173 202
144 166 197
145 166 196
148 169 197
148 169 198
148 170 199
147 169 199
146 169 199
145 167 197
151 171 198
143 164 195
147 168 197
153 173 200
148 171 201
142 164 194
139 161 193
148 169 198
142 164 194
148 169 198
142 164 194
145 167 198
147 169 199
145 168 199
150 171 199
143 165 195
140 162 193
146 168 198
145 167 196
143 164 193
147 168 198
148 170 199
142 164 195
142 163 192
137 157 187
154 175 202
146 166 193
145 167 196
144 166 196
143 166 198
139 161 191
142 164 196
143 165 196
145 166 195
143 165 195
144 165 193
139 159 188
146 166 194
139 161 192
140 163 196
137 159 192
140 161 192
144 167 198
144 166 197
149 171 202
149 170 200
145 167 199
139 161 192
141 163 195
149 170 198
142 164 196
142 165 196
142 163 192
140 161 192
147 168 199
146 168 197
150 171 199
140 162 192
144 166 197
147 170 200
140 162 192
143 165 194
143 166 198
140 162 193
143 164 194
145 166 196
148 168 195
146 167 197
152 172 199
142 163 193
145 166 196
142 165 196
138 159 189
141 162 192
139 161 193
141 163 194
137 160 193
146 166 193
139 161 194
140 162 193
142 163 194
138 160 190
135 158 190
151 171 197
144 164 193
146 167 197
144 166 198
136 157 188
138 159 190
143 164 194
144 166 194
137 159 190
142 164 195
138 161 193
141 162 192
141 162 192
143 166 198
134 156 189
142 162 191
144 166 197
143 164 192
136 159 189
141 162 192
139 161 193
137 160 193
141 161 190
140 161 189
140 163 194
142 163 193
143 165 196
146 168 198
148 169 198
145 167 197
144 164 191
137 158 189
150 171 200
138 161 195
144 165 195
139 159 188
144 165 194
142 164 195
146 168 198
136 158 188
140 160 187
144 165 193
138 160 191
138 157 184
136 158 190
145 167 198
135 154 182
138 160 191
143 164 192
143 165 197
129 151 183
133 155 189
141 163 193
151 172 202
141 162 192
138 158 187
148 170 198
146 168 198
146 167 194
141 161 188
141 163 196
143 164 193
138 159 189
131 152 182
136 158 189
135 158 191
141 162 192
134 154 183
140 160 187
139 160 191
132 153 183
138 157 181
142 163 193
138 159 187
138 158 185
140 161 189
145 166 192
142 162 189
140 161 188
135 159 193
137 159 191
147 166 191
145 165 193
134 155 185
147 168 197
142 162 189
138 159 190
139 161 191
138 159 190
147 165 188
138 158 185
136 159 193
143 165 196
142 162 188
137 158 187
138 160 191
143 162 188
141 161 190
136 159 190
147 166 190
145 165 193
143 163 189
145 165 191
134 154 183
143 165 196
142 164 193
142 160 183
145 165 190
139 159 187
144 166 194
143 162 188
151 172 199
147 166 191
149 170 197
147 167 195
147 165 189
143 163 190
142 165 196
148 167 191
145 165 192
143 162 188
148 168 193
147 167 192
144 164 190
146 166 192
139 160 189
143 164 193
147 169 198
143 164 190
146 165 188
150 169 193
148 169 194
139 157 181
143 162 188
144 164 189
149 170 198
146 165 189
134 154 182
143 162 187
142 161 187
141 158 181
150 169 193
148 168 194
137 157 184
141 159 182
148 165 187
145 163 185
145 165 189
152 172 196
134 152 175
144 161 184
147 164 184
140 158 181
145 164 189
144 162 186
145 162 181
148 169 197
148 167 192
140 159 183
136 154 177
141 159 180
148 168 194
141 159 181
148 167 189
146 165 189
143 161 185
148 167 189
144 164 191
146 166 193
146 164 186
143 162 186
144 160 181
139 157 179
144 163 187
148 167 189
146 163 182
147 164 185
151 168 189
147 162 178
150 167 189
148 166 188
145 163 186
146 162 182
147 166 190
151 169 189
148 165 184
144 164 189
149 166 186
145 164 187
149 165 186
146 165 190
149 170 197
149 169 192
150 169 191
153 171 193
150 166 185
144 164 188
152 171 194
147 164 183
147 163 181
146 163 182
147 167 193
146 163 183
148 165 184
149 170 198
147 168 197
148 169 199
150 171 199
141 163 195
147 169 199
145 166 197
149 170 198
142 163 192
152 172 201
153 174 202
148 169 199
145 167 196
148 170 200
147 169 197
150 171 199
147 168 196
145 167 196
144 165 194
145 166 196
146 168 196
142 163 194
148 170 198
148 168 195
151 171 198
145 167 198
148 170 199
150 171 200
150 171 199
147 167 196
147 169 198
147 168 197
149 170 199
150 171 199
145 167 198
146 167 194
150 171 200
145 166 196
149 171 201
147 169 197
144 166 197
145 166 195
145 167 197
144 166 197
151 173 201
149 170 198
149 171 200
150 172 201
146 168 197
149 172 201
147 169 198
143 164 194
147 169 198
143 165 195
149 171 201
142 164 195
148 170 200
141 163 194
148 168 196
146 168 197
143 165 195
148 170 199
143 165 196
143 166 198
144 165 196
148 169 199
141 161 190
139 160 190
145 167 198
144 166 196
146 166 195
143 165 196
138 160 191
145 167 198
145 165 193
147 169 200
148 170 199
141 161 191
147 169 199
141 163 194
151 172 200
141 163 195
144 166 196
141 163 194
142 163 195
141 164 196
141 163 196
144 166 196
138 161 194
143 164 195
144 165 193
143 165 197
134 158 192
142 163 193
142 164 194
144 165 196
143 164 193
148 169 198
139 160 189
136 158 188
144 167 197
144 166 197
145 166 195
142 165 197
143 165 195
139 161 191
143 164 194
141 165 198
141 163 194
146 167 196
135 157 188
147 169 199
148 168 194
142 162 191
135 157 190
139 161 192
140 162 193
137 159 191
143 165 195
141 162 193
135 157 189
142 163 194
140 162 194
134 156 188
139 160 190
141 162 191
143 165 195
145 166 196
142 164 195
145 166 197
141 161 190
138 161 193
144 166 194
138 159 188
134 154 185
140 161 189
147 168 196
132 152 182
136 158 192
143 165 196
144 165 193
147 168 198
138 160 191
142 163 191
141 162 193
132 154 185
144 165 194
147 168 198
138 160 192
142 164 193
136 159 191
143 163 193
146 167 195
146 167 197
139 159 188
142 164 195
131 152 184
135 157 189
140 160 190
139 160 189
141 162 191
141 164 196
140 162 192
147 168 196
145 166 194
138 160 190
140 162 192
135 157 189
140 161 190
140 160 188
142 163 192
141 161 189
137 159 189
140 161 190
138 159 189
136 160 193
138 160 191
145 167 196
132 153 183
141 161 188
136 159 190
138 158 187
139 162 194
136 157 187
140 161 191
147 167 194
141 162 191
141 160 186
131 153 184
142 163 190
137 158 188
146 167 193
146 167 194
138 159 190
147 166 192
138 158 186
144 163 188
143 162 190
141 162 192
145 164 190
141 163 192
147 167 194
135 153 177
144 164 189
140 161 190
138 160 191
143 163 190
136 153 176
147 167 193
146 167 197
142 164 193
144 163 189
146 167 196
138 158 185
143 163 189
141 161 188
139 159 187
139 156 178
140 161 190
148 170 199
142 163 192
143 162 189
148 168 196
146 166 191
147 167 195
144 164 191
144 164 191
142 162 189
138 156 180
147 168 195
150 171 198
140 159 186
147 168 197
142 162 189
144 163 188
140 161 190
144 165 193
141 162 190
145 165 190
144 164 190
147 166 191
144 162 186
146 165 190
139 160 188
145 165 191
144 163 187
134 155 182
138 159 188
141 160 184
146 166 192
144 162 186
140 161 189
142 161 185
143 161 184
149 169 194
143 161 186
140 157 180
148 167 191
146 166 192
146 163 186
144 162 186
129 147 171
148 167 192
141 159 182
146 166 191
141 159 183
143 162 186
150 168 189
147 165 187
149 167 191
145 165 192
143 159 180
144 164 192
148 168 193
151 167 187
147 166 190
148 166 188
147 165 188
148 166 187
146 165 188
142 158 178
144 161 182
141 161 188
144 163 188
149 165 184
148 164 184
144 162 185
148 168 193
137 157 182
146 164 185
145 163 186
146 165 190
142 160 181
145 163 187
150 167 189
147 166 190
149 167 188
148 167 190
146 160 176
150 169 194
149 167 190
149 167 191
150 168 191
142 161 186
148 163 179
148 166 189
150 168 192
152 171 195
150 167 188
148 167 189
152 169 190
147 167 191
147 167 194
143 161 184
154 172 195
151 168 188
149 167 191
153 169 189
148 165 186
152 169 189
148 170 198
150 171 199
147 169 199
146 168 198
143 165 195
151 171 198
142 164 194
148 168 195
150 172 201
150 172 201
147 169 197
152 172 199
147 168 197
146 167 196
145 166 195
151 172 201
147 169 198
146 168 199
151 172 200
147 169 197
148 169 199
148 168 195
146 168 198
145 165 193
144 165 195
143 165 194
146 168 197
152 174 203
144 165 194
135 157 188
146 168 197
151 172 200
141 163 193
144 166 196
147 168 197
139 160 192
145 168 199
154 175 202
146 168 197
147 167 196
146 167 196
151 172 201
142 164 194
148 169 198
150 172 201
146 168 200
145 167 198
142 163 193
149 169 198
147 169 198
145 166 195
142 164 195
145 166 196
151 172 202
147 168 196
146 168 198
144 165 194
148 169 197
138 160 193
144 167 199
149 170 200
147 168 198
150 171 199
145 166 196
152 174 204
149 169 197
144 166 195
141 163 194
137 160 193
149 170 198
146 168 197
146 167 196
144 166 196
150 171 201
140 161 191
147 167 194
149 171 202
146 167 198
144 166 196
144 166 196
149 170 199
148 170 199
136 160 194
140 164 197
139 162 195
138 161 194
135 156 187
147 168 198
133 154 187
138 159 191
140 162 191
145 165 193
138 161 194
144 166 198
142 164 196
146 167 196
149 170 198
145 166 196
137 159 190
142 163 195
147 169 199
136 159 193
139 161 192
143 165 197
141 163 193
144 165 196
147 170 201
143 164 195
141 162 192
145 167 198
149 170 198
143 164 195
142 163 192
140 163 196
141 161 189
145 167 197
141 164 196
143 164 194
145 167 196
138 160 194
137 159 191
139 161 192
142 163 194
141 162 192
149 170 198
141 164 196
147 169 198
147 168 197
136 157 189
141 163 195
143 165 195
139 160 189
141 163 193
141 163 194
134 155 186
140 162 192
137 158 188
141 163 196
144 165 195
143 165 196
147 168 196
146 167 197
147 168 198
142 163 193
139 161 194
140 161 190
143 164 194
136 157 188
135 155 184
145 165 192
143 166 199
142 163 191
133 155 189
136 157 188
143 163 192
138 159 188
138 160 191
138 160 192
142 164 192
143 163 192
136 155 183
134 156 189
146 167 198
134 156 188
141 162 192
137 158 189
135 157 188
143 164 195
141 163 193
140 162 193
147 167 195
137 157 186
153 173 202
139 161 193
137 157 183
141 163 192
141 162 193
141 160 187
142 163 193
138 158 187
143 164 192
145 165 191
145 166 196
143 163 189
149 169 197
143 166 196
140 160 189
143 165 196
145 165 192
142 162 189
143 164 192
134 157 190
145 166 196
143 163 191
137 159 190
145 166 194
143 164 190
145 165 192
145 167 197
146 167 196
139 159 187
142 164 194
142 161 187
141 163 194
141 162 191
139 161 191
145 164 189
143 165 195
139 160 191
144 164 190
148 169 198
146 166 193
145 165 194
140 162 191
134 154 182
138 156 181
139 159 187
136 158 188
142 163 191
148 169 196
144 166 193
138 157 181
144 165 194
146 166 193
145 166 192
143 162 186
148 169 197
144 163 187
146 165 190
141 161 186
146 167 194
136 155 181
141 162 193
141 162 190
149 168 190
143 164 192
146 165 190
148 167 192
144 165 193
147 167 194
152 172 197
136 155 178
146 168 196
141 160 184
138 156 181
141 160 183
140 159 184
145 166 193
146 166 193
144 163 186
143 160 182
147 166 193
146 164 189
142 161 187
145 162 185
147 164 185
146 166 193
146 163 183
141 161 189
150 168 191
144 164 190
138 156 181
139 156 177
143 159 180
149 169 194
144 163 188
149 167 191
148 167 193
145 164 191
145 163 185
140 158 182
148 168 193
137 155 179
145 164 187
145 163 188
147 166 191
143 160 181
144 164 191
149 169 195
145 165 191
141 157 176
150 166 186
148 165 185
146 165 189
146 164 187
140 159 182
149 167 190
149 166 189
146 162 181
144 163 188
148 164 184
146 161 178
153 173 197
150 167 186
138 155 176
142 160 182
149 168 191
142 159 182
148 165 187
147 165 188
146 161 179
143 159 177
145 165 190
147 162 179
143 164 192
147 166 190
144 159 177
147 164 185
149 165 184
148 164 186
143 160 183
151 169 191
147 165 188
149 166 186
148 164 183
154 170 189
148 165 185
149 168 194
150 167 185
152 171 195
143 165 196
152 173 202
150 173 202
151 173 202
148 170 200
149 170 199
150 171 200
148 169 198
146 169 199
147 169 198
147 168 197
146 167 197
143 164 193
146 168 197
148 170 199
145 167 197
146 168 197
146 167 197
148 170 199
146 168 199
148 170 200
144 168 201
146 167 197
150 171 199
146 168 198
141 163 194
146 167 195
144 165 194
147 169 200
149 170 199
147 169 198
147 169 199
146 168 197
143 165 196
149 170 200
143 165 194
148 169 198
146 166 194
150 171 200
142 163 193
147 169 199
150 172 203
140 162 193
143 166 196
149 171 201
144 166 196
148 170 200
145 166 196
144 166 198
145 166 194
146 167 196
144 165 194
149 170 199
150 171 200
149 170 200
142 164 194
146 169 199
141 163 193
140 160 188
146 168 198
139 160 191
138 160 191
143 165 194
148 169 199
142 163 192
147 169 199
152 173 201
145 168 199
140 162 193
142 165 197
141 163 195
148 170 199
150 172 202
140 162 193
143 165 195
145 168 198
144 166 196
150 172 201
140 161 192
152 173 201
145 168 200
138 159 190
143 165 196
144 166 197
140 162 193
142 164 194
146 167 196
145 165 193
150 170 198
145 165 193
139 160 192
142 165 196
144 165 194
142 164 196
136 158 190
140 162 194
141 163 195
138 160 191
143 164 195
144 164 192
148 169 198
148 169 199
137 159 193
145 167 197
147 169 199
146 167 197
138 159 189
137 158 189
146 168 198
145 167 198
139 160 191
136 158 191
138 160 192
148 169 198
137 159 192
145 166 195
145 167 198
141 162 193
140 163 196
146 168 197
146 167 198
145 166 195
140 162 193
144 165 195
144 166 196
142 164 195
136 158 191
137 158 189
143 165 196
149 170 199
148 170 200
141 162 190
138 160 192
139 161 192
141 163 192
139 161 192
133 154 187
146 169 199
138 161 192
142 163 193
136 159 192
139 160 191
139 161 194
139 160 190
139 162 195
141 162 191
143 164 193
140 163 195
142 164 195
137 158 188
143 164 193
143 167 200
136 160 195
138 159 190
140 163 195
138 160 192
138 161 195
136 157 188
144 164 192
143 163 193
139 160 190
143 164 194
136 159 191
138 159 189
140 163 197
142 162 192
135 157 188
146 167 197
144 164 192
135 158 189
143 163 189
147 169 199
138 159 188
136 158 190
141 162 192
137 157 187
141 162 192
137 158 188
139 161 193
145 166 195
144 165 192
140 161 190
145 166 195
139 161 191
147 168 198
141 163 192
139 160 190
143 166 197
148 169 199
145 166 195
143 165 196
142 164 196
138 158 184
141 163 192
131 152 183
145 165 192
144 165 194
139 159 186
140 162 194
140 162 192
147 169 198
147 169 199
142 162 189
147 167 194
141 160 185
144 165 193
149 169 195
141 160 186
143 162 186
142 165 196
141 160 187
147 167 193
142 162 189
139 161 190
143 164 192
148 166 191
143 165 193
147 168 197
137 158 186
145 164 189
147 167 192
146 168 196
143 164 192
144 166 194
143 163 189
140 160 190
139 159 185
138 159 188
145 167 195
138 158 188
148 168 193
145 167 194
141 158 180
141 161 188
148 168 194
147 167 194
141 159 184
144 164 190
140 158 181
149 168 192
151 171 197
151 171 197
148 167 194
145 164 187
144 163 187
145 164 189
146 164 189
144 164 192
144 163 189
144 162 187
148 167 191
147 165 191
139 158 181
150 170 196
141 158 182
137 155 178
147 165 188
139 158 182
146 166 193
139 159 185
143 162 189
140 159 184
152 171 196
144 163 189
152 171 194
142 162 189
140 161 189
144 163 187
144 162 183
147 164 185
141 162 191
146 164 188
144 163 186
143 162 186
145 164 188
144 158 175
146 165 189
145 164 189
140 159 184
145 164 187
147 169 198
147 166 190
150 167 187
141 159 182
152 169 189
147 165 186
146 164 188
143 160 182
145 164 188
144 162 186
148 161 176
147 164 186
147 163 184
149 166 189
144 161 180
146 165 187
149 164 183
152 169 190
145 160 178
149 167 188
148 166 190
157 176 200
146 164 187
148 165 185
151 168 189
145 164 187
144 159 177
143 163 190
146 164 185
148 166 188
149 166 188
149 166 188
141 160 181
144 163 186
144 161 181
149 168 192
150 169 193
150 166 187
147 164 185
152 170 192
147 168 197
146 167 196
148 168 196
150 170 198
145 167 197
151 172 201
147 168 196
149 171 200
147 169 199
148 170 199
142 165 195
148 170 199
149 171 201
148 170 198
150 171 201
149 170 200
151 171 200
152 173 201
148 170 198
147 168 197
144 166 197
147 168 198
146 168 197
146 168 198
152 173 202
142 164 196
145 167 196
150 172 200
150 171 201
145 166 195
145 167 197
145 166 195
149 171 201
145 168 198
146 168 199
151 171 199
142 164 195
145 166 197
145 167 198
146 168 197
145 166 194
148 169 198
147 169 199
142 165 195
152 173 202
148 169 198
149 171 200
142 164 195
142 164 195
147 168 196
142 165 196
144 167 198
144 167 200
149 171 199
145 167 197
146 167 195
148 169 198
146 169 199
145 167 197
135 158 190
144 166 197
145 167 196
136 159 192
139 161 192
149 171 200
145 167 197
146 168 199
148 169 197
144 167 197
138 159 188
146 168 198
140 162 194
146 166 195
151 173 203
148 170 201
146 167 197
145 166 195
146 168 199
146 168 199
145 167 197
140 162 194
146 168 199
150 172 201
144 166 196
138 160 190
141 163 196
142 163 193
139 160 189
147 168 196
141 164 197
146 168 199
142 164 194
147 170 200
142 164 195
146 168 198
134 156 187
140 159 188
144 165 193
141 162 192
146 167 196
144 166 197
147 169 199
144 165 196
137 158 188
142 164 196
133 156 190
138 160 191
136 158 191
143 164 194
138 159 190
138 160 191
143 163 191
143 165 197
145 168 199
145 167 197
148 171 202
145 166 195
140 161 189
143 166 197
134 156 188
131 153 185
146 168 197
143 164 194
140 163 196
140 162 194
140 162 193
143 165 194
136 159 193
136 158 191
140 162 193
143 164 194
136 158 188
138 161 194
145 166 195
143 165 196
140 163 194
144 165 193
146 167 195
138 159 189
133 155 187
145 166 195
138 161 193
143 165 197
143 165 196
146 167 197
147 169 199
138 159 191
140 162 194
137 157 186
147 169 198
133 154 184
144 165 194
140 159 187
143 165 195
141 161 190
138 159 190
139 159 189
136 157 185
139 158 184
142 164 195
140 163 194
145 164 192
136 159 191
141 161 190
139 159 187
141 164 194
140 161 190
146 165 191
144 166 197
146 167 198
144 165 193
142 162 191
148 169 197
146 167 195
144 162 188
137 158 186
143 165 197
143 164 193
149 169 196
142 165 197
142 164 194
149 171 201
145 166 193
141 162 191
143 166 196
140 161 192
143 164 194
143 165 197
146 166 193
138 157 185
137 160 192
145 165 192
146 166 192
139 159 186
146 166 192
144 166 196
141 161 190
142 161 187
147 169 199
140 161 189
143 162 188
137 159 190
143 162 187
141 162 192
151 171 198
146 166 192
140 160 187
144 165 193
136 156 183
136 156 182
144 167 199
145 167 196
142 161 187
132 154 186
141 161 190
145 165 191
142 159 181
143 165 195
140 161 189
144 163 186
144 166 196
140 160 187
148 167 192
137 158 187
146 165 190
140 161 190
147 167 194
145 166 195
140 160 188
148 166 190
147 166 192
135 156 184
146 166 194
139 160 187
139 159 187
143 164 191
140 159 183
146 167 197
145 164 189
146 165 189
146 165 191
134 154 180
144 163 189
144 163 188
151 169 191
142 162 189
141 160 186
137 158 187
142 163 190
146 165 191
146 164 189
144 164 192
150 169 192
135 155 183
143 162 186
141 161 187
141 159 182
147 164 182
151 170 194
151 170 195
147 166 189
150 169 196
144 164 190
143 164 192
150 170 196
142 161 185
149 168 193
146 166 193
143 163 189
147 166 190
148 167 192
144 161 181
145 163 188
142 161 186
149 167 190
143 163 187
140 159 187
143 161 183
148 166 188
142 160 184
147 164 187
149 169 194
144 163 187
148 167 191
148 169 196
147 166 189
145 165 190
145 163 187
150 167 187
147 164 184
147 163 183
152 170 192
147 166 191
151 168 187
145 161 180
142 157 176
147 166 189
153 172 196
141 159 182
145 164 186
147 163 182
150 166 185
147 167 192
143 161 184
147 165 189
152 171 194
144 162 182
152 172 197
143 162 186
149 165 185
150 169 192
146 163 184
147 162 179
149 167 189
144 160 179
149 165 184
148 165 188
149 166 186
150 169 192
151 169 191
149 170 198
152 172 199
148 170 200
147 168 198
149 170 198
147 169 200
149 171 200
149 170 198
152 173 199
143 165 197
150 170 198
152 173 200
146 167 195
145 166 194
149 169 198
151 172 200
147 169 200
144 166 196
148 169 198
147 169 198
149 169 197
150 173 202
143 165 196
149 171 201
149 171 199
149 171 200
150 172 202
151 173 202
149 171 199
144 165 193
147 169 198
146 168 197
148 170 199
147 167 194
146 168 198
146 168 198
144 166 197
146 167 195
143 165 196
147 169 199
148 169 199
155 176 204
147 169 198
142 163 192
146 168 199
146 167 197
142 163 194
149 170 199
145 168 198
144 166 197
147 169 198
145 166 196
142 164 193
142 163 194
140 162 193
148 169 199
146 167 196
141 163 193
147 168 197
149 171 200
145 167 198
142 165 196
142 164 195
147 169 199
144 167 199
144 166 195
144 167 198
143 165 195
143 165 196
142 164 195
145 167 199
142 164 195
140 161 190
148 169 198
145 166 196
145 167 197
146 168 199
146 167 195
148 170 200
139 159 187
149 170 199
145 167 197
142 164 195
145 167 196
145 166 194
142 164 195
148 170 200
147 168 197
137 161 195
148 169 197
147 168 197
137 159 190
151 171 199
141 163 195
144 166 197
148 169 198
142 163 193
137 160 194
143 166 198
144 165 195
148 169 199
140 161 192
143 163 191
139 160 191
150 172 202
141 164 196
145 166 196
138 160 191
137 160 192
149 169 197
144 164 192
143 165 195
143 164 194
141 163 194
149 171 202
141 163 195
144 166 197
138 159 190
143 164 193
136 158 190
137 160 194
141 163 194
138 160 191
136 159 193
140 163 195
136 159 191
147 168 195
136 159 193
143 163 191
145 167 197
144 167 200
140 162 194
146 169 200
138 160 192
143 165 195
142 164 193
133 156 189
137 160 193
145 165 192
131 151 182
145 167 197
146 168 199
137 158 188
142 164 194
142 164 194
140 162 193
148 170 200
138 159 189
146 166 194
135 156 189
135 157 189
133 155 189
137 159 190
146 168 198
139 160 190
144 165 195
137 160 193
141 162 192
145 168 200
140 163 195
141 163 194
139 159 186
141 163 195
146 167 195
137 158 189
142 164 195
136 158 190
137 159 191
144 165 192
144 164 192
146 167 196
141 163 194
143 164 192
149 171 199
146 167 195
142 163 193
149 169 197
139 160 191
144 166 195
143 165 194
148 170 199
150 171 198
147 167 194
147 167 196
143 164 192
144 164 192
137 160 192
138 157 183
139 160 189
141 161 187
143 164 194
139 161 192
146 164 186
142 165 197
144 166 196
140 160 186
140 161 191
142 163 191
139 159 188
140 159 184
147 167 193
142 163 192
144 166 195
141 164 196
137 157 183
146 168 199
147 167 194
144 164 188
139 160 188
149 170 199
142 163 193
148 169 199
149 169 195
147 167 195
144 162 184
142 163 191
136 157 186
140 162 191
143 164 191
142 162 189
142 162 187
147 167 196
148 167 193
144 165 193
143 161 186
139 159 187
143 165 195
144 165 192
148 167 190
144 165 191
140 161 190
145 164 187
142 162 187
141 162 191
145 165 190
138 158 185
146 167 196
150 170 195
145 163 187
143 164 192
144 164 189
147 167 195
146 165 191
147 168 195
146 165 191
143 164 190
145 164 190
147 166 190
148 166 189
143 163 189
140 158 183
144 162 185
150 169 192
142 161 185
142 162 190
147 167 191
144 161 184
147 166 191
151 169 190
151 172 199
148 169 195
144 164 189
148 166 189
146 166 192
142 160 183
140 159 184
146 165 187
149 168 192
147 166 193
144 161 185
141 159 182
143 161 185
142 159 179
140 160 187
149 169 193
148 166 190
147 166 191
148 165 188
143 162 185
145 162 183
144 164 191
152 171 196
149 169 195
152 171 195
144 164 193
147 167 194
145 162 184
148 166 190
143 162 187
143 161 185
146 165 191
147 166 190
147 165 188
147 168 197
150 168 189
150 170 197
146 163 185
142 162 187
144 163 186
152 171 195
142 159 180
149 166 187
149 168 192
145 164 188
149 165 185
149 167 189
143 161 186
145 164 190
149 167 188
146 164 187
151 171 195
144 158 175
146 161 178
145 161 181
152 171 194
149 169 193
150 169 194
151 170 194
150 167 189
152 172 198
150 171 199
148 170 200
153 174 201
151 172 200
145 167 197
146 167 196
147 168 195
144 167 199
145 167 198
146 168 197
145 167 197
147 169 198
151 173 201
145 167 194
147 169 198
145 166 195
146 168 199
146 166 195
146 167 197
148 170 200
138 159 189
155 176 204
148 170 199
152 174 204
149 171 201
146 167 195
148 169 199
149 170 199
145 167 196
143 165 195
145 167 197
145 166 196
146 169 200
147 168 197
145 167 197
143 165 196
143 166 197
151 173 204
146 167 196
145 167 197
149 170 199
145 166 197
148 170 200
146 169 199
139 162 195
144 166 197
146 167 196
151 172 199
140 162 194
139 161 193
149 171 202
151 173 202
141 163 194
136 157 189
142 163 193
146 167 196
145 166 196
146 168 199
148 169 197
144 166 197
150 171 200
150 171 199
150 172 202
146 167 197
142 163 193
145 166 194
146 168 199
141 163 195
145 166 195
140 162 194
140 162 193
149 170 200
149 170 200
144 165 193
141 162 192
143 166 197
148 171 201
141 163 193
139 162 195
144 167 198
143 166 198
138 160 191
138 160 190
146 166 194
142 164 195
148 169 198
150 171 199
144 166 197
145 167 197
144 166 197
146 168 199
143 165 196
144 166 198
141 163 195
141 163 193
140 161 191
134 157 190
149 171 199
143 167 200
145 167 197
144 166 197
138 161 194
147 168 197
144 165 195
145 166 195
145 166 196
139 161 194
138 160 192
138 160 191
137 159 191
144 166 196
147 169 199
146 167 195
144 166 197
137 160 193
140 162 192
144 166 197
138 160 191
148 169 196
147 169 199
141 162 194
140 164 196
140 162 195
137 158 188
142 162 190
144 166 198
144 165 195
148 170 199
146 168 200
134 158 193
143 164 194
143 165 196
138 160 190
138 160 192
149 171 202
141 164 195
149 170 201
145 166 195
143 164 194
134 157 189
142 162 190
143 165 196
140 162 193
146 168 198
149 170 197
144 164 194
137 158 190
147 169 197
143 163 190
135 157 189
137 159 188
132 154 188
140 162 191
149 170 200
134 157 189
140 162 193
146 166 193
144 165 195
146 165 192
147 168 197
142 163 194
144 165 194
141 164 197
146 166 193
142 163 192
142 164 195
150 171 200
144 167 198
143 164 193
150 171 199
145 166 194
138 161 193
148 169 198
136 157 187
143 164 193
140 160 189
144 165 194
145 166 195
143 163 190
143 164 195
144 164 192
147 169 199
141 162 190
144 164 192
146 166 196
137 158 189
145 166 194
144 166 195
147 167 194
141 162 191
138 161 193
140 161 191
145 166 195
143 164 193
148 169 199
149 169 196
141 162 190
147 168 196
143 164 192
142 162 189
140 160 188
140 162 193
142 163 193
148 168 195
138 157 182
142 163 190
146 167 195
140 160 188
142 162 190
144 165 192
141 162 190
144 164 189
140 161 190
147 169 198
146 167 195
146 167 195
141 162 192
147 167 193
138 157 183
146 165 189
137 156 181
147 167 192
135 154 183
142 162 192
141 163 194
139 159 186
143 163 189
144 165 192
145 163 187
140 162 191
144 165 193
150 171 198
137 159 189
142 161 186
145 165 193
145 166 194
145 163 186
139 160 190
148 168 192
145 164 189
146 166 192
143 163 188
142 161 185
143 163 191
148 167 193
151 171 198
146 164 187
148 169 195
148 167 191
140 159 182
146 168 197
150 170 195
147 166 191
150 167 187
145 166 194
149 168 194
147 168 196
140 159 185
142 164 194
141 161 186
142 162 187
140 159 182
146 164 187
144 166 194
145 164 189
148 165 187
140 161 187
147 166 192
153 172 196
142 161 186
141 159 183
150 168 191
149 166 188
148 166 188
148 168 196
140 158 181
149 167 190
148 167 192
143 162 186
144 163 186
147 166 190
144 161 182
149 168 193
146 166 192
150 169 195
149 169 195
146 163 185
144 164 191
146 165 189
143 161 183
149 167 189
147 167 192
149 167 188
144 161 183
152 170 194
146 164 185
146 163 185
151 171 195
152 169 191
154 172 192
150 167 189
151 169 191
154 173 196
148 167 189
146 163 184
139 155 175
145 163 185
144 162 183
143 161 185
148 168 193
147 165 186
150 167 188
146 162 181
152 169 190
148 166 187
147 167 192
147 163 183
147 163 183
147 165 187
143 162 187
148 169 198
141 163 193
150 172 201
148 169 198
152 173 201
142 161 189
146 169 199
149 171 200
152 172 200
147 169 199
146 167 197
149 170 199
147 169 199
147 168 197
145 167 196
150 172 200
147 168 197
149 168 195
146 168 197
146 168 198
152 172 200
148 170 200
150 172 202
148 170 199
147 168 197
151 171 198
149 171 201
147 168 197
145 165 193
147 170 200
147 169 199
144 165 195
146 168 198
148 170 200
149 169 197
149 171 201
147 169 198
143 165 195
147 168 196
147 169 199
146 167 195
154 175 203
146 167 196
152 174 204
151 173 202
142 165 195
144 167 197
144 166 197
145 166 194
144 165 195
143 165 196
146 168 197
147 168 197
142 164 195
143 166 197
150 170 199
143 165 196
150 171 199
146 168 197
146 168 197
149 169 196
149 171 201
147 168 197
141 162 192
139 160 189
141 163 193
148 170 198
145 166 195
145 167 198
129 150 182
146 168 198
150 170 197
144 165 195
149 170 199
151 172 201
148 170 200
145 166 196
146 167 196
139 161 192
144 167 199
145 166 197
142 164 195
141 163 194
146 168 197
135 158 192
152 173 202
145 165 193
148 169 199
137 159 190
146 167 198
147 168 197
139 160 190
145 167 198
139 161 192
139 161 193
148 169 197
141 164 195
145 166 195
146 168 199
136 158 191
145 167 198
136 158 189
142 164 195
139 161 194
150 172 201
141 163 196
143 165 195
148 168 195
137 158 190
142 164 194
143 164 193
148 170 201
144 165 194
146 167 198
145 168 199
143 166 197
140 161 189
144 165 196
142 164 195
142 164 195
147 169 197
145 166 196
145 166 195
140 161 193
148 169 199
143 164 195
143 165 197
143 165 194
143 164 192
144 166 197
142 164 192
144 165 194
144 165 195
141 163 193
142 164 195
143 165 196
139 162 195
141 162 192
144 165 195
146 168 198
147 169 199
140 160 188
137 160 195
143 165 196
145 166 195
147 167 193
142 164 195
134 155 185
139 159 187
139 161 192
132 154 186
142 164 194
145 165 193
140 161 190
140 163 194
145 166 194
139 160 191
145 166 195
141 164 196
142 163 193
142 163 193
134 155 185
141 163 195
145 166 194
147 167 195
137 158 187
146 168 198
142 164 193
142 163 194
141 163 193
141 162 191
140 161 190
145 166 194
150 171 199
136 158 191
138 158 184
142 163 193
146 167 195
136 158 189
142 164 195
142 164 195
145 166 195
131 155 189
142 165 197
143 165 196
143 164 194
144 164 192
139 159 186
144 164 193
141 160 185
148 167 193
138 159 188
141 161 188
136 157 187
148 167 193
148 169 197
143 162 189
141 163 194
140 161 188
141 163 195
141 163 194
142 164 196
140 162 193
148 169 196
143 166 197
144 165 191
150 172 202
149 170 199
144 165 193
145 166 196
147 166 192
146 167 194
145 167 197
145 166 195
147 168 197
135 155 181
144 165 193
147 166 192
142 164 195
135 156 186
137 158 186
152 173 199
150 169 195
142 162 189
143 163 189
142 162 190
146 165 190
142 163 192
140 160 187
144 165 194
147 167 194
149 168 195
143 163 189
142 162 191
148 169 196
140 160 186
142 162 189
150 170 195
140 157 179
138 157 183
141 162 190
150 169 192
144 164 190
142 162 189
147 168 196
144 164 191
147 167 192
149 169 193
152 172 199
147 166 192
148 168 194
147 167 193
143 161 185
148 170 197
147 168 197
150 169 195
144 163 188
139 161 191
145 166 195
147 168 196
142 163 188
144 163 187
150 168 191
142 163 190
140 157 181
144 163 188
141 159 182
147 167 193
145 163 186
141 158 179
150 170 197
147 165 188
146 165 190
144 162 185
148 169 195
152 170 192
138 157 181
145 164 187
141 161 187
145 165 192
141 161 188
149 169 193
141 164 195
148 167 192
148 167 191
149 169 194
154 173 197
143 160 180
143 163 187
146 163 185
142 159 181
149 166 186
150 169 195
151 169 192
146 162 181
144 162 184
151 169 190
152 171 194
146 164 190
143 159 179
145 159 177
141 160 184
153 170 192
147 165 187
147 167 192
148 167 191
149 166 186
146 162 181
150 168 189
148 170 198
149 166 188
149 170 196
152 171 196
146 164 186
149 167 191
145 162 183
152 170 192
146 164 186
146 163 185
148 166 187
147 169 199
146 169 200
150 172 200
148 169 197
148 169 198
149 171 201
151 172 201
143 165 195
141 161 189
151 172 200
150 171 199
152 174 203
151 172 201
147 169 199
150 171 198
150 170 198
152 174 203
153 174 202
142 164 194
150 173 203
142 162 190
144 166 196
150 171 200
148 170 199
141 163 192
147 168 196
145 166 196
151 173 202
145 166 195
145 167 197
147 169 198
147 169 199
149 171 200
145 167 198
147 168 197
148 169 198
140 163 194
146 168 199
148 169 197
141 163 195
143 164 194
145 167 197
149 170 198
149 171 201
146 167 195
152 173 200
149 170 198
148 169 197
148 169 198
149 171 199
145 166 195
144 166 195
144 165 194
147 168 198
141 163 195
139 161 192
147 168 197
142 165 197
144 166 197
153 174 201
144 167 198
146 167 197
149 170 199
149 171 199
146 168 199
137 158 189
147 168 196
147 168 198
144 167 198
147 169 200
145 167 197
150 172 202
145 167 198
143 165 196
145 166 195
147 168 197
143 165 195
144 167 198
143 165 194
143 166 198
144 166 199
145 167 198
149 171 200
148 170 200
141 163 194
143 164 193
146 168 198
146 168 198
148 170 201
150 170 199
139 161 192
144 166 197
149 171 201
142 163 194
142 163 193
148 170 200
140 163 195
143 165 197
147 169 199
132 152 181
148 170 198
145 166 195
154 175 203
146 167 197
146 167 196
140 163 196
151 171 198
146 168 198
144 165 194
141 163 193
143 165 195
142 164 194
138 161 194
145 164 191
143 165 197
139 161 191
139 161 193
143 164 194
146 168 198
137 160 193
142 165 196
140 162 193
142 164 196
150 171 198
137 159 190
142 162 190
140 163 195
145 167 198
144 167 198
141 162 191
146 167 196
152 173 201
144 164 190
143 165 195
151 173 201
148 168 193
141 163 194
144 165 196
140 162 191
143 164 192
143 165 197
143 164 193
145 165 193
145 165 194
146 167 197
146 167 197
145 164 188
140 160 188
140 162 192
139 159 189
151 172 201
146 167 196
141 163 194
137 159 191
147 167 194
146 168 198
146 168 198
139 160 190
141 163 194
134 157 190
145 166 195
140 163 196
147 168 197
143 164 194
148 170 199
142 162 191
138 158 185
140 163 197
139 161 192
141 161 187
140 162 193
142 164 193
149 171 200
144 164 191
142 163 192
141 162 190
143 165 195
144 166 196
141 161 187
146 166 194
138 160 192
149 171 201
142 165 196
143 164 192
148 169 198
142 163 194
144 167 198
142 163 192
138 160 191
139 158 184
140 161 189
143 164 192
146 168 197
144 165 194
142 162 189
145 166 193
145 166 197
146 166 192
146 167 196
144 165 194
142 164 192
141 163 195
139 159 189
142 163 193
139 159 184
146 166 194
144 163 190
141 163 194
146 167 194
145 165 192
143 164 192
143 166 196
148 170 199
139 160 189
146 167 196
147 166 192
144 165 195
145 165 192
143 164 192
143 161 185
141 160 188
151 171 198
142 162 191
146 164 187
142 164 193
148 168 195
138 159 190
150 171 197
147 166 192
146 164 187
145 165 191
141 160 186
146 168 198
141 161 190
145 166 194
134 154 179
143 161 185
147 168 198
141 160 185
147 167 192
143 163 190
142 162 189
145 165 190
146 167 193
144 163 186
135 155 181
146 162 185
146 166 192
143 163 189
149 169 196
139 157 182
140 162 191
138 156 180
140 158 183
146 164 187
143 162 188
146 166 194
145 162 186
150 167 188
154 173 196
149 170 197
142 161 188
149 169 194
139 159 184
149 166 188
146 165 190
154 170 190
142 162 189
143 161 183
148 168 195
148 169 197
147 163 184
150 169 194
146 166 192
142 161 185
144 164 188
144 163 188
144 163 186
152 171 194
142 159 180
150 171 197
143 161 185
146 164 186
150 169 192
149 165 186
149 168 191
142 159 181
148 168 192
143 163 190
147 164 186
149 168 193
146 164 186
149 167 190
150 168 191
145 163 188
152 172 197
148 167 193
151 171 195
149 170 198
148 165 186
147 165 188
144 163 186
147 168 195
149 168 193
145 161 179
150 169 192
146 165 189
150 167 189
151 168 191
144 162 185
145 163 187
143 160 178
143 160 182
150 169 191
142 161 187
150 166 188
152 169 190
146 164 186
149 167 190
148 166 191
148 169 198
147 169 199
147 168 197
147 169 199
143 164 194
145 167 197
141 162 191
149 171 199
144 166 197
150 171 200
149 171 199
149 171 200
142 164 193
144 165 196
145 167 196
151 172 200
150 171 200
148 168 196
144 166 197
144 166 195
147 168 197
153 175 203
147 169 200
150 171 200
146 168 197
146 168 199
153 173 201
142 163 193
142 163 194
146 167 196
147 168 197
147 168 198
146 169 198
148 168 196
146 168 199
150 172 201
144 165 194
147 169 199
144 166 195
146 168 199
147 167 195
143 165 194
148 169 199
146 167 197
146 167 197
145 167 198
152 173 201
150 171 199
147 168 196
145 166 196
151 172 199
148 171 202
148 170 199
148 170 200
153 174 202
142 164 195
143 165 196
144 166 196
147 167 196
149 171 200
149 169 198
146 168 197
142 164 194
144 167 197
149 170 199
148 170 200
147 168 196
140 162 193
142 165 197
143 165 197
147 168 196
147 168 197
137 160 192
149 170 199
141 162 193
141 161 189
146 168 198
146 168 199
139 161 193
140 162 193
143 165 195
145 167 197
139 162 193
137 159 191
142 164 195
145 167 198
145 167 196
145 166 195
147 170 202
141 165 198
143 165 195
144 165 193
139 160 191
138 161 194
140 163 195
142 164 194
142 164 195
139 161 192
142 164 193
143 165 195
148 168 195
140 163 195
145 166 195
144 164 192
146 168 198
144 167 198
144 165 196
150 171 200
143 164 194
145 167 198
139 160 189
146 167 197
147 169 200
148 170 200
145 166 197
144 166 197
139 161 193
138 160 190
144 166 196
143 164 194
146 167 196
141 162 191
142 165 197
141 163 195
137 160 191
141 162 192
140 161 190
146 167 196
146 167 195
137 158 189
146 167 197
134 156 189
144 166 197
145 165 194
144 166 196
140 162 192
140 162 193
142 162 190
139 161 192
138 160 190
145 166 195
141 162 191
144 165 194
139 161 192
143 164 194
145 167 196
139 161 192
148 169 198
143 164 193
142 164 195
142 164 195
142 163 194
145 166 193
143 164 193
144 166 196
142 164 195
144 166 197
143 163 191
137 159 190
144 166 198
142 163 192
140 161 190
141 162 190
137 157 187
142 164 193
142 164 195
140 162 195
141 163 194
148 167 195
131 152 184
140 162 191
150 171 198
144 165 196
147 168 196
145 167 197
147 169 199
138 158 187
146 168 198
131 152 181
133 154 184
143 164 194
145 166 196
144 166 197
146 167 198
141 161 189
144 166 196
145 164 190
146 167 198
143 165 194
148 168 194
145 165 190
147 168 198
143 164 192
137 158 187
143 165 196
143 162 187
143 163 191
143 163 191
145 165 193
138 159 188
145 168 198
139 160 190
143 163 189
139 160 189
140 162 194
145 164 191
147 168 195
147 166 191
148 169 196
142 163 192
144 164 192
146 165 192
144 165 191
134 154 184
143 164 192
145 167 197
150 169 192
143 163 192
144 165 195
145 164 191
148 167 193
146 165 190
146 166 191
141 161 189
143 165 194
142 163 191
147 166 192
150 170 197
145 165 192
148 167 194
141 162 189
146 164 188
138 158 186
139 161 191
142 163 192
155 174 199
142 163 191
150 169 194
145 163 188
149 169 194
144 162 188
148 169 197
143 164 192
146 165 190
148 168 195
145 166 195
143 163 189
147 168 195
141 162 192
144 164 190
137 156 181
145 165 193
147 168 194
149 168 193
147 164 185
152 172 198
145 164 190
150 169 194
146 165 191
140 160 187
145 165 191
151 170 196
140 161 191
145 165 192
145 165 192
147 168 196
146 164 187
146 167 192
143 161 186
148 169 199
146 164 187
149 168 192
149 169 195
148 167 193
149 165 183
147 166 190
148 169 196
143 164 190
149 168 191
136 156 182
150 169 192
148 168 193
147 166 192
142 162 188
152 169 190
146 166 192
147 165 187
145 162 184
148 167 192
144 161 182
142 161 188
146 164 186
147 164 184
148 165 187
145 163 185
147 163 181
146 163 185
150 169 194
149 168 193
152 169 191
141 156 176
147 165 186
146 165 191
149 167 189
149 166 186
143 164 191
153 172 194
152 170 193
149 166 188
148 163 181
150 171 197
149 165 184
148 165 185
152 171 195
152 172 196
150 169 193
149 167 190
147 166 189
153 170 191
145 165 192
